Junhao2000/UR5-final-year-project/Final report/Matlab_script/circle_movement_100mms.csv
Time,Position->,Joint 1,Joint 2,Joint 3,Joint 4,Joint 5,Joint 6,Velocity->,Joint 1,Joint 2,Joint 3,Joint 4,Joint 5,Joint 6,Current->,Joint 1,Joint 2,Joint 3,Joint 4,Joint 5,Joint 6
0,,1.951165676,-1.720399205,0.508533716,-1.786067311,4.748374462,3.156612635,,0,-0.00322136,-0.00483204,0,0,0,,-1.082794547,-1.82259202,-0.269017279,-0.033550907,0.018300494,-0.176904783
0.007930112,,1.951177597,-1.720446889,0.508485794,-1.786126439,4.748386383,3.156600714,,0.003029612,-0.003272492,-0.004947088,0,0,0,,-1.058134556,-1.923473477,-0.210730195,-0.018300494,0.02745074,-0.251631796
0.015970048,,1.95121336,-1.72050697,0.508437872,-1.786103074,4.748398304,3.156552792,,0.005381716,-0.005701296,-0.003579288,0,0,-0.003115899,,-1.25317204,-1.887604475,-0.289193571,-0.010675289,0.019825535,-0.21198073
0.023990016,,1.951249599,-1.720530812,0.50838995,-1.786091153,4.748410225,3.156504869,,0.002710033,-0.006072008,-0.00773382,0,0,-0.006279734,,-0.999847531,-1.990727782,-0.450603932,0.006100165,0.022875618,-0.224181056
0.031869952,,1.951309204,-1.720614735,0.508330405,-1.786079232,4.748434067,3.156456947,,0.012489161,-0.010673949,-0.011389808,0,0,-0.007693873,,-1.150048852,-2.084883928,-0.322820723,0.042701155,0.01372537,-0.230281219
0.040009984,,1.951357365,-1.720662896,0.508246481,-1.786031071,4.748386383,3.156301498,,0.006851781,-0.012118449,-0.011581555,0,0,-0.016777916,,-0.990880251,-1.952617049,-0.486472875,0.061001647,-0.007625206,-0.219605923
0.047960064,,1.951453209,-1.720806901,0.508114696,-1.785983388,4.748410225,3.156205654,,0.015953401,-0.015863918,-0.015020229,0,0,-0.016442357,,-0.97967124,-2.053498507,-0.41921857,0.068626851,0.001525041,-0.192155182
0.055960064,,1.951560974,-1.720938985,0.508019149,-1.785959069,4.748422146,3.156062126,,0.012438028,-0.015237543,-0.015646605,0.008364989,0,-0.02274606,,-1.015540123,-1.943649769,-0.529067278,-0.01372537,0.004575124,-0.187580064
0.064,,1.951668739,-1.721070592,0.507851422,-1.785935227,4.748422146,3.155882835,,0.015493207,-0.019583821,-0.020721525,0.00417051,0,-0.021595575,,-0.925867736,-1.986244202,-0.508890986,-0.009150247,0.003050082,-0.073201977
0.07195008,,1.951813221,-1.721262757,0.507755876,-1.785983388,4.748386383,3.15572691,,0.018919097,-0.019839486,-0.021207284,0.002756372,0,-0.025454495,,-1.134356141,-1.934682488,-0.668059528,0.03965107,0.001525041,-0.105227843
0.080019968,,1.95196867,-1.721382443,0.507540524,-1.785935227,4.748398304,3.155488014,,0.019634955,-0.023252593,-0.025131719,0.002037318,0,-0.025694178,,-0.995363891,-1.975035071,-0.70168668,0.07930214,-0.001525041,0
0.087899904,,1.952124596,-1.721598927,0.507373154,-1.785899464,4.748410225,3.155296326,,0.021079453,-0.02417298,-0.029669745,0.001725729,0,-0.03079946,,-0.999847531,-1.912264347,-0.70168668,0.125053376,-0.004575124,-0.024400659
0.095919872,,1.952280045,-1.72185022,0.507145822,-1.78576738,4.748410225,3.155069113,,0.022281071,-0.025566347,-0.029797578,0.01176851,0,-0.028043088,,-0.950527668,-1.948133349,-0.809293628,-0.041176111,0.001525041,0.015250412
0.103970048,,1.95243597,-1.722018544,0.506882548,-1.785791222,4.748410225,3.154865742,,0.025873143,-0.027931234,-0.032763273,0.00479369,0,-0.032980587,,-1.069343686,-1.892088056,-0.883273363,0.015250412,0,-0.015250412
0.111919872,,1.952640057,-1.722269837,0.506630898,-1.785743539,4.748422146,3.154578447,,0.022856314,-0.030756315,-0.036559876,0.002996056,0,-0.035880771,,-0.921384156,-1.856219172,-0.970703959,0.086927347,-0.004575124,-0.065576769
0.119970048,,1.952879906,-1.722522084,0.506367981,-1.785707776,4.748398304,3.154279232,,0.028800489,-0.032188032,-0.038809713,0.012727248,0,-0.041010018,,-0.943802238,-1.878637195,-1.046925545,0.10675288,-0.016775453,-0.131153539
0.127879936,,1.953059673,-1.722822014,0.506056368,-1.785611931,4.748410225,3.153992176,,0.027202593,-0.034118291,-0.041225735,0.007621967,0,-0.041753042,,-0.84292078,-1.82035017,-1.064859986,-0.003050082,-0.006100165,-0.19978039
0.135990016,,1.953347206,-1.723097626,0.505721569,-1.785623852,4.748410225,3.153657198,,0.030717965,-0.035128161,-0.045009553,0.004290353,0,-0.040362872,,-0.863097072,-1.81810832,-1.053650975,0.077777103,-0.009150247,-0.260782033
0.143930112,,1.953563213,-1.723361317,0.505362391,-1.785492245,4.748410225,3.153334379,,0.02960583,-0.038157772,-0.048141431,0.019821908,0,-0.042280346,,-0.8339535,-1.746370435,-0.955011308,0.047276277,-0.006100165,-0.306533277
0.151970048,,1.953826904,-1.723673646,0.50496769,-1.785444085,4.748398304,3.152975082,,0.033977676,-0.039308257,-0.052436579,0.008077368,0,-0.049974218,,-0.831711709,-1.755337715,-0.946044028,-0.048801318,-0.010675289,-0.263832122
0.159970048,,1.954066277,-1.724032704,0.504584551,-1.785408322,4.748422146,3.152592421,,0.034923632,-0.041136254,-0.054008909,0.004985438,0,-0.055534899,,-0.898966014,-1.697050571,-0.966220319,0.059476607,-0.033550907,-0.155554205
0.167879936,,1.95436573,-1.724332635,0.504117906,-1.785288636,4.748398304,3.152113676,,0.037147902,-0.04394855,-0.057856642,0.02118811,0,-0.057332534,,-0.903449655,-1.609619975,-0.9751876,-0.083877265,-0.035075948,-0.007625206
0.176130048,,1.954689503,-1.724752251,0.503662884,-1.785300557,4.748362541,3.151695013,,0.037684795,-0.04668415,-0.060873471,0.011241203,0,-0.054168697,,-0.865338862,-1.53339839,-0.874306142,-0.056426525,-0.041176111,0.015250412
0.184019968,,1.954941273,-1.725136105,0.503172278,-1.785228554,4.748386383,3.151204348,,0.038796932,-0.04632622,-0.062535286,0.004961469,0,-0.060328592,,-0.910175085,-1.636521697,-0.791359127,0.024400659,-0.042701155,-0.083877265
0.192,,1.955300808,-1.725484196,0.502669692,-1.785049264,4.748386383,3.150641918,,0.041967157,-0.048665542,-0.066076227,0.032381378,0,-0.072888061,,-0.903449655,-1.68584156,-0.780150056,-0.169279575,-0.050326359,-0.176904783
0.199970048,,1.955636501,-1.725891892,0.502154768,-1.784977261,4.74835062,3.150103331,,0.043296609,-0.050979298,-0.068044834,0.008628642,0,-0.062485751,,-0.847404361,-1.692566991,-0.8339535,-0.155554205,-0.061001647,-0.254681885
0.207940096,,1.956007957,-1.726311509,0.501592278,-1.784929101,4.748362541,3.149588823,,0.046147257,-0.051401142,-0.0708827,0.021907164,0,-0.067758814,,-1.008814693,-1.741886854,-0.874306142,-0.02745074,-0.057951566,-0.29738304
0.215980032,,1.95633173,-1.726755444,0.501042128,-1.784761731,4.748338699,3.149050236,,0.045699846,-0.054469101,-0.073784478,0.010785803,0,-0.076483324,,-0.959494889,-1.777755737,-0.818260849,-0.231806263,-0.08540231,-0.175379738
0.22388992,,1.956739426,-1.727151219,0.500419676,-1.784773652,4.748279095,3.148452282,,0.049777679,-0.055862468,-0.07713367,0.008125305,-0.001510012,-0.074829504,,-1.058134556,-1.82259202,-0.724104822,-0.089977428,-0.080827184,0.006100165
0.231919872,,1.957111359,-1.72763044,0.499797612,-1.784558121,4.748242855,3.147818089,,0.04805195,-0.058546934,-0.07906393,0.024903221,-0.001510012,-0.075069189,,-1.071585417,-1.849493742,-0.690477669,-0.21198073,-0.076252058,-0.048801318
0.240059904,,1.957530499,-1.728110139,0.49915123,-1.78453428,4.748266697,3.147148132,,0.051017646,-0.059953082,-0.082771048,0.007190535,-0.001510012,-0.088179931,,-1.073827267,-1.885362625,-0.867580712,-0.175379738,-0.077777103,-0.166229486
0.247899904,,1.957901955,-1.728638474,0.498492837,-1.784426514,4.748266697,3.146514177,,0.051656805,-0.06179386,-0.084688522,0.014524881,-0.001510012,-0.07655523,,-1.078310847,-1.824833751,-0.813777208,-0.077777103,-0.057951566,-0.248581707
0.25595008,,1.958297729,-1.729129616,0.497822464,-1.78433067,4.748242855,3.145879745,,0.051886901,-0.064197101,-0.088216677,0.013110743,-0.001510012,-0.087101348,,-0.948285878,-1.797932029,-0.69271946,-0.2257061,-0.068626851,-0.231806263
0.263909888,,1.958741188,-1.729645554,0.497092545,-1.784282509,4.748230934,3.145138264,,0.054315705,-0.066383019,-0.09050487,0.00680704,-0.001510012,-0.08916264,,-0.941560447,-1.703776002,-0.771182835,-0.135728672,-0.062526688,0.010675289
0.271960064,,1.959148407,-1.730197255,0.496374637,-1.784210507,4.748242855,3.14445591,,0.053625412,-0.068159878,-0.091310211,0.027971182,-0.001294296,-0.087532781,,-0.894482434,-1.732919574,-0.831711709,-0.045751236,-0.062526688,-0.070151895
0.279940096,,1.959603786,-1.730748955,0.495656312,-1.784103219,4.748219013,3.14373827,,0.057358101,-0.070396937,-0.094237559,0.014381071,-0.001126517,-0.10510166,,-0.827228069,-1.719468713,-0.865338862,-0.253156841,-0.065576769,-0.230281219
0.287960064,,1.960059643,-1.731300179,0.494902819,-1.784066979,4.748254776,3.142936468,,0.057345316,-0.071764737,-0.097254381,0.005177185,-0.000982706,-0.088323742,,-0.874306142,-1.667907,-0.627706945,-0.032025866,-0.089977428,-0.295857996
0.295990016,,1.960479259,-1.731888119,0.494077027,-1.783803765,4.748230934,3.142134666,,0.060119264,-0.073285937,-0.099823803,0.025909895,-0.000862864,-0.106491826,,-0.878789723,-1.739645004,-0.851888001,-0.19825536,-0.083877265,-0.215030804
0.303869952,,1.960982323,-1.732463662,0.493286818,-1.783827607,4.748242855,3.14129734,,0.061934475,-0.075101145,-0.102290951,0.006591324,-0.000814927,-0.104094982,,-0.901207864,-1.838284612,-0.822744489,0.001525041,-0.105227843,-0.050326359
0.311930112,,1.9614501,-1.733099286,0.492437065,-1.783648316,4.748230934,3.140447855,,0.062816516,-0.0771081,-0.10546118,0.030655649,-0.000814927,-0.110206939,,-1.008814693,-1.96606791,-0.847404361,-0.016775453,-0.089977428,-0.21198073
0.31988992,,1.96195364,-1.733711068,0.491587311,-1.78352863,4.748207092,3.139574528,,0.065488197,-0.077760041,-0.109181084,0.016178705,-0.000814927,-0.097839214,,-1.094003558,-1.992969632,-0.907933295,0,-0.114378087,-0.274507403
0.327980032,,1.962492943,-1.734322373,0.490665644,-1.783456628,4.748158932,3.138736725,,0.065577678,-0.079639174,-0.111034647,0.035904739,-0.000814927,-0.114569195,,-1.11417985,-1.912264347,-0.923625946,0.154029161,-0.129628494,-0.202830479
0.335879936,,1.962984085,-1.735018555,0.489744365,-1.783205334,4.748123169,3.137827396,,0.065079138,-0.081633344,-0.114064254,0.021595575,-0.00232494,-0.1128195,,-1.080552697,-1.824833751,-0.719621181,0.015250412,-0.109802961,-0.018300494
0.343960064,,1.963523865,-1.735641781,0.488798708,-1.783037488,4.748111248,3.136858225,,0.066983826,-0.083422989,-0.11612235,0.03235741,-0.00232494,-0.125426903,,-1.141081572,-1.753095865,-0.708412111,0.172329649,-0.09912768,-0.262307078
0.351899904,,1.964074612,-1.736361329,0.487829506,-1.782834355,4.748099327,3.135925055,,0.070805997,-0.085544996,-0.118525587,0.016082831,-0.00232494,-0.111285515,,-1.051409125,-1.629796267,-0.663575947,0.064051732,-0.105227843,-0.279082537
0.359990016,,1.964638233,-1.737021271,0.486836314,-1.782738511,4.748099327,3.134968042,,0.0704225,-0.086618781,-0.122552283,0.022674154,-0.002037318,-0.129645348,,-0.990880251,-1.553574681,-0.851888001,0.21350576,-0.109802961,-0.128103465
0.367970048,,1.965238094,-1.737764661,0.485842735,-1.782486741,4.748086929,3.133926868,,0.071572989,-0.087884314,-0.125696942,0.015579493,-0.001629855,-0.126193896,,-1.002089262,-1.522189379,-0.988638461,0.061001647,-0.125053376,-0.094552554
0.376,,1.965825081,-1.738436047,0.484753668,-1.782450978,4.74813509,3.132849932,,0.071432374,-0.087245159,-0.128522024,0.021619543,-0.001342233,-0.123365618,,-0.959494889,-1.618587255,-0.921384156,0.22723113,-0.125053376,-0.2257061
0.384029952,,1.966412544,-1.739167992,0.483676583,-1.782271687,4.748075008,3.131808758,,0.074270241,-0.089175418,-0.130477846,0.021595575,-0.001174454,-0.138273999,,-0.937076807,-1.732919574,-0.793600917,0.032025866,-0.158604279,-0.176904783
0.391980032,,1.966988087,-1.739839379,0.4826231,-1.782151524,4.748075008,3.130696058,,0.074180759,-0.088561825,-0.13259986,0.014405039,-0.001174454,-0.125498801,,-1.046925545,-1.784481168,-0.820502639,0.158604279,-0.128103465,0.010675289
0.399970048,,1.967610836,-1.74060661,0.481510073,-1.78188831,4.748015404,3.129583359,,0.075395159,-0.092383996,-0.135386586,0.025909895,-0.004386227,-0.141917199,,-1.091761708,-1.739645004,-0.939318597,-0.054901481,-0.128103465,-0.231806263
0.407960064,,1.96824646,-1.741290871,0.480432987,-1.781756703,4.748027802,3.128446817,,0.07632833,-0.091655351,-0.13835229,0.025118936,-0.004386227,-0.129597411,,-1.197126865,-1.728435993,-1.143323421,0.047276277,-0.09302751,-0.280607581
0.415930112,,1.968833923,-1.742070023,0.479284376,-1.781528775,4.748015404,3.127262115,,0.075407937,-0.093560047,-0.141241282,0.023273366,-0.003691141,-0.129597411,,-1.132114291,-1.699292421,-1.11417985,-0.108277924,-0.091502473,0.022875618
0.42388992,,1.969480991,-1.74278957,0.478135377,-1.781397168,4.748039722,3.126101732,,0.076162145,-0.095209077,-0.145229638,0.029888658,0,-0.150282189,,-1.11417985,-1.526672959,-1.024507403,-0.068626851,-0.129628494,-0.222656012
0.431919872,,1.970116138,-1.743557278,0.476962417,-1.781133477,4.748027802,3.12491703,,0.077632211,-0.096500173,-0.149997756,0.021475732,0,-0.153134435,,-1.107454419,-1.658939838,-0.860855222,-0.210455686,-0.154029161,-0.234856337
0.439899904,,1.970716,-1.744313065,0.475801468,-1.780966107,4.747943878,3.123636961,,0.073285937,-0.095375255,-0.153180763,0.028858015,0,-0.146471202,,-1.026749253,-1.688083291,-1.002089262,-0.140303791,-0.158604279,-0.009150247
0.447940096,,1.971327305,-1.745092217,0.474604905,-1.780738656,4.747907639,3.122392893,,0.075995967,-0.096998721,-0.157220244,0.020852553,-0.003619236,-0.157640502,,-0.98415482,-1.845010042,-1.165741444,-0.2257061,-0.137253702,-0.259256989
0.455919872,,1.971914291,-1.745896165,0.473336071,-1.780606572,4.747943878,3.121124506,,0.075356811,-0.098775581,-0.162244037,0.025885927,-0.003619236,-0.166029453,,-1.004331112,-1.914506197,-1.105212569,-0.103702798,-0.128103465,-0.237906426
0.463919872,,1.972514153,-1.746723477,0.472055644,-1.780427281,4.747943878,3.119808435,,0.078220241,-0.09933804,-0.166922674,0.018983014,-0.002924151,-0.166964233,,-0.999847531,-1.930198908,-0.97742939,-0.21198073,-0.140303791,-0.163179412
0.471859968,,1.9731493,-1.747526948,0.470762849,-1.780331437,4.747919559,3.118456364,,0.075395159,-0.100117818,-0.171524629,0.018239992,-0.002157161,-0.158431455,,-0.98415482,-1.692566991,-1.109696269,-0.032025866,-0.169279575,-0.268407255
0.479960064,,1.973748207,-1.748354737,0.469422489,-1.780091588,4.74793148,3.117128372,,0.078463122,-0.102201469,-0.174272999,0.02027731,-0.00170176,-0.16996029,,-1.037958264,-1.567025542,-1.127630711,-0.167754531,-0.167754531,-0.032025866
0.487909888,,1.974383831,-1.749121968,0.467998594,-1.780044381,4.747907639,3.115704298,,0.079306811,-0.101421699,-0.177890643,0.010570087,-0.001438107,-0.176983044,,-0.997605681,-1.54236567,-1.1164217,0.038126029,-0.195205271,-0.32788384
0.495849984,,1.974995136,-1.749961678,0.466633886,-1.77974445,4.747835636,3.114328623,,0.077811174,-0.100360692,-0.181776732,0.033004556,-0.001438107,-0.182759434,,-1.049167395,-1.54460752,-0.9751876,-0.051851399,-0.202830479,-0.272982359
0.503940096,,1.975642204,-1.750800912,0.465126127,-1.779589001,4.747811794,3.112892866,,0.080048233,-0.100603573,-0.185330451,0.032429315,-0.006591324,-0.183238804,,-1.080552697,-1.53564024,-1.024507403,0.111328006,-0.129628494,-0.138778746
0.511869952,,1.976289749,-1.751556698,0.463677913,-1.779254262,4.747848034,3.111433029,,0.080610693,-0.099811018,-0.188909739,0.029672941,-0.00417051,-0.181800693,,-1.011056542,-1.744128585,-0.762215614,0.07930214,-0.117428169,-0.257731974
0.519909888,,1.976901054,-1.75237209,0.462133825,-1.779050652,4.747823715,3.109949589,,0.081147589,-0.100462958,-0.193102613,0.026916571,0,-0.18347849,,-1.125388861,-1.786723018,-0.98639667,0.143353865,-0.202830479,0.033550907
0.527849984,,1.977620602,-1.753199402,0.460638046,-1.778835122,4.747776031,3.108441353,,0.075395159,-0.100117818,-0.196860865,0.021451764,0,-0.188799486,,-1.067101836,-1.690325141,-1.078310847,0.103702798,-0.21350576,-0.2257061
0.535930112,,1.978219032,-1.754002873,0.459010065,-1.778655354,4.74775219,3.106873989,,0.082323641,-0.101025417,-0.198573813,0.023513051,-0.005656554,-0.200951487,,-0.98415482,-1.737403154,-1.002089262,0.077777103,-0.160129324,-0.041176111
0.543879936,,1.978890896,-1.754770581,0.457382441,-1.778535668,4.74775219,3.105294704,,0.082055189,-0.102815062,-0.20175682,0.020205405,-0.004530037,-0.201239109,,-0.946044028,-1.634279847,-0.878789723,0.065576769,-0.17080462,-0.236381382
0.55195008,,1.979562283,-1.755670373,0.455718905,-1.778320138,4.747776031,3.103655577,,0.085225418,-0.103339173,-0.203623176,0.027132286,-0.004530037,-0.208285838,,-1.004331112,-1.564783812,-1.1164217,-0.021350577,-0.17080462,-0.056426525
0.559899904,,1.980209351,-1.756485764,0.454019368,-1.778104607,4.747728348,3.10200429,,0.075395159,-0.10344144,-0.206703916,0.030080406,0,-0.214277953,,-1.017781973,-1.658939838,-1.156774282,-0.033550907,-0.233331308,-0.309583366
0.567899904,,1.98088026,-1.757289712,0.452272296,-1.777817074,4.747632504,3.100269556,,0.082285285,-0.102776714,-0.209490642,0.028234836,-0.002085255,-0.214877158,,-1.085036278,-1.739645004,-1.008814693,-0.137253702,-0.253156841,-0.181479901
0.575899904,,1.981527805,-1.758105103,0.450560808,-1.777661626,4.747632504,3.098522663,,0.081441596,-0.101651795,-0.210564435,0.024567662,-0.008628642,-0.217369884,,-1.125388861,-1.791206598,-0.919142306,-0.109802961,-0.073201977,-0.266882211
0.583970048,,1.982162952,-1.758920495,0.44884932,-1.777446095,4.747704506,3.09678793,,0.082758263,-0.101396136,-0.214591131,0.02706038,0.001653823,-0.221324667,,-1.215061307,-1.856219172,-1.226270318,-0.137253702,-0.253156841,-0.176904783
0.591960064,,1.982834816,-1.759735886,0.447113842,-1.777254407,4.747572422,3.094981194,,0.080572344,-0.102009721,-0.218234345,0.021116205,-0.016634105,-0.222642943,,-1.152290583,-1.762063146,-1.073827267,-0.07930214,-0.11285305,-0.289757818
0.59988992,,1.983481407,-1.760575596,0.445354402,-1.777038876,4.747680187,3.093270063,,0.079639174,-0.101651795,-0.221736923,0.026197517,0.001965413,-0.227316782,,-1.197126865,-1.629796267,-1.060376406,-0.077777103,-0.132678583,-0.183004946
0.607919872,,1.984093189,-1.761366669,0.443642914,-1.77687103,4.747572422,3.091427565,,0.078245804,-0.10085924,-0.222887412,0.023608925,-0.03391536,-0.227101073,,-1.073827267,-1.546849251,-1.324910045,0.02745074,-0.285182714,-0.253156841
0.61588992,,1.984728336,-1.762170617,0.441871494,-1.776631657,4.747572422,3.089644909,,0.075765871,-0.098673314,-0.230033204,0.028210867,0.023393208,-0.23079221,,-0.919142306,-1.524431229,-1.340602756,0.041176111,-0.067101814,-0.051851399
0.62388992,,1.985315323,-1.763010327,0.439944655,-1.776367966,4.74750042,3.08777833,,0.075804219,-0.099299692,-0.234494537,0.031590417,-0.041537326,-0.233836204,,-0.966220319,-1.488562226,-1.176950574,0.083877265,-0.2409565,-0.282132626
0.63195008,,1.985927105,-1.763765637,0.43807736,-1.776104752,4.747584343,3.08587575,,0.074398071,-0.098443218,-0.239684507,0.03108708,0.026557043,-0.243088022,,-0.957253098,-1.587201834,-1.163499713,0.10675288,-0.195205271,-0.05337644
0.639859968,,1.986490726,-1.764593426,0.436138541,-1.775924985,4.747405052,3.083997965,,0.073950656,-0.097228818,-0.244337574,0.027324034,-0.03777428,-0.23738353,,-0.925867736,-1.697050571,-1.167983294,0.152504116,-0.036600988,-0.231806263
0.647909888,,1.987101555,-1.765276734,0.434199721,-1.775709931,4.747560501,3.082071543,,0.073682211,-0.09678141,-0.248530462,0.026844665,0.025909895,-0.244669944,,-0.990880251,-1.694808722,-1.194885015,0.164704442,-0.353809565,-0.111328006
0.655869952,,1.987689018,-1.766092602,0.4321886,-1.775517766,4.747321129,3.080109119,,0.073081404,-0.095081247,-0.249770433,0.019821908,-0.018503644,-0.247953624,,-1.067101836,-1.607378125,-0.98191303,0.152504116,0.07930214,-0.257731974
0.663909888,,1.988216877,-1.766847912,0.430177897,-1.775362317,4.74750042,3.078087091,,0.072276063,-0.093841277,-0.254628032,0.024184167,0.016178705,-0.259506404,,-1.089519978,-1.629796267,-1.089519978,0.161654368,-0.44073689,-0.233331308
0.671899904,,1.988839626,-1.767603699,0.428095251,-1.775170628,4.747273445,3.076053143,,0.070908263,-0.094071373,-0.254934818,0.021212079,-0.016178705,-0.260273397,,-1.006572962,-1.506496668,-1.226270318,0.117428169,0.07930214,-0.141828835
0.679990016,,1.989367008,-1.768347088,0.426012993,-1.774990861,4.747428894,3.073971272,,0.070499204,-0.089558914,-0.255139351,0.023704797,0.011408983,-0.246060118,,-1.017781973,-1.380955338,-0.952769458,0.041176111,-0.419386327,-0.29738304
0.687960064,,1.989894867,-1.769090478,0.423882425,-1.774799649,4.747189522,3.071937323,,0.066549204,-0.087692574,-0.254001647,0.021979069,-0.012152005,-0.258379906,,-0.889998794,-1.432516932,-1.176950574,0.021350577,0.082352221,-0.094552554
0.69595008,,1.990410328,-1.769762341,0.421788186,-1.774608437,4.747393131,3.06983161,,0.067111664,-0.086439818,-0.253822684,0.02538259,0.010785803,-0.253106833,,-0.854129791,-1.632038116,-0.993122101,-0.067101814,-0.443786979,-0.239431471
0.703930112,,1.990949631,-1.770469968,0.419741511,-1.774392907,4.747189522,3.067762136,,0.066638686,-0.083729789,-0.250090003,0.028067056,-0.01315868,-0.257924497,,-0.856371641,-1.670148849,-0.916900516,-0.062526688,0.070151895,-0.2409565
0.711919872,,1.991477013,-1.770973508,0.417694807,-1.774117295,4.747273445,3.065656185,,0.063609071,-0.078360856,-0.252224803,0.028858015,0.011001519,-0.258547664,,-0.934835017,-1.739645004,-1.304733753,-0.173854694,-0.425486475,-0.163179412
0.719919872,,1.991968632,-1.77166969,0.415720046,-1.773949448,4.74712944,3.063610315,,0.064082049,-0.079025581,-0.250435144,0.023776703,-0.011169298,-0.253178746,,-1.060376406,-1.67687428,-1.179192305,-0.169279575,0.065576769,-0.279082537
0.727859968,,1.992424011,-1.772280995,0.413780481,-1.773782078,4.747189522,3.061540365,,0.060323797,-0.075804219,-0.252429336,0.021835258,-0.029385321,-0.249559507,,-1.069343686,-1.649972558,-1.152290583,-0.167754531,-0.428536564,-0.006100165
0.735869952,,1.992927074,-1.772856538,0.41182965,-1.773578469,4.747057915,3.059518337,,0.060950171,-0.074564248,-0.253464758,0.019630162,-0.008724516,-0.248025522,,-1.161257863,-1.504254937,-1.277832031,-0.155554205,0.019825535,-0.266882211
0.743899904,,1.99337101,-1.773492638,0.409890831,-1.773411099,4.747153282,3.057460546,,0.057294182,-0.071483508,-0.255637914,0.017616812,-0.003067962,-0.258571655,,-1.239721179,-1.412340641,-1.181434155,-0.122003295,-0.460562438,-0.190630153
0.751980032,,1.993862152,-1.774043862,0.407892108,-1.773303334,4.746985912,3.055498362,,0.055287227,-0.069399849,-0.254512995,0.015148061,0.003283678,-0.257876575,,-1.25765574,-1.306975603,-1.40785706,-0.123528339,0.140303791,-0.25620693
0.759970048,,1.994257927,-1.774572198,0.405833423,-1.773243252,4.747069836,3.053464413,,0.051733505,-0.066638686,-0.260175943,0.01639442,-0.035017908,-0.25775671,,-1.280073881,-1.306975603,-1.25317204,-0.007625206,-0.391935587,-0.320258647
0.767879936,,1.994665146,-1.7751115,0.40381071,-1.772991959,4.746997833,3.051418543,,0.047962468,-0.063046612,-0.259204417,0.023081617,-0.008868326,-0.259578317,,-1.145565152,-1.324910045,-1.230754018,-0.073201977,-0.016775453,-0.135728672
0.775869952,,1.995025158,-1.77561504,0.401764423,-1.772919957,4.747034073,3.049384594,,0.046875898,-0.059083827,-0.260252625,0.013997575,-0.023920514,-0.249847129,,-1.156774282,-1.360779047,-0.97742939,0.036600988,-0.393460631,-0.248581707
0.783960064,,1.995420456,-1.776046578,0.399633825,-1.772656266,4.746878147,3.047410488,,0.043782368,-0.057626545,-0.26058498,0.027491814,0.003978763,-0.253082871,,-1.185917735,-1.414582491,-1.013298392,0.015250412,0.114378087,-0.086927347
0.79195008,,1.995755672,-1.776514832,0.397562802,-1.772537057,4.746901989,3.045329094,,0.043807935,-0.054890946,-0.257555366,0.016202673,-0.044413541,-0.256438464,,-1.143323421,-1.448209643,-1.147807002,0.096077591,-0.32788384,-0.22723113
0.79995008,,1.996103764,-1.776946847,0.395456582,-1.772357289,4.746914387,3.043258905,,0.039512791,-0.050749198,-0.258041143,0.026820697,0.003571299,-0.259578317,,-1.102970839,-1.53788209,-1.033474684,0.122003295,0.059476607,-0.239431471
0.808140032,,1.996463299,-1.777342621,0.393361956,-1.7721656,4.746806622,3.041201353,,0.036815539,-0.04934305,-0.256750047,0.014261228,-0.044149887,-0.256438464,,-1.109696269,-1.555816531,-1.172466874,0.108277924,-0.21198073,-0.051851399
0.815919872,,1.996703148,-1.777774159,0.391231388,-1.772057835,4.746818066,3.039155006,,0.034821365,-0.045623146,-0.255663484,0.01670601,-0.007669904,-0.251213342,,-1.082794547,-1.531156659,-1.134356141,0.173854694,-0.007625206,-0.245531633
0.823859968,,1.996991158,-1.778062169,0.389113188,-1.771926228,4.746734619,3.037109852,,0.030117156,-0.044971205,-0.25476864,0.016178705,-0.041513357,-0.259578317,,-0.98639667,-1.490803957,-0.84516257,0.070151895,-0.31110841,-0.118953213
0.831849984,,1.99723053,-1.778446023,0.387042165,-1.77190191,4.746734619,3.035027504,,0.031600006,-0.040535443,-0.253464758,0.007526094,0.021140173,-0.251333177,,-1.091761708,-1.497529507,-1.25765574,0.169279575,0.01372537,-0.272982359
0.839930112,,1.997470856,-1.778805558,0.385019451,-1.771758382,4.746638775,3.032969713,,0.025131719,-0.040100817,-0.253260225,0.017473001,-0.042879559,-0.258284032,,-1.082794547,-1.432516932,-1.094003558,0.015250412,-0.224181056,-0.251631796
0.847869952,,1.997710228,-1.779093568,0.383068651,-1.771710221,4.746638775,3.030923605,,0.026742399,-0.036419261,-0.251790166,0.008077368,0.021427795,-0.257900536,,-1.082794547,-1.3899225,-1.145565152,0.042701155,0.033550907,-0.21350576
0.855899904,,1.997877598,-1.779357258,0.381069899,-1.771662537,4.746614933,3.028878212,,0.024236897,-0.035946283,-0.250984818,0.024280041,-0.038325552,-0.249799192,,-1.096245408,-1.356295347,-1.311459184,0.176904783,-0.157079235,-0.257731974
0.863940096,,1.998105526,-1.779657189,0.37909475,-1.771458928,4.746566772,3.026915789,,0.02219159,-0.032545961,-0.252710551,0.019126823,0.018311897,-0.247234568,,-1.080552697,-1.336119056,-1.212819457,-0.108277924,0.044226196,-0.010675289
0.871940096,,1.998273373,-1.779932801,0.377143949,-1.771399323,4.746507645,3.024905682,,0.021041103,-0.029196769,-0.252582729,0.006159892,-0.038637143,-0.249439672,,-1.12090528,-1.360779047,-1.295766473,0.035075948,-0.123528339,-0.2409565
0.879919872,,1.998405457,-1.780160729,0.375180781,-1.771291081,4.74653101,3.02288413,,0.019647738,-0.028685441,-0.25476864,0.034394726,-0.008628642,-0.254736692,,-1.219544888,-1.280073881,-1.206094027,0.019825535,0.042701155,-0.141828835
0.887940096,,1.998561382,-1.780352894,0.373146445,-1.771207158,4.746507645,3.020898104,,0.013908093,-0.022945797,-0.257389188,0.010785803,-0.041345578,-0.257373214,,-1.087278128,-1.289041042,-1.107454419,-0.164704442,-0.224181056,-0.166229486
0.89584,,1.998717308,-1.780568425,0.371123374,-1.771135632,4.746387482,3.018839836,,0.01651586,-0.023086412,-0.256034195,0.005033375,0.003810984,-0.257612914,,-1.167983294,-1.304733753,-1.167983294,0.006100165,0.122003295,-0.292807907
0.903899904,,1.998813152,-1.780676667,0.369112641,-1.770920102,4.74636364,3.016878128,,0.011146927,-0.017052753,-0.25508824,0.016178705,-0.047601342,-0.259698153,,-1.181434155,-1.26213932,-1.042441964,-0.244006589,-0.132678583,-0.141828835
0.911990016,,1.998884678,-1.780808751,0.367077947,-1.770943944,4.746351719,3.014844179,,0.010213756,-0.017295634,-0.254372358,0.007789746,0.025023062,-0.24421455,,-1.080552697,-1.284557462,-1.210577726,-0.102177761,0.019825535,-0.244006589
0.919960064,,1.998980522,-1.780916516,0.365030885,-1.770872418,4.746220112,3.012845755,,0.010558901,-0.013793044,-0.252403766,0.006327671,-0.044892907,-0.253825903,,-1.239721179,-1.293524742,-0.957253098,-0.08540231,0.041176111,-0.178429812
0.927970048,,1.999064446,-1.781036202,0.36297223,-1.770776097,4.746339798,3.010836124,,0.007375891,-0.00938285,-0.252327055,0.012942963,0.024807347,-0.248864427,,-1.156774282,-1.244204879,-0.950527668,-0.19825536,-0.100652717,-0.317208558
0.93595008,,1.999088764,-1.781120125,0.360889971,-1.770764176,4.746112347,3.008814335,,0.004359062,-0.007669904,-0.247252136,0.004913533,-0.025909895,-0.25327462,,-1.111938,-1.327151895,-1.165741444,-0.128103465,0.195205271,-0.233331308
0.943940096,,1.999124527,-1.781156365,0.358818948,-1.770752255,4.746279716,3.006780386,,0.004192881,-0.005982525,-0.249207973,0.004913533,0.021595575,-0.252220005,,-1.273348451,-1.244204879,-1.006572962,-0.115903132,-0.143353865,-0.068626851
0.951849984,,1.999100685,-1.781156365,0.356796235,-1.77068073,4.746028423,3.004722834,,0.003425891,-0.004704208,-0.243442759,0.005225122,-0.021595575,-0.246132016,,-1.414582491,-1.078310847,-1.174708724,-0.132678583,0.239431471,-0.279082537
0.959919872,,1.999088764,-1.781132046,0.354857415,-1.770621125,4.74619627,3.002700329,,-0.000792557,-0.002352104,-0.244388714,0.005225122,0.021595575,-0.246731237,,-1.416824222,-0.97742939,-1.208335876,-0.155554205,-0.167754531,-0.0259257
0.968,,1.999064446,-1.781084363,0.35291782,-1.770621125,4.745968342,3.000714779,,-0.000792557,0.000549676,-0.241806507,0.003307646,-0.018503644,-0.24258469,,-1.553574681,-0.887757003,-1.060376406,-0.144878909,0.236381382,-0.2409565
0.975869952,,1.999064446,-1.781108205,0.35096702,-1.770621125,4.746136189,2.998728752,,-0.001955826,0.002978479,-0.242637411,0.002732403,0.016178705,-0.245293126,,-1.688083291,-0.710653961,-1.293524742,-0.134203628,-0.208930641,-0.17080462
0.983919872,,1.998968601,-1.781024281,0.349063784,-1.770561043,4.745896816,2.996754408,,-0.008488027,0.008142881,-0.243941307,0.002732403,-0.01687379,-0.244382322,,-1.784481168,-0.759973764,-1.228512168,-0.129628494,0.271457344,-0.277557492
0.99195008,,1.998920918,-1.780952279,0.347184509,-1.770537202,4.746148109,2.994852304,,-0.007682687,0.006020875,-0.243890166,0.004074637,0.018503644,-0.246731237,,-1.755337715,-0.502165556,-1.176950574,-0.169279575,-0.332458973,-0.280607581
0.99988992,,1.998860836,-1.780856435,0.345245689,-1.770584885,4.745825291,2.992878199,,-0.009715212,0.017461816,-0.243378848,0.004074637,-0.01145692,-0.248432994,,-1.907780766,-0.55821085,-1.293524742,-0.172329649,0.294332951,-0.164704442
1.007970048,,1.99874115,-1.780748669,0.343354434,-1.770549122,4.746004581,2.990951777,,-0.010520551,0.013141102,-0.244312018,0.003235741,0.00944357,-0.239468798,,-1.862944603,-0.41921857,-1.309217334,-0.201305434,-0.291282862,-0.2699323
1.015930112,,1.998692989,-1.780628506,0.341475129,-1.770549122,4.745861053,2.989062071,,-0.012693691,0.01683544,-0.243314922,0.002300971,0.024160199,-0.246203929,,-2.022113085,-0.41473496,-1.224028587,-0.179954857,0.2409565,-0.09912768
1.023919872,,1.998549461,-1.780484502,0.33949998,-1.770561043,4.745909214,2.987159252,,-0.016771523,0.021105019,-0.245794863,0.001797634,-0.045995455,-0.23469907,,-1.901055336,-0.443878502,-0.959494889,-0.192155182,-0.277557492,-0.262307078
1.031919872,,1.998417377,-1.780340974,0.337573141,-1.770537202,4.745800972,2.985281467,,-0.013435115,0.022255505,-0.243660077,0.001462076,0.037318878,-0.237934813,,-2.046772957,-0.401284099,-0.98639667,-0.196730316,0.164704442,-0.041176111
1.03995008,,1.998309135,-1.780160729,0.335586011,-1.770549122,4.745765209,2.983354807,,-0.019392075,0.022779616,-0.241601974,0.001222391,-0.045348309,-0.236832261,,-2.004178524,-0.390075028,-1.071585417,-0.210455686,-0.091502473,-0.237906426
1.047869952,,1.998177528,-1.779945199,0.333610862,-1.770512883,4.745741367,2.981428862,,-0.019392075,0.026537869,-0.240681589,0.00107858,0.033651706,-0.241937548,,-2.035563946,-0.374382377,-0.988638461,-0.224181056,0.071676932,-0.164704442
1.056009984,,1.997961521,-1.779716794,0.331708014,-1.770537202,4.745645523,2.979514599,,-0.024070716,0.029235117,-0.238163307,0.00093477,-0.04319115,-0.241362303,,-2.019871235,-0.322820723,-0.995363891,-0.262307078,-0.016775453,-0.173854694
1.063980032,,1.997806072,-1.779500786,0.329708874,-1.770537202,4.745741367,2.977612257,,-0.023802269,0.031881236,-0.236744374,0.000838896,0.031686291,-0.24574852,,-2.040047646,-0.291435361,-1.183676004,-0.274507403,-0.068626851,-0.340084195
1.071859968,,1.997566223,-1.77920181,0.327758074,-1.770561043,4.745525837,2.975686073,,-0.025604697,0.034629617,-0.236015737,0.00076699,-0.025909895,-0.241386265,,-2.060223818,-0.266775459,-0.950527668,-0.289757818,0.143353865,-0.183004946
1.080009984,,1.997374535,-1.778961484,0.325830847,-1.770537202,4.745633602,2.973771572,,-0.02819968,0.037953243,-0.231579974,0.000695085,0.021955101,-0.231319517,,-2.057981968,-0.291435361,-0.990880251,-0.326358825,-0.041176111,-0.280607581
1.087960064,,1.997122765,-1.778601472,0.323951572,-1.770561043,4.745513916,2.971869469,,-0.030628484,0.040088031,-0.230429485,0.000647148,-0.032381378,-0.233548582,,-2.098334789,-0.329546154,-1.138839722,-0.35533461,0.042701155,-0.068626851
1.09595008,,1.996870995,-1.778265778,0.322096288,-1.770584885,4.745633602,2.969979286,,-0.032111332,0.043565053,-0.229074463,0.000599211,0.028810078,-0.220341966,,-2.066949368,-0.349722445,-1.067101836,-0.39651072,-0.150979072,-0.250106752
1.103980032,,1.996595383,-1.777881924,0.320276916,-1.770584885,4.74539423,2.968149185,,-0.033773143,0.044664409,-0.226300523,-0.000119842,-0.041081924,-0.233308896,,-2.134203672,-0.363173306,-1.165741444,-0.433111697,0.152504116,-0.077777103
1.111879936,,1.996331692,-1.777570073,0.318529099,-1.770584885,4.745573998,2.96633029,,-0.03475745,0.047400009,-0.228256345,-0.000119842,0.025909895,-0.222115636,,-2.235085011,-0.41473496,-1.228512168,-0.481913,-0.221130967,-0.253156841
1.119919872,,1.99605608,-1.777174298,0.31676966,-1.770704571,4.745358467,2.96449995,,-0.039180428,0.049547579,-0.225584656,-0.004649879,-0.021595575,-0.221180871,,-2.179039955,-0.351964265,-1.188159585,-0.457512349,0.157079235,-0.02745074
1.127859968,,1.995707989,-1.776766602,0.314997882,-1.770740334,4.745513916,2.962753296,,-0.039205994,0.051503405,-0.225686923,-0.009251822,0.018503644,-0.219598949,,-2.311306715,-0.293677181,-1.194885015,-0.372110039,-0.222656012,-0.272982359
1.135940096,,1.995384693,-1.776310746,0.313214481,-1.770740334,4.745250702,2.960935116,,-0.043066513,0.054571368,-0.226147115,-0.004314321,-0.018503644,-0.225639001,,-2.293372154,-0.257808208,-1.049167395,-0.451412201,0.144878909,-0.064051732
1.143899904,,1.995061398,-1.775879208,0.311455041,-1.770776097,4.745453835,2.959176064,,-0.043539491,0.056412145,-0.227578834,-0.002804309,0.018503644,-0.222714841,,-2.394253731,-0.215213805,-1.105212569,-0.535289466,-0.2409565,-0.233331308
1.151930112,,1.994665146,-1.77539951,0.30965966,-1.770932023,4.745214462,2.957381725,,-0.047578972,0.059774119,-0.225904241,-0.020037625,-0.018503644,-0.224368662,,-2.463749886,-0.127783194,-1.179192305,-0.405660957,0.117428169,-0.192155182
1.159960064,,1.994257927,-1.77485973,0.30782792,-1.770920102,4.745346546,2.95559907,,-0.050838683,0.062675901,-0.225738063,-0.007621967,0.018503644,-0.21974276,,-2.414429903,-0.125541389,-0.84516257,-0.420911372,-0.2257061,-0.277557492
1.16784,,1.993885994,-1.774415795,0.306032538,-1.770980183,4.745142937,2.953815937,,-0.051899683,0.063903086,-0.22183919,-0.004194479,-0.021595575,-0.22702916,,-2.360626459,-0.065012507,-0.9751876,-0.535289466,0.10675288,-0.218080893
1.17595008,,1.993478775,-1.773876015,0.304273099,-1.771159951,4.745358467,2.952117682,,-0.053702112,0.068990789,-0.221123338,-0.018503644,0.014381071,-0.21914354,,-2.434606314,-0.058287073,-1.129872561,-0.303483188,-0.295857996,-0.230281219
1.184,,1.992999077,-1.773300473,0.302441388,-1.771183316,4.745083332,2.950322628,,-0.058010042,0.07085713,-0.218924627,-0.007502125,-0.018503644,-0.224416599,,-2.394253731,-0.181586653,-0.867580712,-0.471237719,0.122003295,-0.268407255
1.191990016,,1.992555618,-1.772760693,0.300669968,-1.771303479,4.745322704,2.948612213,,-0.059633505,0.0722505,-0.216662005,-0.024543693,0.024879253,-0.215596214,,-2.342692137,-0.188312083,-0.874306142,-0.423961461,-0.268407255,-0.306533277
1.199919872,,1.992064476,-1.772100751,0.29888621,-1.771423165,4.744999409,2.946877241,,-0.062254056,0.076839656,-0.215345338,-0.016562199,-0.017137442,-0.217369884,,-2.266470432,-0.349722445,-1.129872561,-0.300433099,0.158604279,-0.18452999
1.207869952,,1.991572857,-1.771465604,0.297078818,-1.771447007,4.745214462,2.945154428,,-0.064197101,0.079830922,-0.214450523,-0.005512744,0.025909895,-0.216530979,,-2.201457977,-0.41249314,-0.932593167,-0.459037393,-0.373635083,-0.231806263
1.215919872,,1.991081238,-1.770877663,0.295354962,-1.771674458,4.744951725,2.943395853,,-0.06504079,0.083154544,-0.208646953,-0.025814021,-0.018503644,-0.21420604,,-2.199216127,-0.376624167,-0.809293628,-0.187580064,0.172329649,-0.230281219
1.223869952,,1.990530014,-1.770242039,0.293619514,-1.771710221,4.745214462,2.941720963,,-0.072084315,0.083486907,-0.207023501,-0.007190535,0.012152005,-0.208837107,,-2.102818251,-0.432669431,-1.206094027,-0.323308736,-0.443786979,-0.259256989
1.23188992,,1.989990711,-1.769510571,0.291979551,-1.771830384,4.744963646,2.939986229,,-0.07144516,0.085608914,-0.205553427,-0.030823428,-0.012942963,-0.208477587,,-2.122994661,-0.269017279,-1.111938,-0.268407255,0.117428169,-0.140303791
1.239810048,,1.989403248,-1.768779103,0.290387511,-1.77190191,4.745130539,2.93834734,,-0.072480597,0.089533344,-0.204428509,-0.012942963,0.01097755,-0.205553427,,-2.313548565,-0.112090528,-0.9751876,-0.21198073,-0.370584995,-0.248581707
1.247909888,,1.988815784,-1.768107716,0.288819462,-1.77195007,4.744855881,2.936732054,,-0.074755996,0.090798885,-0.201424465,-0.005177185,-0.01128914,-0.201119274,,-2.248535872,-0.071737938,-1.183676004,-0.362959802,0.115903132,-0.129628494
1.255849984,,1.98825264,-1.767387692,0.287215441,-1.7721656,4.745071411,2.935057402,,-0.075139493,0.093726225,-0.204019442,-0.026557043,0.011265172,-0.197356224,,-2.347175598,-0.082946993,-1.127630711,-0.096077591,-0.408711046,-0.286707729
1.263869952,,1.987640858,-1.766584222,0.285647392,-1.772189442,4.744820118,2.933454037,,-0.077811174,0.095605351,-0.202280939,-0.006471482,-0.010018812,-0.205002159,,-2.326999426,-0.208488375,-1.183676004,-0.294332951,0.09302751,-0.09912768
1.271909888,,1.987017632,-1.765828911,0.284067333,-1.77233297,4.745023251,2.931874752,,-0.078220241,0.099785455,-0.202741131,-0.033244241,0.010474213,-0.192155063,,-2.205941677,-0.28470993,-1.136597991,-0.294332951,-0.394985676,-0.292807907
1.279869952,,1.986382484,-1.765001122,0.282475293,-1.772404973,4.744760036,2.930307388,,-0.080546774,0.100565225,-0.200376242,-0.009251822,-0.011361046,-0.196205735,,-2.235085011,-0.340755194,-1.147807002,-0.303483188,0.091502473,-0.041176111
1.287879936,,1.985747337,-1.764209572,0.280954808,-1.772548978,4.744951725,2.928680658,,-0.083320722,0.102201469,-0.199340805,-0.037103161,0.009323727,-0.18925488,,-2.161105394,-0.349722445,-1.194885015,-0.463612527,-0.408711046,-0.268407255
1.295909888,,1.985087872,-1.763406102,0.279350787,-1.77278835,4.744700432,2.927161217,,-0.0828861,0.104310699,-0.198752776,-0.01531584,-0.011888351,-0.200663865,,-2.170072556,-0.163652167,-1.062618256,-0.366009891,0.08540231,-0.094552554
1.303909888,,1.984380722,-1.76254255,0.277770758,-1.772896115,4.744904041,2.925665855,,-0.085148722,0.105192736,-0.199315235,-0.028474519,0.010042781,-0.194168419,,-2.120752811,-0.091914229,-0.943802238,-0.542914689,-0.407186002,-0.272982359
1.311849984,,1.983721256,-1.761654679,0.276262224,-1.773183171,4.74467659,2.924086571,,-0.084420078,0.108490795,-0.196541294,-0.021595575,0.003235741,-0.198674485,,-2.264228582,-0.197279334,-0.885515153,-0.439211845,0.09302751,-0.111328006
1.319930112,,1.983014584,-1.760791604,0.274658591,-1.773303334,4.744820118,2.922555208,,-0.086657137,0.109679632,-0.195301324,-0.023489082,-0.027587688,-0.199968785,,-2.338208437,-0.168135792,-0.921384156,-0.600866199,-0.393460631,-0.260782033
1.32784,,1.982318878,-1.759927575,0.273102134,-1.773482625,4.744724274,2.921023846,,-0.087436907,0.114192091,-0.192501813,-0.018503644,0.024184167,-0.18937473,,-2.365110159,-0.304886222,-1.062618256,-0.488013178,0.001525041,-0.257731974
1.335940096,,1.981611729,-1.758992497,0.271546453,-1.77359039,4.744736195,2.919516325,,-0.09171927,0.115010209,-0.190942258,-0.015555524,-0.032692965,-0.18573153,,-2.360626459,-0.441636682,-0.818260849,-0.674068213,-0.35533461,-0.073201977
1.343820032,,1.980844498,-1.758033101,0.270013958,-1.773782078,4.744700432,2.917984962,,-0.093329951,0.118525587,-0.185598895,-0.017449033,0.024112262,-0.180506408,,-2.318032026,-0.396800458,-0.847404361,-0.5261392,-0.100652717,-0.218080893
1.351930112,,1.980113506,-1.757049386,0.26845789,-1.773877923,4.744616508,2.916549683,,-0.075395159,0.119279794,-0.184934169,-0.020948427,-0.039571911,-0.180434495,,-2.214908838,-0.313853472,-1.053650975,-0.707619131,-0.2699323,0.012200329
1.35984,,1.979322433,-1.75610191,0.266961336,-1.774081532,4.744652748,2.915066242,,-0.098532699,0.122820728,-0.181840643,-0.019078886,0.026413232,-0.179955125,,-2.230601549,-0.183828458,-0.993122101,-0.506313682,-0.167754531,-0.2699323
1.367899904,,1.978531361,-1.755118672,0.26547718,-1.774213139,4.74450922,2.913618803,,-0.102469921,0.123817816,-0.179450184,-0.022458438,-0.029433258,-0.187193602,,-2.172314405,-0.251082778,-0.887757003,-0.661867857,-0.100652717,-0.183004946
1.375919872,,1.977692127,-1.754099194,0.264005005,-1.774500195,4.744652748,2.912170887,,-0.104055032,0.127767816,-0.175973162,-0.022146849,0.025909895,-0.183694214,,-2.24405241,-0.257808208,-0.800326347,-0.460562438,-0.359909713,-0.237906426
1.383869952,,1.976852894,-1.753091637,0.262568384,-1.774679963,4.744377136,2.910795212,,-0.106279306,0.129097268,-0.174234658,-0.032237567,-0.032381378,-0.174106821,,-2.24405241,-0.302644432,-1.067101836,-0.478862941,0.050326359,-0.257731974
1.391899904,,1.976002216,-1.751988236,0.261155754,-1.77485973,4.744700432,2.909347534,,-0.106023639,0.131526068,-0.17373611,-0.02722816,0.03293265,-0.17161411,,-2.210425138,-0.378865987,-0.990880251,-0.372110039,-0.510888815,-0.089977428
1.39995008,,1.975151062,-1.750932995,0.259803027,-1.775146786,4.744317532,2.907935858,,-0.10806895,0.132305846,-0.168712318,-0.027443876,-0.016178705,-0.162242442,,-2.23732686,-0.354206055,-0.961736739,-0.340084195,0.12047825,-0.263832122
1.407859968,,1.974240303,-1.749805752,0.258414358,-1.775338475,4.744616508,2.906643867,,-0.108030602,0.134057134,-0.168290481,-0.023560988,0.021595575,-0.175017625,,-2.282163143,-0.217455626,-0.937076807,-0.291282862,-0.538339555,-0.080827184
1.41588992,,1.973376751,-1.748785798,0.257133543,-1.775542084,4.744365215,2.905208349,,-0.109884158,0.134811342,-0.165043548,-0.023153523,-0.016178705,-0.171733946,,-2.273195982,-0.28246814,-1.217303157,-0.25620693,0.114378087,-0.202830479
1.423859968,,1.972514153,-1.747718636,0.255792797,-1.77561361,4.744568825,2.903951883,,-0.112530276,0.138019919,-0.165708274,-0.01749697,0.00989897,-0.164399609,,-2.22163415,-0.293677181,-1.091761708,-0.292807907,-0.518513978,-0.265357167
1.431909888,,1.971602917,-1.746579472,0.254511982,-1.775841538,4.744365215,2.902576447,,-0.112619758,0.139323801,-0.163778022,-0.022626217,0.027276097,-0.157784313,,-2.232843399,-0.439394861,-1.085036278,-0.291282862,0.047276277,0.030500824
1.439970048,,1.970704079,-1.745476071,0.253243148,-1.776008908,4.744425297,2.901343822,,-0.115636587,0.141624779,-0.163126081,-0.019965719,-0.03063168,-0.162362292,,-2.161105394,-0.381107807,-1.026749253,-0.326358825,-0.370584995,-0.248581707
1.447820032,,1.969792843,-1.744288747,0.251998305,-1.776200596,4.744377136,2.900075674,,-0.115598239,0.14320989,-0.161131904,-0.027779434,0.004290353,-0.16641295,,-2.223875999,-0.197279334,-1.085036278,-0.338559151,-0.036600988,-0.207405597
1.455930112,,1.968822002,-1.743137662,0.25070551,-1.776392285,4.744377136,2.898759842,,-0.115994513,0.146162808,-0.162435785,-0.024256073,-0.036096487,-0.160061315,,-2.362868309,-0.14571768,-0.959494889,-0.420911372,-0.309583366,-0.096077591
1.463849984,,1.967814922,-1.741950337,0.249508202,-1.776619736,4.744401455,2.897503614,,-0.119778335,0.150330126,-0.158370733,-0.030080406,0.023177492,-0.129597411,,-2.326999426,-0.208488375,-1.064859986,-0.419386327,-0.155554205,-0.222656012
1.471859968,,1.96685648,-1.740763013,0.248215407,-1.77691919,4.744305134,2.896247149,,-0.122590631,0.150982067,-0.159853578,-0.030391995,-0.032045819,-0.157113194,,-2.300097704,-0.322820723,-0.952769458,-0.497163415,-0.189105108,-0.01372537
1.479869952,,1.9658494,-1.739539925,0.246910617,-1.777110879,4.744425297,2.895075321,,-0.12554355,0.154625267,-0.158115074,-0.026628949,0.033124398,-0.162578002,,-2.188007116,-0.334029764,-1.013298392,-0.547489762,-0.259256989,-0.272982359
1.487879936,,1.964818001,-1.738280121,0.245737657,-1.777325932,4.744185448,2.893806934,,-0.126988038,0.153525919,-0.155379474,-0.027755465,-0.025909895,-0.129597411,,-2.205941677,-0.255566388,-0.670301378,-0.55358994,-0.030500824,-0.329408884
1.495869952,,1.963787556,-1.737057034,0.244528383,-1.777530018,4.744377136,2.892610788,,-0.128253579,0.156146467,-0.152273163,-0.021907164,0.024639567,-0.129597411,,-2.351659298,-0.118815959,-0.887757003,-0.582565725,-0.31110841,-0.051851399
1.503810048,,1.962768555,-1.735810105,0.243319467,-1.77772123,4.744149685,2.891378164,,-0.129710868,0.157169119,-0.149742097,-0.027803402,-0.032381378,-0.153781578,,-2.344933748,-0.217455626,-0.914658725,-0.571890414,-0.028975783,-0.207405597
1.51184,,1.961678028,-1.73453838,0.242146134,-1.777961079,4.744365215,2.890253544,,-0.131743386,0.159789667,-0.14901346,-0.021643512,0.029361352,-0.142276719,,-2.318032026,-0.289193571,-0.970703959,-0.552064896,-0.387360454,-0.279082537
1.519810048,,1.960659504,-1.733219449,0.240949214,-1.778152768,4.744113922,2.889069319,,-0.134236112,0.162563622,-0.146213934,-0.030607712,-0.018503644,-0.142923877,,-2.161105394,-0.475263834,-0.748764753,-0.498688459,0.033550907,-0.033550907
1.527879936,,1.959615707,-1.731972043,0.239787862,-1.778379742,4.744329453,2.887932777,,-0.134325594,0.164187074,-0.143708438,-0.028594362,0.018503644,-0.147885337,,-2.118510962,-0.208488375,-0.748764753,-0.466662616,-0.414811194,-0.268407255
1.535970048,,1.958573341,-1.730665032,0.238638878,-1.77859575,4.74409008,2.886844397,,-0.135501638,0.166449696,-0.140563771,-0.028953889,-0.017808558,-0.129597411,,-2.232843399,-0.262291849,-0.69944489,-0.376685172,0.018300494,-0.303483188
1.543919872,,1.957482338,-1.729273621,0.237465546,-1.778847043,4.744281292,2.885719538,,-0.136434808,0.167676881,-0.140231416,-0.025718147,0.024735441,-0.139328599,,-2.358384609,-0.293677181,-0.959494889,-0.344659299,-0.472762764,-0.024400659
1.55188992,,1.956451893,-1.727966611,0.236328542,-1.779038731,4.743994236,2.884631157,,-0.138173327,0.170514748,-0.13592349,-0.021643512,-0.015915051,-0.129597411,,-2.398737192,-0.390075028,-0.959494889,-0.344659299,0.074727021,-0.201305434
1.559930112,,1.955325127,-1.726587598,0.235239103,-1.77914602,4.744233608,2.883554459,,-0.142545164,0.17130731,-0.134900823,-0.024615599,-0.004889564,-0.127224535,,-2.284404993,-0.374382377,-0.737555683,-0.356859624,-0.515463948,-0.257731974
1.567830016,,1.954162121,-1.725244347,0.234137684,-1.77936155,4.743957996,2.882525682,,-0.144718304,0.172457799,-0.130695164,-0.02229066,-0.014381071,-0.133432359,,-2.228359699,-0.242115542,-0.771182835,-0.399560779,0.077777103,-0.004575124
1.575919872,,1.95297575,-1.723829095,0.23303625,-1.779589001,4.744197369,2.881484985,,-0.147594526,0.173621058,-0.128496453,-0.03218963,0.011001519,-0.130963609,,-2.268712282,-0.298160791,-0.672543168,-0.474287808,-0.565790296,-0.152504116
1.583820032,,1.951848984,-1.722377602,0.232006729,-1.779888455,4.743957996,2.880443811,,-0.1490518,0.176676244,-0.126553416,-0.031973913,-0.010833739,-0.12070512,,-2.398737192,-0.490956515,-0.999847531,-0.544439673,0.015250412,-0.2409565
1.591869952,,1.950649738,-1.720938985,0.230977222,-1.780115906,4.744053841,2.879438877,,-0.149716526,0.177213132,-0.12100552,-0.033340115,-0.030535806,-0.129261851,,-2.338208437,-0.582870722,-1.037958264,-0.558165073,-0.460562438,-0.195205271
1.599859968,,1.949427605,-1.719535653,0.230007991,-1.78041536,4.743946075,2.878385782,,-0.152899534,0.178133518,-0.120238528,-0.023944482,0.00294812,-0.117469378,,-2.203699827,-0.410251319,-0.966220319,-0.61154151,-0.0259257,0.012200329
1.607940096,,1.948228836,-1.718108479,0.229038015,-1.780558888,4.74404192,2.877405405,,-0.153244689,0.179526895,-0.117643543,-0.02459163,-0.0304639,-0.125546739,,-2.174556255,-0.264533639,-0.901207864,-0.663392901,-0.465137571,-0.193680227
1.615820032,,1.946958542,-1.716609303,0.2281643,-1.780726735,4.743922234,2.876471758,,-0.152899534,0.18191734,-0.117042735,-0.018239992,-0.008796422,-0.113466643,,-2.23956871,-0.237631917,-0.84516257,-0.675593257,-0.062526688,-0.257731974
1.62388992,,1.945747375,-1.715098206,0.227230281,-1.780906502,4.744006157,2.875526905,,-0.152861193,0.182952777,-0.115176395,-0.028138962,-0.025286715,-0.117301598,,-2.322515726,-0.42146039,-0.851888001,-0.684743464,-0.443786979,0
1.631899904,,1.944513321,-1.71363527,0.226320595,-1.781085793,4.743874073,2.874605656,,-0.154101163,0.184269443,-0.112006165,-0.019414445,0.002684467,-0.111429326,,-2.342692137,-0.378865987,-1.080552697,-0.657292724,-0.010675289,-0.108277924
1.639830016,,1.943254471,-1.712172333,0.225410551,-1.781289403,4.744006157,2.873708248,,-0.15667057,0.182952777,-0.114243224,-0.032980587,-0.025190841,-0.111453295,,-2.342692137,-0.224181056,-0.961736739,-0.617641687,-0.437686831,-0.228756174
1.64788992,,1.941995621,-1.710673157,0.224584758,-1.781504933,4.743874073,2.872858763,,-0.159802452,0.185496628,-0.112031735,-0.025070999,-0.008484832,-0.108625017,,-2.326999426,-0.291435361,-0.97742939,-0.573415458,-0.038126029,-0.31110841
1.655909888,,1.940689087,-1.70916206,0.223734617,-1.781768624,4.743934155,2.871961832,,-0.163343385,0.188245013,-0.11062558,-0.033124398,-0.028354676,-0.111069798,,-2.214908838,-0.493198335,-0.939318597,-0.472762764,-0.422436416,-0.057951566
1.66384,,1.939311028,-1.707663361,0.222848922,-1.782019917,4.743814945,2.871088266,,-0.164519444,0.188411191,-0.107889988,-0.027539751,0.021955101,-0.106563732,,-2.255261421,-0.522341847,-0.892240584,-0.478862941,-0.009150247,-0.088452391
1.671810048,,1.937980175,-1.706176106,0.221999153,-1.78230745,4.743898392,2.870251179,,-0.16457057,0.192284495,-0.106432706,-0.031135017,-0.03063168,-0.099948436,,-2.23732686,-0.147959501,-0.950527668,-0.337034106,-0.430061609,-0.274507403
1.679919872,,1.936650276,-1.70467693,0.221184984,-1.782534901,4.743754864,2.869521141,,-0.165452614,0.192655206,-0.10558901,-0.023297334,0.002900183,-0.09704826,,-2.253019571,-0.28246814,-0.930351377,-0.35533461,0.041176111,-0.321783692
1.687919872,,1.935318947,-1.703058068,0.220359191,-1.782714669,4.743838787,2.868707418,,-0.165708274,0.194841132,-0.102163121,-0.026509106,-0.032812808,-0.100667492,,-2.188007116,-0.322820723,-0.892240584,-0.370584995,-0.491063267,-0.030500824
1.69579008,,1.933940887,-1.701546971,0.21956861,-1.78289396,4.743719101,2.867977858,,-0.16549097,0.19748725,-0.10135778,-0.02073271,-0.009803097,-0.098054931,,-2.161105394,-0.41473496,-0.907933295,-0.381260306,0.018300494,-0.074727021
1.703940096,,1.93255043,-1.69998819,0.218766794,-1.783097569,4.743802547,2.867164373,,-0.164775103,0.196413457,-0.099389173,-0.030679617,-0.029648975,-0.105245471,,-2.331482887,-0.201762944,-0.957253098,-0.455987304,-0.443786979,-0.183004946
1.71188992,,1.931231976,-1.698453252,0.21796459,-1.7833131,4.743694782,2.866410494,,-0.166922674,0.199455857,-0.097458914,-0.023704797,0.002900183,-0.083218463,,-2.454782486,-0.27350089,-0.8339535,-0.472762764,0.061001647,-0.288232774
1.719899904,,1.929913521,-1.696870152,0.217222691,-1.783564393,4.743766785,2.865728617,,-0.169453755,0.200440153,-0.09551587,-0.032333441,-0.029385321,-0.097719371,,-2.342692137,-0.502165556,-0.784633696,-0.545964718,-0.436161786,-0.201305434
1.72784,,1.928583145,-1.695263211,0.216480419,-1.783767525,4.74367094,2.864975214,,-0.175027207,0.202817827,-0.09267801,-0.025718147,0.025694178,-0.090073436,,-2.163347244,-0.403525889,-0.939318597,-0.550539851,0.024400659,-0.015250412
1.735849984,,1.927192211,-1.693632428,0.215761751,-1.784055058,4.743706703,2.864245176,,-0.177034169,0.203738213,-0.091604218,-0.027371971,-0.039571911,-0.091487579,,-2.250777721,-0.228664681,-0.851888001,-0.591715991,-0.394985676,-0.118953213
1.743869952,,1.925777912,-1.691977326,0.215019852,-1.784222428,4.743719101,2.863563299,,-0.177826732,0.207445338,-0.089955188,-0.021931132,0.037510626,-0.08444085,,-2.306823015,-0.410251319,-0.547001779,-0.597816169,-0.022875618,-0.19978039
1.751810048,,1.924375534,-1.690310303,0.214313522,-1.784354512,4.74362278,2.862905502,,-0.179335147,0.208506346,-0.087206811,-0.024040356,-0.037630469,-0.077921435,,-2.250777721,-0.479747444,-0.600805223,-0.661867857,-0.233331308,-0.285182714
1.759859968,,1.922961235,-1.688607518,0.213667125,-1.784581963,4.743731022,2.86225915,,-0.178708762,0.206703916,-0.08518707,-0.022146849,0.026101643,-0.086526111,,-2.22163415,-0.42370218,-0.70392853,-0.634417117,-0.152504116,-0.135728672
1.767830016,,1.921535015,-1.686916653,0.212984771,-1.784677807,4.743539333,2.861613035,,-0.180869117,0.20786719,-0.083589174,-0.025814021,-0.030152312,-0.078209057,,-2.203699827,-0.365415126,-0.585112572,-0.712194204,-0.070151895,0.056426525
1.775930112,,1.920048714,-1.685225789,0.212314412,-1.78491718,4.743754864,2.861027002,,-0.179399058,0.207662657,-0.082822181,-0.022170817,0.028402613,-0.077585876,,-2.412188053,-0.41249314,-0.708412111,-0.582565725,-0.308058321,-0.061001647
1.783899904,,1.918634415,-1.683523003,0.211656019,-1.785049264,4.743515491,2.860369444,,-0.183118954,0.209413946,-0.077926226,-0.027467845,-0.032692965,-0.085591339,,-2.344933748,-0.683752239,-0.739797473,-0.645092428,0.059476607,-0.176904783
1.791830016,,1.917171955,-1.68184406,0.211033225,-1.785324399,4.743754864,2.859782934,,-0.185432717,0.20877479,-0.077926226,-0.027108317,0.018503644,-0.066272765,,-2.306823015,-0.403525889,-0.766699195,-0.5261392,-0.425486475,-0.282132626
1.799869952,,1.915709496,-1.680129353,0.210459098,-1.785528008,4.74349165,2.859232426,,-0.188590154,0.211280286,-0.07343933,-0.030344058,-0.014788534,-0.073055841,,-2.266470432,-0.266775459,-0.69944489,-0.513938904,0.128103465,-0.245531633
1.80788992,,1.914151192,-1.678474728,0.209824309,-1.785755459,4.743719101,2.858646393,,-0.190328673,0.212520257,-0.072403893,-0.025646243,0.021595575,-0.076699041,,-2.331482887,-0.475263834,-0.582870722,-0.402610868,-0.474287808,-0.083877265
1.815859968,,1.912641048,-1.676747624,0.209285766,-1.78597099,4.74349165,2.858108044,,-0.190239191,0.213773012,-0.068850175,-0.026844665,0.0040267,-0.065985143,,-2.288888454,-0.499923766,-0.569419861,-0.370584995,0.186055019,0.010675289
1.823830016,,1.911082745,-1.67506868,0.20873487,-1.786126439,4.74367094,2.857546091,,-0.192373976,0.213773012,-0.066549204,-0.020780647,0.009419601,-0.068310082,,-2.181281567,-0.199521139,-0.524583697,-0.376685172,-0.425486475,-0.045751236
1.831859968,,1.90956068,-1.673389737,0.208195955,-1.786330525,4.74345541,2.857019424,,-0.189625591,0.212520257,-0.064529456,-0.02336924,0.003067962,-0.071018517,,-2.163347244,-0.347480625,-0.571661711,-0.451412201,0.146403953,-0.147928998
1.83988992,,1.908026695,-1.671639268,0.207657412,-1.786474053,4.743610859,2.856444836,,-0.190136924,0.215792745,-0.061832212,-0.024663536,0.011960257,-0.057476345,,-2.248535872,-0.495440125,-0.511132777,-0.471237719,-0.428536564,-0.21198073
1.847830016,,1.906504154,-1.669924084,0.207178786,-1.786725346,4.743479729,2.856026649,,-0.192783043,0.216470256,-0.058431886,-0.028019119,-0.012343752,-0.056182049,,-2.318032026,-0.430427611,-0.681510389,-0.552064896,0.115903132,-0.266882211
1.855899904,,1.90494585,-1.668233697,0.206700176,-1.786905114,4.743587017,2.855571985,,-0.195020095,0.219947279,-0.05784386,-0.026125612,-0.003810984,-0.06109558,,-2.338208437,-0.376624167,-0.762215614,-0.616116643,-0.417861283,-0.141828835
1.863820032,,1.903327942,-1.66643459,0.206256762,-1.787084405,4.743431568,2.8551054,,-0.196221709,0.220407471,-0.05453302,-0.020804616,0.003187804,-0.056589514,,-2.212666988,-0.461812973,-0.858613431,-0.616116643,0.129628494,0.003050082
1.871940096,,1.901721478,-1.664696042,0.205790117,-1.78727657,4.743539333,2.854662657,,-0.200120583,0.22245279,-0.053369749,-0.026365295,-0.031662323,-0.050573431,,-2.297855854,-0.499923766,-0.786875486,-0.707619131,-0.359909713,0.045751236
1.879869952,,1.900103569,-1.662921254,0.205371052,-1.787420098,4.74345541,2.854267597,,-0.199046791,0.22183919,-0.050442401,-0.012295815,0.003427488,-0.049854379,,-2.326999426,-0.374382377,-0.809293628,-0.591715991,0.132678583,-0.035075948
1.887899904,,1.898509502,-1.661146466,0.204951972,-1.787491624,4.743515491,2.853861332,,-0.200043887,0.22249113,-0.051043212,-0.008940232,-0.033196304,-0.057332534,,-2.183523417,-0.396800458,-0.656850517,-0.771670818,-0.379735261,-0.135728672
1.895909888,,1.896986961,-1.659419839,0.204556867,-1.78765947,4.743431568,2.853394508,,-0.198215887,0.223360389,-0.04789855,-0.02382464,0.028067056,-0.052203286,,-2.145412683,-0.533550918,-0.56493628,-0.588665903,0.111328006,-0.195205271
1.903859968,,1.895380974,-1.65759689,0.204161763,-1.787707631,4.743479729,2.853107452,,-0.201092109,0.223283693,-0.045047905,-0.007190535,-0.03604855,-0.038133804,,-2.322515726,-0.55821085,-0.594079793,-0.748795211,-0.335509062,-0.289757818
1.911909888,,1.893786907,-1.655726258,0.203826576,-1.787899319,4.743467808,2.852736473,,-0.201974139,0.225495175,-0.043654539,-0.031758197,0.036983319,-0.038373489,,-2.360626459,-0.367656916,-0.612014294,-0.61154151,0.102177761,-0.291282862
1.919820032,,1.892216682,-1.653867547,0.203419864,-1.787958924,4.743419647,2.852437258,,-0.206192583,0.2279879,-0.042683017,-0.012631373,-0.037989993,-0.039715722,,-2.284404993,-0.481989264,-0.506649196,-0.701518953,-0.169279575,-0.282132626
1.927899904,,1.890526295,-1.652020756,0.203096658,-1.788138215,4.743503571,2.852114201,,-0.206703916,0.226364434,-0.039691754,-0.035545211,0.036599826,-0.044269729,,-2.37183547,-0.650125086,-0.547001779,-0.719819427,-0.118953213,-0.163179412
1.935919872,,1.888836384,-1.650186364,0.202773094,-1.788317982,4.743371487,2.851755857,,-0.208851486,0.227144212,-0.03762088,-0.01548362,-0.037270941,-0.040171124,,-2.468233347,-0.497681946,-0.41921857,-0.585615814,-0.179954857,-0.097602636
1.94384,,1.887170792,-1.648387734,0.202497825,-1.788533036,4.74349165,2.851456404,,-0.21092236,0.225648582,-0.03604855,-0.035233624,0.03621633,-0.03916445,,-2.264228582,-0.495440125,-0.376624167,-0.585615814,-0.158604279,-0.024400659
1.95195008,,1.885468483,-1.646577183,0.202210575,-1.788737122,4.743323803,2.851133585,,-0.209209412,0.226811841,-0.032341428,-0.018623486,-0.032381378,-0.035329495,,-2.214908838,-0.70392853,-0.338513404,-0.471237719,0.047276277,-0.022875618
1.959820032,,1.883814335,-1.644790475,0.201923341,-1.788892571,4.743479729,2.85085845,,-0.20877479,0.225648582,-0.031548873,-0.022027006,0.032477252,-0.033076461,,-2.302339554,-0.495440125,-0.468538404,-0.492588311,-0.21198073,-0.021350577
1.96795008,,1.882123947,-1.643003289,0.201660052,-1.789096181,4.743264198,2.850607157,,-0.210347116,0.228588715,-0.030142723,-0.025909895,-0.039404131,-0.031997882,,-2.286646843,-0.363173306,-0.464054793,-0.353809565,0.117428169,-0.096077591
1.975940096,,1.880374432,-1.641132657,0.201408386,-1.789227788,4.743527412,2.850331783,,-0.21272479,0.229394048,-0.028161332,-0.015795209,0.036024582,-0.030655649,,-2.257503271,-0.403525889,-0.591838002,-0.385835409,-0.35533461,-0.122003295
1.983879936,,1.878708363,-1.639273945,0.201228991,-1.789383237,4.743240356,2.850056648,,-0.215166375,0.231682241,-0.024927188,-0.023608925,-0.032381378,-0.029169604,,-2.149896383,-0.540276349,-0.612014294,-0.353809565,0.244006589,-0.173854694
1.991930112,,1.876994133,-1.637415711,0.201025262,-1.789479081,4.743551254,2.849865198,,-0.215230286,0.229918152,-0.025911493,-0.012942963,0.021595575,-0.020948427,,-2.304581165,-0.374382377,-0.668059528,-0.346184343,-0.455987304,-0.204355523
1.999830016,,1.87523222,-1.635568921,0.20085749,-1.789539162,4.743240356,2.849710226,,-0.21636799,0.232372522,-0.021079453,-0.005944176,0.004242416,-0.01749697,,-2.306823015,-0.578387141,-0.69496125,-0.491063267,0.254681885,-0.253156841
2.007930112,,1.873470783,-1.633686368,0.200654134,-1.789742772,4.743479729,2.849602222,,-0.216304079,0.232372522,-0.022984145,-0.024016388,-0.005297028,-0.015891083,,-2.250777721,-0.726346612,-0.654608667,-0.257731974,-0.376685172,-0.259256989
2.015800064,,1.871720791,-1.631923501,0.200462759,-1.789707009,4.743335724,2.849494457,,-0.215971723,0.230544537,-0.017359549,-0.006471482,0.039643817,-0.013038837,,-2.125236511,-0.504407346,-0.728588402,-0.417861283,0.181479901,-0.271457344
2.023899904,,1.869922638,-1.630040948,0.200318947,-1.789898221,4.743371487,2.849350929,,-0.215012982,0.233612493,-0.018778482,-0.033316147,-0.042544,-0.012727248,,-2.369593859,-0.466296583,-0.70392853,-0.462087482,-0.29738304,-0.28365767
2.03179008,,1.868196487,-1.628206555,0.200175509,-1.790054146,4.743204117,2.849231482,,-0.215562657,0.23404713,-0.014176539,-0.010785803,-0.012942963,-0.014045512,,-2.356142998,-0.569419861,-0.70168668,-0.34160924,0.024400659,-0.254681885
2.03988992,,1.866458416,-1.62630016,0.200103611,-1.790077988,4.743371487,2.849171638,,-0.22155796,0.23404713,-0.014189322,-0.019486351,0.028258804,-0.011073424,,-2.093851089,-0.540276349,-0.742039263,-0.582565725,-0.122003295,-0.274507403
2.047800064,,1.864768505,-1.62436897,0.199983761,-1.790281598,4.743216515,2.849075794,,-0.221315086,0.235568315,-0.011875568,-0.021307953,-0.02504703,-0.014021544,,-2.326999426,-0.490956515,-0.6972031,-0.361434758,0.045751236,-0.254681885
2.055780096,,1.862994671,-1.622426812,0.199828342,-1.790317837,4.743419647,2.848992348,,-0.223526567,0.235836774,-0.010022008,-0.00680704,0.021595575,-0.01176851,,-2.356142998,-0.652366877,-0.726346612,-0.552064896,-0.221130967,-0.173854694
2.063810048,,1.861268997,-1.620544259,0.199780405,-1.790473286,4.743204117,2.848944426,,-0.222082078,0.236296967,-0.010520551,-0.029049762,-0.028234836,-0.005752428,,-2.232843399,-0.8339535,-0.596321583,-0.452937245,0.166229486,-0.259256989
2.07172992,,1.859506607,-1.618625943,0.199720487,-1.79052097,4.74345541,2.848836422,,-0.22245279,0.235389352,-0.007529289,-0.008077368,0.025909895,-0.013685985,,-2.306823015,-0.580628932,-0.623223305,-0.538339555,-0.35533461,-0.114378087
2.07979008,,1.857708931,-1.616755311,0.199696511,-1.790616814,4.743192196,2.848836422,,-0.222695664,0.2371023,-0.005381716,-0.019462382,-0.025909895,0.001845571,,-2.470475197,-0.596321583,-0.522341847,-0.655767679,0.29738304,-0.067101814
2.087820032,,1.855899334,-1.61490852,0.19967255,-1.790808503,4.743443489,2.848848343,,-0.226236612,0.23647593,-0.004307929,-0.016178705,0.018503644,-0.00201335,,-2.302339554,-0.656850517,-0.484231085,-0.457512349,-0.364484847,-0.207405597
2.095899904,,1.854077339,-1.613037888,0.19967255,-1.790832345,4.743228436,2.848741055,,-0.228448093,0.2367955,-0.002594984,-0.005392902,-0.009659286,-0.015435683,,-2.163347244,-0.372140557,-0.41921857,-0.629841983,0.222656012,-0.009150247
2.103859968,,1.852279186,-1.611143414,0.199660569,-1.790904347,4.743467808,2.848872423,,-0.229982078,0.238112167,-0.001674596,-0.018839203,0.017736653,0.021595575,,-2.362868309,-0.547001779,-0.257808208,-0.620691776,-0.35533461,-0.282132626
2.111830016,,1.850433826,-1.609237019,0.199696511,-1.79098827,4.743323803,2.848752975,,-0.231324315,0.238303915,0.000409062,-0.008628642,0.027108317,-0.027108317,,-2.365110159,-0.744281113,-0.338513404,-0.5398646,0.234856337,0.111328006
2.119800064,,1.848563671,-1.607390706,0.199708506,-1.791000191,4.743419647,2.848908424,,-0.231989026,0.238674626,0.000409062,-0.00417051,-0.027659591,0.017592844,,-2.147654533,-0.596321583,-0.197279334,-0.667968035,-0.237906426,-0.428536564
2.127919872,,1.846741676,-1.605448548,0.199744448,-1.791143719,4.743395805,2.8487885,,-0.228499234,0.239684507,0.001802427,-0.021116205,0.041105893,-0.018503644,,-2.183523417,-0.504407346,0.004483621,-0.600866199,0.061001647,0.28365767
2.135830016,,1.84489584,-1.603589837,0.199792385,-1.791168038,4.743359566,2.84904027,,-0.229278997,0.240425929,0.005790778,-0.007621967,-0.037750311,-0.005536712,,-2.309064865,-0.665817738,-0.226422861,-0.542914689,-0.051851399,-0.469712675
2.143899904,,1.84305048,-1.601682965,0.199828342,-1.791168038,4.743515491,2.848956347,,-0.230288878,0.238572374,0.003413107,-0.003906858,0.041225735,0.053665362,,-2.275437593,-0.56493628,0.103123285,-0.661867857,-0.190630153,0.183004946
2.151830016,,1.841204643,-1.599752251,0.199900255,-1.791191403,4.74328804,2.849099636,,-0.233382404,0.240349233,0.015403724,-0.002756372,-0.041417483,0.009179916,,-2.120752811,-0.481989264,-0.14571768,-0.706094086,0.088452391,-0.242481545
2.159820032,,1.839334965,-1.597785775,0.1999598,-1.791287247,4.743563175,2.849075794,,-0.232704893,0.242228359,0.007427024,-0.013805828,0.04319115,0.046187203,,-2.412188053,-0.766699195,0.056045264,-0.59476608,-0.282132626,0.178429812
2.167899904,,1.837380886,-1.595879857,0.200067654,-1.791371171,4.743299961,2.849279165,,-0.2343667,0.242036611,0.01679709,-0.005177185,-0.021595575,0.01176851,,-2.338208437,-0.885515153,0.161410362,-0.637467206,0.228756174,-0.314158469
2.175930112,,1.835558891,-1.593925301,0.200127572,-1.791395013,4.743503571,2.849231482,,-0.233638063,0.238840818,0.01256586,-0.004314321,0.021595575,0.028091025,,-2.049014807,-0.578387141,0.085188799,-0.684743464,-0.356859624,0.144878909
2.183899904,,1.833761215,-1.591983143,0.200282991,-1.791503255,4.743252277,2.849434614,,-0.230761841,0.240246966,0.014790132,-0.011169298,-0.025909895,0.008460863,,-2.293372154,-0.551485419,0.266775459,-0.620691776,0.31110841,-0.245531633
2.19188992,,1.831915855,-1.589992348,0.200426802,-1.791467015,4.743587017,2.849411011,,-0.232168004,0.240055218,0.017308418,-0.008077368,0.013518206,-0.008388958,,-2.387528181,-0.759973764,0.116574146,-0.562740207,-0.408711046,0.097602636
2.19988992,,1.830070019,-1.588013951,0.20054628,-1.791478936,4.743323803,2.849626303,,-0.237473011,0.240617678,0.019046929,-0.0040267,0.00340352,0.023896545,,-2.250777721,-0.596321583,0.340755194,-0.626791954,0.286707729,-0.28365767
2.207830016,,1.828187943,-1.586071793,0.200690076,-1.791467015,4.743575096,2.849626303,,-0.237421885,0.240055218,0.019085279,-0.002684467,-0.003954794,0.00309193,,-2.38304472,-0.6972031,0.28246814,-0.65271765,-0.405660957,0.17080462
2.215899904,,1.826282024,-1.584117715,0.200821534,-1.791490857,4.743383884,2.849865198,,-0.237268478,0.240911692,0.020874923,-0.00201335,0.003667173,0.012128036,,-2.479442358,-0.970703959,0.394558668,-0.687793553,0.251631796,-0.210455686
2.223810048,,1.824376583,-1.582222764,0.200977325,-1.791562859,4.743527412,2.849865198,,-0.239965737,0.238751337,0.022332205,-0.001653823,-0.02706038,0.001941444,,-2.293372154,-0.766699195,0.513374627,-0.713719249,-0.300433099,0.117428169
2.23195008,,1.822458744,-1.580388371,0.201181069,-1.791658703,4.74345541,2.850116491,,-0.23864907,0.238380626,0.025515214,-0.01871936,0.032261536,0.026197517,,-2.212666988,-0.598563433,0.502165556,-0.469712675,0.08540231,-0.123528339
2.239830016,,1.820552826,-1.57852966,0.201396406,-1.791694466,4.743479729,2.850212097,,-0.238738552,0.238572374,0.026473952,-0.006471482,-0.031638354,0.034394726,,-2.315790415,-0.634432375,0.605288863,-0.489538223,-0.141828835,0.289757818
2.247859968,,1.81858778,-1.576671426,0.20162411,-1.791682545,4.743587017,2.850511312,,-0.241601974,0.240809426,0.030641267,-0.003595268,0.032213598,0.032381378,,-2.24629426,-0.506649196,0.578387141,-0.536814511,-0.118953213,0.08540231
2.255919872,,1.81665802,-1.574765507,0.201899365,-1.791658703,4.743431568,2.850822449,,-0.241934344,0.240055218,0.031689487,-0.00246875,-0.029577069,0.043838296,,-2.118510962,-0.522341847,0.70168668,-0.56731534,0.051851399,0.218080893
2.263810048,,1.81472826,-1.572834794,0.202150658,-1.791670624,4.743647099,2.851121664,,-0.240323663,0.243366063,0.032558743,-0.001893508,0.030943271,0.034634411,,-2.255261421,-0.757731974,0.708412111,-0.577990592,-0.259256989,0.236381382
2.271909888,,1.812786102,-1.57090408,0.202449888,-1.791694466,4.743407726,2.851420641,,-0.242637411,0.24231784,0.033530265,-0.001533981,-0.032956619,0.04081827,,-2.315790415,-0.912416875,0.764457405,-0.573415458,0.179954857,0.19978039
2.279849984,,1.810821056,-1.569033925,0.202749118,-1.791646783,4.743682861,2.851707697,,-0.240758285,0.245015085,0.035268776,-0.001294296,0.025909895,0.042951465,,-2.23732686,-0.674784958,0.645641446,-0.58104068,-0.434636742,0.158604279
2.287919872,,1.808843136,-1.567031209,0.203012779,-1.791682545,4.743395805,2.852078676,,-0.240400359,0.244235307,0.035741754,-0.001102549,-0.025909895,0.044605289,,-2.266470432,-0.728588402,0.607530653,-0.576465547,0.274507403,0.077777103
2.295960064,,1.806889534,-1.565137211,0.203335971,-1.791670624,4.743659019,2.852437258,,-0.239019781,0.242420107,0.038541269,-0.000958738,-0.003763047,0.047193881,,-2.356142998,-0.813777208,0.598563433,-0.568840384,-0.434636742,-0.006100165
2.303820032,,1.804947853,-1.563158814,0.203659177,-1.791682545,4.743431568,2.852807999,,-0.242739677,0.240400359,0.040522661,-0.000862864,0.005368933,0.045468152,,-2.185765266,-0.573903501,0.605288863,-0.564265251,0.237906426,-0.05337644
2.311899904,,1.803090572,-1.561240498,0.203958407,-1.791694466,4.743563175,2.853131294,,-0.243954077,0.240719944,0.040343694,-0.00076699,-0.00340352,0.039236356,,-2.194732428,-0.638916016,0.607530653,-0.536814511,-0.343134254,-0.024400659
2.319800064,,1.801148415,-1.559202496,0.204329163,-1.791670624,4.743479729,2.853442431,,-0.243890166,0.245015085,0.042414568,-0.000719053,0.043502737,0.040171124,,-2.385286331,-0.97294575,0.596321583,-0.524614155,0.144878909,0.08540231
2.327899904,,1.799266815,-1.55723602,0.20466435,-1.791646783,4.743551254,2.853777409,,-0.242662981,0.241090655,0.043935768,-0.000647148,-0.040266998,0.04623514,,-2.300097704,-0.831711709,0.620981514,-0.50936377,-0.248581707,0.186055019
2.335859968,,1.797301292,-1.555257622,0.205071822,-1.791658703,4.743575096,2.854207993,,-0.244478196,0.241844863,0.046939813,-0.000599211,0.042424157,0.056685384,,-2.253019571,-0.753248334,0.41921857,-0.478862941,-0.062526688,0.259256989
2.34379008,,1.795359612,-1.553363148,0.205466926,-1.791646783,4.74345541,2.854614735,,-0.240962818,0.240988389,0.046569102,-0.000551274,-0.03743872,0.051580105,,-2.486167908,-0.937076807,0.428185821,-0.46818763,-0.057951566,0.279082537
2.351859968,,1.793394089,-1.551420514,0.205838054,-1.791694466,4.743635178,2.855021477,,-0.246523499,0.237830937,0.049662627,-0.000527306,0.03556918,0.050932959,,-2.315790415,-0.820502639,0.334029764,-0.423961461,-0.19825536,0.250106752
2.359830016,,1.791464329,-1.549526517,0.206280723,-1.791646783,4.74345541,2.85544014,,-0.248364285,0.238112167,0.049560364,-0.000479369,-0.025909895,0.053329803,,-2.201457977,-0.677026808,0.345238835,-0.387360454,0.064051732,0.160129324
2.36788992,,1.789426804,-1.547656361,0.2066762,-1.791646783,4.743635178,2.855918884,,-0.24717544,0.238022685,0.050416835,-0.000455401,0.035760928,0.058890484,,-2.387528181,-0.824986279,0.42370218,-0.343134254,-0.244006589,0.047276277
2.37579008,,1.787401676,-1.545749966,0.207094908,-1.791670624,4.743431568,2.856313944,,-0.248492107,0.237281263,0.051618453,-0.000431432,-0.025909895,0.053162023,,-2.23956871,-0.84067893,0.598563433,-0.294332951,0.097602636,0.004575124
2.383899904,,1.785399914,-1.543891732,0.207513973,-1.791646783,4.743682861,2.856780052,,-0.247469455,0.238303915,0.053305835,-0.000407464,0.025909895,0.05263472,,-2.084883928,-0.670301378,0.663575947,-0.239431471,-0.330933928,0.067101814
2.391810048,,1.783445835,-1.541997258,0.207980618,-1.791622941,4.74345541,2.857174873,,-0.243890166,0.239492759,0.054775897,-0.000383495,-0.025909895,0.056541577,,-2.201457977,-0.735313833,0.735313833,-0.186055019,0.183004946,0.222656012
2.39979008,,1.78145647,-1.540042702,0.208411664,-1.791539017,4.743766785,2.857689381,,-0.24505344,0.239224315,0.054648068,0.011840414,0.017976338,0.064810693,,-2.331482887,-0.820502639,0.685994029,-0.157079235,-0.430061609,0.244006589
2.407879936,,1.779466629,-1.538160626,0.208890662,-1.791515176,4.74349165,2.858168125,,-0.247124314,0.238303915,0.057626545,0.007621967,-0.019198729,0.058027618,,-2.167830706,-0.69496125,0.690477669,-0.274507403,0.244006589,0.263832122
2.415800064,,1.777453899,-1.536158387,0.209369287,-1.791467015,4.743742943,2.858646393,,-0.246523499,0.238444537,0.057268616,0.003906858,0.012271847,0.061071612,,-2.369593859,-0.896724224,0.730830252,-0.190630153,-0.347709388,0.176904783
2.42388992,,1.775475979,-1.534300152,0.209836289,-1.791467015,4.743563175,2.859112978,,-0.246152788,0.239684507,0.059850819,0.00309193,0.004266384,0.064235449,,-2.342692137,-1.071585417,0.69944489,-0.103702798,0.215030804,0.070151895
2.431800064,,1.773450375,-1.532357995,0.210326895,-1.791335408,4.743742943,2.85968709,,-0.249156833,0.2371023,0.06086069,0.014429008,-0.003571299,0.065457836,,-2.122994661,-0.84516257,0.627706945,-0.236381382,-0.387360454,-0.012200329
2.439830016,,1.771508694,-1.530463521,0.210806265,-1.791323487,4.743610859,2.860165596,,-0.244529322,0.235568315,0.063583508,0.006471482,0.033316147,0.058291271,,-2.22163415,-0.69271946,0.56045264,-0.175379738,0.164704442,0.061001647
2.447810048,,1.769590855,-1.528545682,0.211332828,-1.791275326,4.743754864,2.860620737,,-0.24505344,0.237473011,0.064670078,0.00371511,-0.02861833,0.064427197,,-2.322515726,-0.822744489,0.600805223,-0.07930214,-0.324833781,0.19978039
2.455899904,,1.767673492,-1.526639287,0.211871371,-1.791047875,4.743706703,2.861194372,,-0.246996477,0.236923337,0.065143049,0.018503644,0.042448126,0.07621967,,-2.196974278,-0.878789723,0.578387141,-0.289757818,0.105227843,0.317208558
2.463879936,,1.76570797,-1.524708573,0.21238631,-1.791047875,4.743719101,2.861721039,,-0.246280625,0.238994211,0.066357456,0.009946907,-0.037966028,0.064618945,,-2.439089775,-0.757731974,0.721862972,-0.201305434,-0.236381382,0.274507403
2.471899904,,1.763706207,-1.522790257,0.212900892,-1.791035954,4.743731022,2.86228323,,-0.249463633,0.238112167,0.068747908,0.004625911,0.034083135,0.072408691,,-2.436848164,-1.094003558,0.829469919,-0.073201977,-0.015250412,0.169279575
2.47988992,,1.761657238,-1.52089626,0.213463396,-1.790880028,4.743731022,2.86285758,,-0.249527544,0.235287085,0.069310367,0.016178705,-0.037390783,0.076243639,,-2.266470432,-1.152290583,0.892240584,-0.280607581,-0.21198073,0.015250412
2.487830016,,1.759703159,-1.519110028,0.213990331,-1.790856187,4.743742943,2.863467693,,-0.248364285,0.234584019,0.071496293,0.005584649,0.041777011,0.0689812,,-2.24181056,-0.70392853,0.829469919,-0.064051732,-0.12047825,0.038126029
2.49588992,,1.757738113,-1.517275635,0.214588791,-1.790676896,4.743682861,2.863981962,,-0.24717544,0.233791456,0.073707782,0.026413232,-0.029145636,0.07161773,,-2.367352009,-0.782391906,1.024507403,-0.12657842,-0.032025866,0.186055019
2.503849984,,1.755748749,-1.515429322,0.215211213,-1.790653054,4.743922234,2.864604235,,-0.251035959,0.233868152,0.074538685,0.010785803,0.038661111,0.077178411,,-2.24181056,-0.860855222,0.914658725,-0.100652717,-0.344659299,0.253156841
2.51179008,,1.753722668,-1.513571088,0.215809688,-1.790653054,4.743635178,2.865178347,,-0.252327055,0.234098256,0.077159233,0.004649879,-0.018503644,0.075956024,,-2.129719973,-0.661334097,0.6972031,0.068626851,0.134203628,0.234856337
2.51984,,1.751721382,-1.511700932,0.216360956,-1.790329281,4.743946075,2.865812063,,-0.251342744,0.235287085,0.077951789,0.030751523,0.021595575,0.083386242,,-2.23956871,-0.813777208,0.679268599,-0.144878909,-0.422436416,0.09912768
2.527780096,,1.749695778,-1.509795014,0.216971025,-1.790341202,4.743706703,2.866494417,,-0.249156833,0.235389352,0.079153411,0.00680704,-0.024663536,0.084009416,,-2.322515726,-1.109696269,0.762215614,0.091502473,0.150979072,-0.047276277
2.53579008,,1.747646332,-1.507924382,0.217617422,-1.79013807,4.743957996,2.867080688,,-0.248607159,0.233868152,0.07921733,0.032381378,0.021595575,0.068597704,,-2.170072556,-0.966220319,0.824986279,-0.041176111,-0.420911372,0.048801318
2.543830016,,1.745656967,-1.506114308,0.218252212,-1.790089909,4.743754864,2.867655039,,-0.245194048,0.233689189,0.082221374,0.010114687,-0.012942963,0.084848315,,-2.360626459,-0.827228069,0.782391906,0.140303791,0.186055019,0.254681885
2.55179008,,1.743655205,-1.504219834,0.218946546,-1.789814774,4.743946075,2.868360758,,-0.247546151,0.231503278,0.082719915,0.031422637,0.012942963,0.083601959,,-2.385286331,-0.865338862,0.645641446,0.056426525,-0.36905998,0.263832122
2.559800064,,1.741653919,-1.502373997,0.219592571,-1.789707009,4.743850231,2.869042635,,-0.250179499,0.231579974,0.084138848,0.015435683,0.03990747,0.085783087,,-2.08712554,-0.957253098,0.706170321,0.176904783,0.134203628,0.187580064
2.56788992,,1.739712715,-1.500467602,0.22021538,-1.789539162,4.743910313,2.869712591,,-0.250652462,0.230122685,0.084688522,0.029313415,-0.035017908,0.093788549,,-2.295614004,-0.744281113,0.84516257,0.12657842,-0.34160924,-0.001525041
2.57588992,,1.737735271,-1.498609368,0.220885754,-1.789419476,4.743910313,2.870418072,,-0.250256181,0.229521886,0.086733833,0.015148061,0.03293265,0.078808263,,-2.140928984,-0.827228069,0.706170321,0.181479901,0.038126029,0.02745074
2.58388992,,1.735805511,-1.496702973,0.221568108,-1.789264027,4.743957996,2.871076107,,-0.247239366,0.231848419,0.087807618,0.029768815,-0.02768356,0.090672649,,-2.203699827,-1.232995749,0.708412111,0.176904783,-0.2409565,0.218080893
2.591919872,,1.733803749,-1.494784657,0.222286403,-1.789059941,4.743970394,2.871782064,,-0.244644374,0.229956508,0.088906974,0.018287929,0.032261536,0.088491522,,-2.392011881,-1.035716534,0.773424625,0.082352221,-0.050326359,0.242481545
2.59984,,1.731874466,-1.492950741,0.222980738,-1.788952176,4.743994236,2.872488499,,-0.248607159,0.230429485,0.091808751,0.028043088,-0.033148367,0.095322527,,-2.37183547,-0.941560447,0.887757003,0.147928998,-0.244006589,0.122003295
2.607879936,,1.729896545,-1.491140668,0.223663092,-1.788772885,4.744029999,2.873325586,,-0.250371248,0.227745026,0.092793055,0.021595575,0.03899667,0.097623497,,-2.297855854,-1.091761708,0.717379391,-0.019825535,-0.155554205,-0.05337644
2.61579008,,1.727871418,-1.489294354,0.224381402,-1.788641278,4.743934155,2.873983383,,-0.253030151,0.225865886,0.094288684,0.026844665,-0.03079946,0.083961479,,-2.320273876,-1.062618256,0.733072042,0.057951566,-0.051851399,0.108277924
2.623830016,,1.725882053,-1.48748428,0.225111306,-1.788425271,4.744149685,2.874725342,,-0.249131262,0.223935634,0.09389241,0.022865903,0.041033987,0.102201477,,-2.320273876,-0.84292078,0.804809988,-0.114378087,-0.323308736,0.332458973
2.631760128,,1.72386837,-1.485709492,0.225865573,-1.788269822,4.743898392,2.875538826,,-0.250422359,0.225380138,0.096538529,0.03017628,-0.02504703,0.090960272,,-2.205941677,-1.011056542,0.715137541,-0.064051732,0.038126029,0.244006589
2.640069888,,1.721867085,-1.483935181,0.226643801,-1.78803045,4.744137764,2.876316309,,-0.248913959,0.223858938,0.098302603,0.024399882,0.031230891,0.103256084,,-2.120752811,-1.210577726,0.690477669,-0.173854694,-0.399560779,0.09912768
2.647770112,,1.719889164,-1.482173268,0.227457598,-1.787887398,4.743922234,2.87710619,,-0.245488063,0.224395826,0.098750018,0.026173549,-0.012703279,0.09232647,,-2.322515726,-0.8339535,0.83619535,-0.160129324,0.157079235,0.01372537
2.655770112,,1.717900276,-1.480387036,0.228224218,-1.787647549,4.744185448,2.877835751,,-0.24932301,0.22401233,0.100360692,0.023345271,0.011672636,0.097072229,,-2.23732686,-0.851888001,0.824986279,-0.190630153,-0.430061609,0.262307078
2.663919872,,1.715838432,-1.478600804,0.229026034,-1.787455861,4.743957996,2.878673077,,-0.246817514,0.227067515,0.101050988,0.017664747,0.004362258,0.097527623,,-2.255261421,-1.107454419,0.643399656,-0.17080462,0.190630153,0.257731974
2.671830016,,1.713837147,-1.476814572,0.229851827,-1.787372414,4.744185448,2.879486799,,-0.246996477,0.224587575,0.100756973,0.020109531,-0.003787015,0.101050988,,-2.407704592,-1.067101836,0.607530653,-0.132678583,-0.436161786,0.138778746
2.67984,,1.711811543,-1.475004498,0.230642408,-1.78724033,4.744006157,2.880311966,,-0.24505344,0.222401649,0.10316021,0.014884408,0.035880771,0.099828601,,-2.199216127,-0.914658725,0.535792708,-0.108277924,0.163179412,0.006100165
2.687859968,,1.709846497,-1.47326595,0.231456205,-1.787072484,4.744173527,2.881113768,,-0.243557811,0.221596316,0.101102121,0.019126823,-0.024471788,0.09280584,,-2.136445522,-1.141081572,0.461812973,-0.035075948,-0.361434758,0.111328006
2.695879936,,1.707952499,-1.471515958,0.232330307,-1.786929433,4.744149685,2.88192749,,-0.243033692,0.221021071,0.102290951,0.018168086,0.046786416,0.109655663,,-2.304581165,-1.199368596,0.513374627,-0.059476607,0.003050082,0.314158469
2.70388992,,1.706010818,-1.469693963,0.233192056,-1.786749665,4.744125843,2.882776499,,-0.245488063,0.220496953,0.103569269,0.029481195,-0.032093756,0.096808575,,-2.203699827,-0.943802238,0.782391906,0.024400659,-0.134203628,0.260782033
2.711770112,,1.704093456,-1.467871491,0.234005854,-1.786509816,4.744281292,2.88359046,,-0.246152788,0.221123338,0.102700017,0.027779434,0.044461478,0.10987138,,-2.181281567,-0.98639667,0.641157806,0.071676932,-0.259256989,0.042701155
2.71988992,,1.702115536,-1.466073338,0.234879956,-1.786234681,4.744149685,2.884403706,,-0.246229485,0.22217156,0.103863284,0.033388052,-0.030391995,0.097144134,,-2.394253731,-1.232995749,0.726346612,0.088452391,0.089977428,0.114378087
2.727830016,,1.70019865,-1.464251343,0.235777646,-1.786042992,4.744425297,2.885228872,,-0.244542107,0.220100686,0.104170084,0.026652917,0.017736653,0.107522473,,-2.329241276,-1.212819457,0.728588402,0.131153539,-0.480387986,0.276032448
2.73579008,,1.698280811,-1.462440793,0.236663729,-1.785851304,4.744185448,2.886018753,,-0.244312018,0.215498745,0.106547751,0.025334653,-0.016178705,0.104166888,,-2.255261421,-1.064859986,0.549243569,0.094552554,0.215030804,0.224181056
2.743869952,,1.696327686,-1.460762803,0.237525478,-1.785600011,4.744472981,2.886927843,,-0.24201104,0.214335471,0.103709884,0.026628949,0.016178705,0.115024596,,-2.331482887,-1.185917735,0.600805223,0.083877265,-0.501738548,0.030500824
2.751780096,,1.694374084,-1.459036652,0.238399193,-1.785432164,4.744245529,2.887812853,,-0.243238226,0.21361962,0.107391439,0.024735441,0.04623514,0.09575396,,-2.365110159,-1.268864751,0.851888001,0.001525041,0.234856337,-0.012200329
2.75979008,,1.692408562,-1.457370106,0.239273295,-1.785204713,4.744353294,2.888638735,,-0.246817514,0.212226242,0.106279306,0.030967239,-0.040866207,0.113682359,,-2.217150688,-0.932593167,0.883273363,-0.0259257,-0.34160924,0.279082537
2.767780096,,1.69045496,-1.455667798,0.240147024,-1.784953419,4.744425297,2.889548063,,-0.245347455,0.214118153,0.109334484,0.032261536,0.044533383,0.109823443,,-2.23956871,-0.959494889,0.874306142,-0.100652717,-0.047276277,0.244006589
2.775830016,,1.688453197,-1.454001729,0.241057068,-1.784725491,4.744293213,2.890444994,,-0.243890166,0.214591131,0.109270565,0.02861833,-0.031494543,0.119290978,,-2.277679443,-1.073827267,0.878789723,-0.140303791,-0.131153539,0.03965107
2.783930112,,1.686488152,-1.452323262,0.241906837,-1.784522359,4.744520664,2.891378164,,-0.242739677,0.212660879,0.111009076,0.024831316,0.041273672,0.101482421,,-2.174556255,-1.067101836,0.641157806,-0.150979072,-0.31110841,0.036600988
2.791810048,,1.684570313,-1.450597111,0.242804527,-1.78433067,4.74425745,2.892215967,,-0.238725767,0.212341294,0.111226395,0.027204191,-0.028402613,0.115360156,,-2.158863544,-0.970703959,0.647883236,-0.132678583,0.117428169,0.262307078
2.799879936,,1.682617664,-1.448954884,0.243678629,-1.784103219,4.744544506,2.893136978,,-0.237894863,0.213223338,0.111763284,0.01934254,0.021595575,0.116750322,,-2.398737192,-1.085036278,0.739797473,-0.12657842,-0.465137571,0.190630153
2.807879936,,1.680699348,-1.447240655,0.244588301,-1.783923451,4.744293213,2.894046307,,-0.238917515,0.21244356,0.112108432,0.029505163,-0.010809772,0.122814342,,-2.284404993,-1.268864751,0.83619535,-0.048801318,0.215030804,-0.007625206
2.815760128,,1.678757668,-1.44558603,0.245474383,-1.783719842,4.74450922,2.894991398,,-0.239965737,0.210168153,0.114217654,0.021595575,0.010785803,0.108912639,,-2.152138233,-1.163499713,0.9751876,-0.028975783,-0.411761105,0.164704442
2.823849984,,1.676864624,-1.443943803,0.246383682,-1.783552472,4.744437218,2.895936251,,-0.239914596,0.212008938,0.115010209,0.03218963,0.033891391,0.123461492,,-2.333724737,-1.037958264,0.943802238,0.0259257,0.155554205,0.285182714
2.83184,,1.674958706,-1.442194287,0.247245431,-1.783229653,4.744520664,2.896869659,,-0.240298092,0.210564435,0.116314098,0.03127883,-0.026940539,0.119554631,,-2.140928984,-1.163499713,0.84292078,0.071676932,-0.295857996,0.19978039
2.839899904,,1.673113346,-1.440503422,0.248191431,-1.782977883,4.744556427,2.897838831,,-0.236245826,0.211075768,0.118180439,0.03293265,0.048104681,0.117229693,,-2.140928984,-1.232995749,0.860855222,0.097602636,0.028975783,0.019825535
2.847770112,,1.671207905,-1.438777749,0.249137059,-1.782750432,4.74446106,2.898747683,,-0.234021559,0.208646953,0.119676068,0.030200249,-0.035808865,0.122502752,,-2.430122614,-1.136597991,1.008814693,0.094552554,-0.114378087,0.318733603
2.855899904,,1.669338226,-1.43707544,0.250071079,-1.782450978,4.744700432,2.899740934,,-0.235031426,0.206703916,0.120967172,0.027923245,0.047553405,0.120513372,,-2.270954132,-1.199368596,0.867580712,0.140303791,-0.219605923,0.260782033
2.86379008,,1.667420864,-1.435372655,0.251016706,-1.782199685,4.744472981,2.900757313,,-0.235836774,0.206473812,0.122628987,0.026485138,-0.020013656,0.126817077,,-2.275437593,-1.376471639,1.051409125,0.071676932,0.187580064,0.028975783
2.871859968,,1.665527344,-1.433742825,0.251974314,-1.782007996,4.744783878,2.901690722,,-0.236884981,0.203814924,0.123920083,0.027923245,0.016178705,0.114880785,,-2.385286331,-1.470627666,0.865338862,0.057951566,-0.399560779,0.122003295
2.87979008,,1.663646221,-1.432088677,0.252967894,-1.781828229,4.74450922,2.902659893,,-0.235184833,0.203546464,0.125633031,0.027515782,0.004506069,0.133168712,,-2.324757576,-1.275590181,0.822744489,-0.012200329,0.271457344,0.320258647
2.887879936,,1.661728382,-1.43044645,0.253937125,-1.781576935,4.744783878,2.903676748,,-0.235287085,0.20054242,0.126655683,0.032788839,0.01593902,0.123844989,,-2.232843399,-1.141081572,0.932593167,-0.064051732,-0.399560779,0.196730316
2.895899904,,1.659918785,-1.428888146,0.254943043,-1.781301324,4.74467659,2.904705763,,-0.233420745,0.200120583,0.128611505,0.034035198,0.047577374,0.123533398,,-2.149896383,-1.217303157,0.757731974,-0.123528339,0.253156841,-0.024400659
2.903820032,,1.658025265,-1.427293603,0.255972177,-1.781037633,4.744748116,2.905699015,,-0.230621234,0.200734168,0.12738432,0.03326821,-0.041225735,0.127775818,,-2.250777721,-1.25317204,0.800326347,-0.193680227,-0.251631796,0.266882211
2.911869952,,1.656215668,-1.425687615,0.256942153,-1.780786339,4.744832039,2.906703472,,-0.231464922,0.196605206,0.129378498,0.030415963,0.043862265,0.126265794,,-2.295614004,-0.988638461,0.69271946,-0.190630153,-0.035075948,0.210455686
2.919869952,,1.65435791,-1.424141232,0.257959694,-1.780522648,4.744688511,2.907732487,,-0.231324315,0.199072361,0.130030438,0.027779434,-0.032333441,0.136356518,,-2.185765266,-1.221786737,0.804809988,-0.205880553,-0.050326359,-0.001525041
2.927780096,,1.652488232,-1.422570531,0.259013176,-1.780343358,4.744939804,2.90876174,,-0.230237737,0.199225754,0.129800349,0.023225429,0.025909895,0.116798259,,-2.416671753,-1.439242363,0.937076807,-0.154029161,-0.288232774,0.117428169
2.935760128,,1.650594711,-1.420988385,0.260042697,-1.78016359,4.744700432,2.909802198,,-0.231132567,0.196362332,0.132932216,0.02274606,-0.025909895,0.129741222,,-2.344933748,-1.383197069,0.773424625,-0.103702798,0.239431471,0.260782033
2.943830016,,1.648737431,-1.419490163,0.261095822,-1.779984299,4.744975567,2.910831213,,-0.230033204,0.195288539,0.130848557,0.031158986,0.019318571,0.134127453,,-2.131961823,-1.143323421,0.802568197,-0.009150247,-0.384310365,0.100652717
2.951909888,,1.646903515,-1.417931859,0.262173265,-1.779684846,4.744748116,2.911884069,,-0.224395826,0.194662169,0.134351149,0.032788839,-0.019654131,0.120129876,,-2.228359699,-1.073827267,0.598563433,0.045751236,0.292807907,-0.022875618
2.959800064,,1.645105839,-1.416409794,0.263286322,-1.779409234,4.744975567,2.912888765,,-0.226364434,0.195850998,0.130618468,0.038373489,-0.004673848,0.129597411,,-2.304581165,-1.224028587,0.798084557,0.089977428,-0.340084195,0.279082537
2.967760128,,1.643380165,-1.414875333,0.264375746,-1.779050652,4.744855881,2.913977385,,-0.226620093,0.193192095,0.134760216,0.0344906,0.041968759,0.133935705,,-2.145412683,-1.132114291,0.955011308,0.111328006,0.215030804,0.147928998
2.975879936,,1.641582489,-1.413256947,0.2654652,-1.778823201,4.744915962,2.915089846,,-0.226735145,0.194368154,0.13225472,0.028570393,-0.026101643,0.129429638,,-2.304581165,-1.125388861,0.800326347,0.070151895,-0.11285305,-0.059476607
2.983849984,,1.639760971,-1.411722962,0.266530663,-1.77855951,4.744987488,2.916034937,,-0.225124463,0.19568482,0.132382542,0.031518511,0.038804922,0.135206029,,-2.387528181,-1.39664793,0.784633696,0.042701155,-0.03965107,0.340084195
2.991879936,,1.637927532,-1.41014034,0.26764369,-1.77839214,4.744879723,2.917148113,,-0.224152952,0.193639517,0.133443549,0.025574338,-0.034682348,0.132569507,,-2.293372154,-1.549091101,0.623223305,0.02745074,0.024400659,0.230281219
2.999849984,,1.636153698,-1.408594433,0.268769085,-1.778128449,4.745059013,2.918260336,,-0.223769456,0.190482065,0.133622512,0.035425369,0.040458746,0.140814647,,-2.266470432,-1.584960103,0.614256084,-0.070151895,-0.183004946,0.036600988
3.007859968,,1.634404182,-1.407107655,0.2698825,-1.777840916,4.744879723,2.919313192,,-0.221660227,0.188487887,0.134274453,0.035353463,-0.030248186,0.131826475,,-2.288888454,-1.237479448,0.889998794,-0.118953213,0.21198073,0.276032448
3.015830016,,1.632618427,-1.405585591,0.270959586,-1.777565781,4.74519062,2.920461655,,-0.221021071,0.185688376,0.133878171,0.032477252,0.016034894,0.135134131,,-2.248535872,-1.125388861,0.818260849,-0.134203628,-0.320258647,0.2409565
3.023780096,,1.630832672,-1.404086892,0.27204904,-1.777337853,4.744939804,2.921526432,,-0.222324952,0.187976569,0.131551638,0.028234836,-0.018503644,0.140934497,,-2.232843399,-1.322668195,0.901207864,-0.125053376,0.353809565,0.033550907
3.031849984,,1.629095078,-1.402552907,0.273114115,-1.77708656,4.74522686,2.922662973,,-0.222209901,0.185944036,0.133277372,0.033987261,0.016058862,0.129549474,,-2.156621695,-1.327151895,0.685994029,-0.073201977,-0.292807907,0.143353865
3.039770112,,1.627333641,-1.401018445,0.274167985,-1.776835267,4.745071411,2.92371583,,-0.218029812,0.185266539,0.13316232,0.029145636,0.046211172,0.137578905,,-2.342692137,-1.300250173,0.786875486,-0.010675289,0.306533277,0.233331308
3.047869952,,1.625572205,-1.399604146,0.275257051,-1.776547734,4.745214462,2.924828529,,-0.219704404,0.182467014,0.133852616,0.037007287,-0.03310043,0.144433886,,-2.282163143,-1.309217334,1.022265553,0.051851399,-0.19825536,0.07930214
3.055800064,,1.623797894,-1.398117844,0.276298195,-1.776260201,4.745214462,2.925965071,,-0.216534182,0.179603592,0.135156497,0.03834952,0.047745153,0.131634727,,-2.199216127,-1.502013087,1.058134556,0.100652717,0.12047825,0.103702798
3.063770112,,1.622036457,-1.396667306,0.2773996,-1.775961224,4.745178699,2.927041292,,-0.213849708,0.180869117,0.13654986,0.036384109,-0.034059167,0.140814647,,-2.286646843,-1.510980368,1.11417985,0.096077591,0.051851399,0.28365767
3.071899904,,1.620286942,-1.395253007,0.278513014,-1.775709931,4.745406151,2.928154469,,-0.212942109,0.178044036,0.138160542,0.029960563,0.04319115,0.144961193,,-2.365110159,-1.163499713,0.898966014,0.163179412,-0.134203628,0.089977428
3.079810048,,1.618561268,-1.393838708,0.279578507,-1.775493924,4.745154858,2.929279089,,-0.213108286,0.176522836,0.140205845,0.025885927,-0.025909895,0.128614709,,-2.270954132,-1.129872561,0.948285878,0.160129324,0.192155182,-0.007625206
3.087869952,,1.616895199,-1.392460171,0.280667573,-1.775254552,4.745418072,2.930403471,,-0.21244356,0.17736654,0.139132068,0.030056437,0.025909895,0.144913256,,-2.165589094,-1.210577726,0.928109586,0.09912768,-0.19825536,0.315683514
3.09584,,1.615193844,-1.391045872,0.281828523,-1.775039021,4.745214462,2.931515932,,-0.212226242,0.178823814,0.141880438,0.027084349,-0.016178705,0.148101062,,-2.324757576,-1.405615211,0.948285878,0.09912768,0.282132626,0.132678583
3.103760128,,1.613503933,-1.389643494,0.282882392,-1.774763886,4.745501995,2.932676554,,-0.211254731,0.176599547,0.142711356,0.03326821,0.018503644,0.13487047,,-2.24629426,-1.206094027,0.957253098,-0.022875618,-0.201305434,0.009150247
3.111830016,,1.611862183,-1.388240639,0.284043372,-1.774476353,4.745286465,2.933764935,,-0.210487738,0.173033044,0.144104719,0.035521243,-0.016178705,0.146039769,,-2.156621695,-1.156774282,0.883273363,-0.035075948,0.280607581,0.268407255
3.119760128,,1.610244274,-1.386910264,0.285144776,-1.774213139,4.745573998,2.934937477,,-0.206026405,0.173978984,0.144270897,0.037870154,0.014884408,0.151169017,,-2.277679443,-1.309217334,0.995363891,-0.164704442,-0.190630153,0.083877265
3.127820032,,1.608602524,-1.385531727,0.286293775,-1.773914162,4.745370388,2.936098099,,-0.204083368,0.173621058,0.146469608,0.034226947,-0.00913198,0.135565564,,-2.454782486,-1.499771237,0.854129791,-0.187580064,0.301958144,0.024400659
3.135869952,,1.606948853,-1.38414127,0.287382841,-1.773614232,4.745585918,2.937282562,,-0.206793398,0.172662318,0.1463162,0.032980587,0.016178705,0.154380798,,-2.279921293,-1.479594946,0.952769458,-0.169279575,-0.202830479,0.305008233
3.143739904,,1.605306625,-1.382787053,0.288556188,-1.773399178,4.745406151,2.938454866,,-0.207892746,0.171805859,0.149486437,0.027324034,-0.014932345,0.150282189,,-2.201457977,-1.300250173,0.894482434,-0.132678583,0.381260306,0.122003295
3.151849984,,1.603676796,-1.381408993,0.289693177,-1.773183171,4.745573998,2.93963933,,-0.206793398,0.17037414,0.150432393,0.027755465,0.010234528,0.139544323,,-2.306823015,-1.311459184,1.053650975,-0.071676932,-0.147928998,0.140303791
3.159849984,,1.602023602,-1.380078141,0.290914446,-1.772968117,4.745501995,2.940859556,,-0.204236761,0.172739029,0.151429474,0.032812808,0.034442663,0.151624426,,-2.257503271,-1.459418654,0.916900516,0.01372537,0.340084195,0.254681885
3.16788992,,1.600357533,-1.378712002,0.292111367,-1.772608582,4.745621681,2.942056179,,-0.203086272,0.169671059,0.152554393,0.034155041,-0.030607712,0.152870774,,-2.205941677,-1.513222098,0.786875486,0.073201977,-0.125053376,0.065576769
3.175830016,,1.598752022,-1.377345387,0.293319911,-1.77233297,4.74560976,2.943264246,,-0.201565087,0.168290481,0.152106985,0.039691754,0.036072519,0.139544323,,-2.188007116,-1.466144085,0.555969,0.109802961,0.254681885,0.131153539
3.183869952,,1.597145557,-1.375967328,0.29454118,-1.772069756,4.745645523,2.944484472,,-0.199046791,0.166513622,0.150496304,0.027947214,-0.027300065,0.150138378,,-2.205941677,-1.40785706,0.811535418,0.132678583,0.02745074,0.280607581
3.191800064,,1.595540047,-1.374684636,0.295786023,-1.771817986,4.745741367,2.945645094,,-0.195863783,0.163675755,0.15116103,0.032477252,0.038852859,0.154141113,,-2.291130304,-1.430275083,0.941560447,0.082352221,0.018300494,0.118953213
3.199859968,,1.593970299,-1.373353783,0.297054857,-1.771614854,4.745585918,2.946877241,,-0.19718045,0.162307948,0.151212156,0.026892602,-0.025909895,0.140670836,,-2.266470432,-1.602894545,0.894482434,0.068626851,0.254681885,0.178429812
3.207749888,,1.592411995,-1.371999089,0.29829973,-1.771327321,4.745825291,2.948049784,,-0.196477383,0.162563622,0.150930926,0.037246972,0.025909895,0.147501841,,-2.181281567,-1.726194143,0.70392853,-0.02745074,-0.146403953,0.239431471
3.215780096,,1.590770245,-1.370716874,0.299556583,-1.771039788,4.74560976,2.949222326,,-0.196196154,0.158792585,0.14961426,0.034514569,-0.0304639,0.157976061,,-2.302339554,-1.461660504,0.620981514,-0.068626851,0.303483188,0.022875618
3.223770112,,1.589188576,-1.369434182,0.300753862,-1.770776097,4.745909214,2.950406551,,-0.192834169,0.158677533,0.150764748,0.037510626,0.018503644,0.140574962,,-2.392011881,-1.385438919,1.011056542,-0.149454042,-0.204355523,0.178429812
3.231820032,,1.587666988,-1.368140046,0.301974773,-1.770500962,4.745657921,2.951615095,,-0.190609902,0.156261519,0.149396956,0.027348002,-0.021595575,0.151768237,,-2.24405241,-1.416824222,1.028990984,-0.135728672,0.423961461,0.242481545
3.239760128,,1.586120605,-1.366905514,0.303255588,-1.77026159,4.745968342,2.952847481,,-0.189459413,0.154331252,0.149205208,0.031973913,0.013805828,0.158767015,,-2.138687372,-1.488562226,0.928109586,-0.12657842,-0.222656012,0.001525041
3.247810048,,1.584599018,-1.36563522,0.304512411,-1.770034138,4.745753288,2.954019785,,-0.186033517,0.154625267,0.150509089,0.026796728,0.00433829,0.147142321,,-2.273195982,-1.528914809,0.724104822,-0.067101814,0.471237719,0.250106752
3.255719936,,1.583160877,-1.364460293,0.305685371,-1.769830529,4.745933056,2.955251932,,-0.185074791,0.152388215,0.15113546,0.028091025,-0.030895334,0.154476672,,-2.338208437,-1.39664793,0.800326347,-0.009150247,-0.11285305,0.193680227
3.263859968,,1.581710815,-1.363225762,0.306882679,-1.769543473,4.745933056,2.956472397,,-0.186723813,0.149128497,0.14901346,0.035976645,0.047841027,0.153278247,,-2.24629426,-1.273348451,0.858613431,0.051851399,0.262307078,-0.044226196
3.271830016,,1.580248833,-1.362003152,0.308091223,-1.769267861,4.745896816,2.957644701,,-0.18682608,0.15054743,0.150930926,0.034059167,-0.033843454,0.160948142,,-2.203699827,-1.432516932,1.094003558,0.065576769,0.167754531,0.373635083
3.27988992,,1.578763008,-1.360864941,0.309288144,-1.769004647,4.746112347,2.958913088,,-0.186455369,0.150330126,0.151045978,0.03374758,0.04319115,0.154284924,,-2.353901148,-1.584960103,0.883273363,0.114378087,-0.114378087,0.157079235
3.287859968,,1.577312946,-1.359690015,0.310497433,-1.768681351,4.745837212,2.960169077,,-0.184167176,0.149396956,0.151608437,0.032621063,-0.018503644,0.148388684,,-2.338208437,-1.757579446,1.002089262,0.138778746,0.445312023,0.016775453
3.295849984,,1.575802803,-1.358491246,0.311706334,-1.768513505,4.746136189,2.961353302,,-0.183515236,0.146674126,0.151327208,0.026413232,0.016178705,0.161020055,,-2.214908838,-1.450451374,1.024507403,0.141828835,-0.187580064,0.344659299
3.303849984,,1.57434082,-1.357340638,0.312927216,-1.768286053,4.745909214,2.962657452,,-0.180715725,0.144066364,0.154152289,0.030104375,0.005536712,0.162170544,,-2.223875999,-1.363020778,1.067101836,0.102177761,0.433111697,0.096077591
3.311830016,,1.572890759,-1.356213872,0.314112157,-1.768010441,4.746148109,2.963877916,,-0.178159088,0.146162808,0.154625267,0.031878039,-0.003595268,0.147813439,,-2.250777721,-1.329393625,1.024507403,0.065576769,-0.202830479,0.10675288
3.319749888,,1.571488857,-1.355039899,0.315333068,-1.767783467,4.745968342,2.965121984,,-0.177136436,0.144820571,0.157578185,0.03235741,0.04302337,0.159749731,,-2.266470432,-1.470627666,0.934835017,-0.02745074,0.414811194,0.28365767
3.32784,,1.570086479,-1.353900735,0.316530347,-1.767483536,4.746100426,2.966402054,,-0.174873814,0.143964097,0.157948896,0.037966028,-0.028858015,0.165478185,,-2.295614004,-1.571509242,1.046925545,-0.105227843,-0.019825535,0.073201977
3.335820032,,1.568672657,-1.352762047,0.317799181,-1.76718456,4.746136189,2.967622519,,-0.174439192,0.142315075,0.159418955,0.033603769,0.046019424,0.154452696,,-2.275437593,-1.553574681,0.822744489,-0.140303791,0.175379738,0.236381382
3.343749888,,1.56733036,-1.351635281,0.319031686,-1.766921345,4.746112347,2.968926668,,-0.175116688,0.141624779,0.159418955,0.031494543,-0.025909895,0.15735288,,-2.167830706,-1.528914809,0.83843714,-0.19825536,0.160129324,0.193680227
