Junhao2000/UR5-final-year-project/Final report/Matlab_script/circle_movement_50mms.csv
Time,Position->,Joint 1,Joint 2,Joint 3,Joint 4,Joint 5,Joint 6,Velocity->,Joint 1,Joint 2,Joint 3,Joint 4,Joint 5,Joint 6,Current->,Joint 1,Joint 2,Joint 3,Joint 4,Joint 5,Joint 6
0,,1.951177597,-1.720411126,0.508509755,-1.785995309,4.748410225,3.156672239,,0,-0.002198706,-0.003144661,0,0,0,,-1.342844486,-1.927957058,-0.573903501,-0.054901481,-0.059476607,-0.265357167
0.008019968,,1.951165676,-1.720459286,0.508497775,-1.785983388,4.748398304,3.156576872,,0,-0.003489806,-0.004090616,0,0,0,,-1.170225143,-1.979518771,-0.582870722,-0.047276277,-0.054901481,-0.312633455
0.016029952,,1.951225281,-1.720518891,0.508473814,-1.78597099,4.748398304,3.156468868,,0,-0.005675729,-0.005049353,0,0,-0.015435683,,-1.159016013,-1.860702753,-0.569419861,-0.057951566,-0.054901481,-0.248581707
0.023980032,,1.951225281,-1.720483128,0.508413911,-1.785947148,4.748386383,3.156445026,,0.002045308,-0.005931392,-0.005854693,0,0,-0.012463595,,-1.011056542,-2.010904074,-0.634432375,-0.03965107,-0.067101814,-0.158604279
0.031959808,,1.951249599,-1.720578972,0.508354008,-1.785995309,4.748434067,3.156456947,,0.006672816,-0.0106356,-0.008449677,0,0,-0.005177185,,-1.237479448,-1.972793341,-0.629948735,-0.016775453,-0.05337644,-0.259256989
0.040019968,,1.951321125,-1.720699135,0.508282423,-1.785947148,4.748410225,3.156313419,,0.003847735,-0.009421199,-0.009970875,0,0,-0.029193573,,-1.058134556,-1.927957058,-0.681510389,-0.003050082,-0.07930214,-0.250106752
0.047980032,,1.951381207,-1.720759217,0.50821054,-1.785983388,4.748398304,3.156241655,,0.011709386,-0.012438028,-0.015275893,0,0,-0.010785803,,-1.138839722,-2.055740356,-0.620981514,0,-0.067101814,-0.115903132
0.056029952,,1.951405048,-1.720878903,0.508055151,-1.785935227,4.748398304,3.156217575,,0.006698383,-0.013243368,-0.013141102,0,0,-0.005081311,,-1.069343686,-1.948133349,-0.620981514,0.021350577,-0.067101814,-0.289757818
0.063980032,,1.951525211,-1.720974747,0.507911325,-1.785947148,4.748374462,3.156002283,,0.018497253,-0.014994662,-0.017500164,0,0,-0.021595575,,-0.966220319,-2.004178524,-0.618739724,0.051851399,-0.07930214,0.022875618
0.072039936,,1.951597214,-1.721142594,0.507779479,-1.785947148,4.748386383,3.155954361,,0.012616992,-0.01715502,-0.019059712,0,0,-0.006663229,,-1.152290583,-1.923473477,-0.668059528,0.070151895,-0.077777103,-0.230281219
0.079970048,,1.95175314,-1.721214596,0.507660389,-1.785911385,4.748410225,3.155691385,,0.016451944,-0.016234631,-0.020376379,0,0,-0.021859227,,-0.948285878,-1.939166069,-0.69496125,0.089977428,-0.076252058,0.082352221
0.087980032,,1.951860905,-1.721394364,0.507516563,-1.785899464,4.748422146,3.155631542,,0.01643916,-0.019187544,-0.022102106,0,0,-0.008221178,,-1.132114291,-1.916748047,-0.69944489,0.114378087,-0.067101814,-0.149454042
0.09604992,,1.95196867,-1.721538369,0.507313251,-1.785791222,4.748398304,3.155356169,,0.014956313,-0.018599518,-0.022587867,0.012631373,0,-0.027611656,,-1.017781973,-1.910022616,-0.726346612,0.018300494,-0.08540231,0.134203628
0.103980032,,1.952112675,-1.721694771,0.507133842,-1.785815541,4.748374462,3.155308247,,0.020657608,-0.020031232,-0.024722658,0.005872271,0,-0.009731191,,-1.060376406,-1.916748047,-0.811535418,-0.047276277,-0.076252058,-0.135728672
0.111970048,,1.952232361,-1.721874539,0.506966054,-1.785779301,4.748398304,3.15503335,,0.016055666,-0.020926055,-0.025566347,0.00340352,0,-0.032381378,,-1.026749253,-1.878637195,-0.847404361,0.019825535,-0.073201977,0.125053376
0.11993984,,1.95243597,-1.722054307,0.506738722,-1.785815541,4.748386383,3.154901505,,0.021347899,-0.022741266,-0.027074762,0.002396845,0,-0.015411714,,-1.040200114,-1.862944603,-0.930351377,0.044226196,-0.077777103,-0.129628494
0.127980032,,1.952567577,-1.722245995,0.506559372,-1.785791222,4.748410225,3.154590368,,0.019289808,-0.022817966,-0.029823143,0.002157161,0,-0.027899276,,-0.98639667,-1.869670033,-0.97742939,0.073201977,-0.070151895,0.012200329
0.135919872,,1.952735901,-1.722450082,0.506296039,-1.785683457,4.748386383,3.154350996,,0.022907447,-0.025170069,-0.029209552,0.008221178,0,-0.034466632,,-0.970703959,-1.82035017,-1.006572962,0.007625206,-0.074727021,-0.172329649
0.14393984,,1.952927589,-1.72264177,0.506044745,-1.785647694,4.748410225,3.154028177,,0.021756962,-0.027458256,-0.034373954,0.009491507,0,-0.032812808,,-0.97742939,-1.806899309,-0.950527668,-0.041176111,-0.082352221,-0.12657842
0.152009984,,1.953107357,-1.722881619,0.505805075,-1.785635773,4.748410225,3.153824806,,0.024160197,-0.026806315,-0.034054372,0.004458132,0,-0.034418695,,-0.970703959,-1.878637195,-0.968462169,0.01372537,-0.086927347,-0.234856337
0.16,,1.953287125,-1.723073308,0.505493879,-1.785635773,4.748398304,3.153525591,,0.02428803,-0.030091591,-0.038196124,0.002876214,0,-0.03079946,,-0.869822502,-1.81138289,-0.910175085,0.070151895,-0.065576769,-0.253156841
0.16793984,,1.953515053,-1.723325555,0.505194664,-1.785468403,4.748422146,3.153262377,,0.026231073,-0.030500652,-0.039589487,0.02336924,0,-0.035593148,,-0.883273363,-1.777755737,-0.854129791,-0.109802961,-0.076252058,-0.266882211
0.176039936,,1.953719139,-1.723577325,0.504859805,-1.785444085,4.748374462,3.152963161,,0.027586088,-0.032315861,-0.040893372,0.00680704,0,-0.039523974,,-0.887757003,-1.726194143,-0.863097072,-0.09912768,-0.09302751,-0.236381382
0.183970048,,1.953946114,-1.723841015,0.504548609,-1.785408322,4.748386383,3.152640343,,0.02690858,-0.031881236,-0.042043857,0.003691141,0,-0.046139266,,-0.937076807,-1.717226863,-0.883273363,-0.006100165,-0.096077591,-0.131153539
0.192,,1.954185963,-1.724117104,0.504201472,-1.785324399,4.748386383,3.152281284,,0.028838839,-0.034540135,-0.044395961,0.014788534,0,-0.046474826,,-0.874306142,-1.667907,-0.851888001,-0.033550907,-0.10675288,-0.036600988
0.199909888,,1.954389572,-1.724416558,0.503878236,-1.785264317,4.748398304,3.151946306,,0.030960847,-0.036291428,-0.045802109,0.007550062,0,-0.04484497,,-0.865338862,-1.609619975,-0.876547933,-0.140303791,-0.11285305,0.054901481
0.208019968,,1.954665661,-1.724704568,0.503507495,-1.785192792,4.748386383,3.151563644,,0.032482043,-0.037007287,-0.049164087,0.001917476,0,-0.042424157,,-0.97742939,-1.567025542,-0.773424625,-0.071676932,-0.109802961,0.021350577
0.215929856,,1.954881191,-1.72502834,0.503124356,-1.785085026,4.748374462,3.151180506,,0.031548873,-0.037966024,-0.049547579,0.02430401,0,-0.048655953,,-0.939318597,-1.618587255,-0.672543168,-0.12047825,-0.122003295,-0.065576769
0.22388992,,1.955169201,-1.725280587,0.502705276,-1.785037343,4.748386383,3.150761843,,0.032558743,-0.038387869,-0.05280729,0.012942963,0,-0.058363177,,-0.869822502,-1.699292421,-0.737555683,-0.181479901,-0.131153539,-0.137253702
0.231980032,,1.95540905,-1.725615803,0.502286613,-1.785025422,4.748338699,3.150330782,,0.035665054,-0.03992185,-0.053050172,0.004961469,0,-0.050597399,,-0.97742939,-1.717226863,-0.744281113,-0.111328006,-0.125053376,-0.215030804
0.239980032,,1.955696583,-1.725939576,0.501879513,-1.784869496,4.748374462,3.14992404,,0.033990458,-0.041238517,-0.054942079,0.01979794,0,-0.049734537,,-0.952769458,-1.737403154,-0.793600917,-0.152504116,-0.117428169,-0.276032448
0.247980032,,1.956007957,-1.726263348,0.501389265,-1.784797494,4.748374462,3.149481297,,0.036598224,-0.042708583,-0.057012953,0.006950851,0,-0.055127438,,-0.98191303,-1.784481168,-0.816019058,-0.274507403,-0.157079235,-0.251631796
0.25609984,,1.956260204,-1.72662336,0.500970602,-1.784761731,4.748338699,3.149050236,,0.039372176,-0.043322176,-0.058764249,0.001917476,0,-0.061479077,,-1.089519978,-1.771030307,-0.795842767,-0.17080462,-0.169279575,-0.152504116
0.264069888,,1.956595421,-1.726983372,0.500467598,-1.784677807,4.748279095,3.148548126,,0.040011331,-0.046083342,-0.060362145,0.022650186,0,-0.060975738,,-1.098487139,-1.81810832,-0.739797473,-0.161654368,-0.161654368,-0.003050082
0.271990016,,1.956919193,-1.72737867,0.500000954,-1.784606282,4.748302937,3.14804554,,0.039896283,-0.047042079,-0.062011175,0.008077368,0,-0.058626831,,-1.069343686,-1.827075601,-0.636674225,-0.266882211,-0.178429812,0.003050082
0.280069888,,1.957207203,-1.727738682,0.499462426,-1.7845462,4.748279095,3.147554874,,0.041136254,-0.047834635,-0.064337716,0.004913533,0,-0.066584356,,-1.132114291,-1.918989778,-0.739797473,-0.146403953,-0.178429812,-0.096077591
0.287949824,,1.957566261,-1.728146378,0.498971462,-1.784438435,4.748242855,3.147028446,,0.040484309,-0.050250657,-0.06675373,0.015507587,0,-0.068693578,,-1.058134556,-1.851735473,-0.789117336,-0.22723113,-0.175379738,-0.150979072
0.295959808,,1.957877636,-1.728530232,0.498396963,-1.784426514,4.748242855,3.146442175,,0.042094991,-0.050813116,-0.068747908,0.00680704,0,-0.060496371,,-1.033474684,-1.827075601,-0.737555683,-0.237906426,-0.166229486,-0.254681885
0.304079872,,1.958178043,-1.728974168,0.497858435,-1.784402196,4.748279095,3.145927668,,0.043526705,-0.053408097,-0.070499204,0.003978763,-0.001318265,-0.070850737,,-1.055892825,-1.775514007,-0.641157806,-0.11285305,-0.18452999,-0.21198073
0.311970048,,1.95856142,-1.729381863,0.497307897,-1.784222428,4.748254776,3.145401001,,0.042874765,-0.053650979,-0.071278974,0.017880464,-0.001318265,-0.073942669,,-0.957253098,-1.762063146,-0.710653961,-0.250106752,-0.160129324,-0.045751236
0.319970048,,1.958897114,-1.729825322,0.496733397,-1.784222428,4.748219013,3.144803047,,0.044306479,-0.054558586,-0.073081404,0.006471482,-0.001318265,-0.070515186,,-0.923625946,-1.658939838,-0.793600917,-0.176904783,-0.17080462,0.033550907
0.328029952,,1.959196568,-1.730257336,0.496146917,-1.784150902,4.748230934,3.14428854,,0.045508098,-0.057370882,-0.074564248,0.004266384,-0.001318265,-0.076027922,,-0.932593167,-1.701534152,-0.851888001,-0.068626851,-0.17080462,-0.094552554
0.335990016,,1.959579945,-1.730760876,0.495548457,-1.784043137,4.748254776,3.143582582,,0.046530753,-0.057894994,-0.076647907,0.016178705,-0.001318265,-0.085040063,,-0.863097072,-1.750854015,-0.798084557,-0.253156841,-0.166229486,-0.218080893
0.344,,1.95998764,-1.731180493,0.4949148,-1.784031216,4.748242855,3.142996311,,0.046965379,-0.057754379,-0.078667648,0.005392902,-0.001318265,-0.0689812,,-0.903449655,-1.692566991,-0.609772444,-0.10675288,-0.186055019,-0.303483188
0.351959808,,1.960335255,-1.731660191,0.494268388,-1.78391153,4.748230934,3.142374277,,0.047936901,-0.060080916,-0.079830922,0.018024275,-0.001318265,-0.083386242,,-0.858613431,-1.694808722,-0.715137541,-0.033550907,-0.18452999,-0.271457344
0.360009984,,1.960647106,-1.732104127,0.493645966,-1.783791367,4.748242855,3.141716242,,0.048345961,-0.060732856,-0.08245147,0.009946907,-0.001126517,-0.087580718,,-0.896724224,-1.768788576,-0.733072042,-0.140303791,-0.190630153,-0.044226196
0.367899904,,1.961066246,-1.732655827,0.492963612,-1.783755604,4.748207092,3.141021967,,0.053241916,-0.061908908,-0.084829137,0.005872271,-0.000982706,-0.086478174,,-1.008814693,-1.930198908,-0.737555683,0.035075948,-0.18452999,-0.041176111
0.376039936,,1.961473942,-1.733147446,0.492269665,-1.783588711,4.748219013,3.14031601,,0.051925249,-0.062893212,-0.086005189,0.025861958,-0.000886833,-0.092230596,,-1.053650975,-1.930198908,-0.809293628,-0.09302751,-0.196730316,-0.204355523
0.383949824,,1.961929798,-1.733627144,0.491599292,-1.783516709,4.748207092,3.13962245,,0.053574279,-0.063532375,-0.087066196,0.007190535,-0.000814927,-0.078616522,,-1.080552697,-1.975035071,-0.878789723,0.02745074,-0.204355523,-0.263832122
0.392019968,,1.962337017,-1.734131161,0.490845412,-1.783360783,4.748170853,3.138976097,,0.054239005,-0.063749686,-0.089878492,0.030727554,-0.000814927,-0.091679327,,-1.192643166,-1.979518771,-0.883273363,0.019825535,-0.204355523,-0.253156841
0.399949824,,1.962744713,-1.734682385,0.490115106,-1.783229653,4.74813509,3.138210297,,0.053714894,-0.067047745,-0.092486262,0.012942963,-0.004314321,-0.091895044,,-1.100728989,-1.860702753,-0.764457405,0.024400659,-0.178429812,-0.0259257
0.408089856,,1.963223934,-1.735186402,0.489337265,-1.783073727,4.748111248,3.137432814,,0.054916512,-0.068070397,-0.093266033,0.028498488,-0.004314321,-0.097240008,,-1.197126865,-1.788964868,-0.582870722,0.11285305,-0.147928998,-0.097602636
0.416009984,,1.963643551,-1.735725705,0.488571405,-1.78289396,4.74813509,3.136643171,,0.056194831,-0.068351626,-0.095809884,0.017544907,0,-0.099109545,,-1.11866343,-1.771030307,-0.609772444,0.033550907,-0.158604279,-0.22723113
0.423949824,,1.964122772,-1.736277405,0.487769574,-1.782822434,4.748123169,3.135900974,,0.057102434,-0.069195315,-0.096640788,0.019582225,0,-0.091104083,,-1.134356141,-1.658939838,-0.634432375,0.195205271,-0.19825536,-0.317208558
0.431919872,,1.964566708,-1.736864869,0.486991733,-1.782618825,4.748111248,3.135123491,,0.056859557,-0.07098496,-0.099517003,0.021595575,0,-0.106659606,,-1.037958264,-1.571509242,-0.802568197,-0.009150247,-0.21198073,-0.167754531
0.43988992,,1.96505785,-1.737428967,0.486165941,-1.782630746,4.748111248,3.134286165,,0.058892079,-0.069476545,-0.10209921,0.005896239,0,-0.101122893,,-1.033474684,-1.466144085,-0.892240584,0.190630153,-0.208930641,-0.015250412
0.448009984,,1.965489864,-1.73800451,0.485328168,-1.782426659,4.748075008,3.133412361,,0.05820179,-0.071649686,-0.102815062,0.018503644,0,-0.110135034,,-0.963978529,-1.567025542,-0.932593167,-0.042701155,-0.236381382,-0.173854694
0.456,,1.965969086,-1.738604371,0.484418482,-1.782414738,4.748039722,3.132550716,,0.058061175,-0.071176708,-0.105218299,0.010785803,-0.001941444,-0.09839049,,-0.946044028,-1.694808722,-0.775666475,0.111328006,-0.205880553,-0.254681885
0.464009984,,1.966448307,-1.739156071,0.483568728,-1.782283608,4.748003483,3.131713152,,0.060080916,-0.071956486,-0.106662802,0.030152312,-0.001941444,-0.113250934,,-1.053650975,-1.775514007,-0.802568197,0.11285305,-0.196730316,-0.128103465
0.471919872,,1.966940403,-1.739754979,0.482671052,-1.782139603,4.748051643,3.130839825,,0.061180267,-0.0730047,-0.107889988,0.014381071,-0.001941444,-0.101050988,,-1.028990984,-1.81362474,-0.791359127,-0.035075948,-0.186055019,0.051851399
0.479980032,,1.967503548,-1.740355317,0.481785327,-1.782067601,4.748027802,3.129906654,,0.062663116,-0.073388197,-0.108925425,0.026269423,-0.001941444,-0.121208459,,-1.132114291,-1.802415729,-0.762215614,0.157079235,-0.201305434,-0.231806263
0.487919872,,1.967947006,-1.74089462,0.480887622,-1.781840626,4.748063087,3.128997326,,0.061423149,-0.074845478,-0.112108432,0.018503644,-0.001629855,-0.10510166,,-1.107454419,-1.786723018,-1.091761708,-0.160129324,-0.19978039,-0.288232774
0.495949824,,1.968450069,-1.741470639,0.480013907,-1.781816308,4.748039722,3.128051996,,0.062535286,-0.075765871,-0.112811506,0.007190535,-0.001342233,-0.120920837,,-1.172466874,-1.746370435,-1.163499713,0.073201977,-0.219605923,-0.154029161
0.504029952,,1.968954086,-1.742105786,0.479092985,-1.781576935,4.748015404,3.127106905,,0.05941619,-0.075829782,-0.114690632,0.024160199,-0.001150486,-0.110494561,,-1.154532433,-1.665665269,-0.957253098,-0.224181056,-0.224181056,-0.012200329
0.512,,1.969492912,-1.742693726,0.478159338,-1.781456772,4.74796772,3.126185417,,0.05956959,-0.075433508,-0.115176395,0.018431738,-0.001150486,-0.121951476,,-1.136597991,-1.53564024,-0.885515153,-0.045751236,-0.228756174,-0.215030804
0.52004992,,1.969936848,-1.743305031,0.477261662,-1.7812174,4.747979641,3.125264168,,0.056655023,-0.0743725,-0.114281572,0.027084349,-0.001150486,-0.112555847,,-1.11866343,-1.562541962,-0.849646211,-0.29738304,-0.22723113,-0.277557492
0.527970048,,1.970367908,-1.743892972,0.476364344,-1.781157796,4.747955799,3.124271154,,0.057204701,-0.075216196,-0.11612235,0.012942963,-0.001150486,-0.117685094,,-1.028990984,-1.614103556,-0.802568197,-0.146403953,-0.230281219,-0.021350577
0.535919872,,1.970847607,-1.744468514,0.475454658,-1.780906502,4.747955799,3.123337746,,0.054954864,-0.07343933,-0.11568772,0.02816293,-0.002157161,-0.116702385,,-1.026749253,-1.690325141,-0.97294575,-0.268407255,-0.230281219,-0.135728672
0.54393984,,1.971302986,-1.745056454,0.474556983,-1.780846421,4.74796772,3.122380972,,0.055760201,-0.072736256,-0.118027039,0.013590111,-0.002157161,-0.116103172,,-1.035716534,-1.757579446,-1.035716534,-0.219605923,-0.201305434,-0.286707729
0.551929856,,1.971758366,-1.745679681,0.473623335,-1.780714814,4.74796772,3.121507168,,0.055772986,-0.07144516,-0.118295491,0.020780647,-0.002157161,-0.119722411,,-1.055892825,-1.829317451,-0.961736739,-0.164704442,-0.224181056,-0.292807907
0.560120064,,1.972189903,-1.746231858,0.472701669,-1.780570809,4.747943878,3.120514393,,0.053075738,-0.070742086,-0.119880602,0.009251822,-0.002157161,-0.120824963,,-0.98415482,-1.878637195,-0.997605681,-0.251631796,-0.2409565,-0.003050082
0.568029952,,1.972609997,-1.746819321,0.471780002,-1.780522648,4.747907639,3.119557142,,0.054060042,-0.070524767,-0.119394839,0.010857708,-0.001893508,-0.123749115,,-1.020023823,-1.791206598,-0.889998794,-0.12047825,-0.236381382,-0.21198073
0.575959808,,1.973016739,-1.747371022,0.470822752,-1.780379597,4.747919559,3.118599892,,0.053395316,-0.07098496,-0.121389017,0.020181436,-0.001533981,-0.108001836,,-0.9751876,-1.688083291,-0.919142306,-0.250106752,-0.237906426,-0.2409565
0.58393984,,1.973460674,-1.747910802,0.469913095,-1.780367676,4.747907639,3.117666721,,0.054954864,-0.068683989,-0.120545328,0.006159892,-0.001294296,-0.124755785,,-1.082794547,-1.614103556,-0.995363891,-0.111328006,-0.271457344,-0.144878909
0.59193984,,1.973904133,-1.748510186,0.468919903,-1.780175511,4.747859955,3.116757393,,0.053996123,-0.06964273,-0.121389017,0.026988475,-0.001270328,-0.117061913,,-1.085036278,-1.602894545,-0.856371641,-0.137253702,-0.250106752,-0.051851399
0.599959808,,1.97432375,-1.749049966,0.467962652,-1.780091588,4.747811794,3.11575222,,0.053829942,-0.069476545,-0.120519757,0.01176851,-0.006783071,-0.125786424,,-1.064859986,-1.562541962,-1.013298392,-0.161654368,-0.158604279,-0.245531633
0.608009984,,1.974779129,-1.749625508,0.467029005,-1.780056302,4.747835636,3.114878893,,0.053305835,-0.067444026,-0.122667335,0.005680523,-0.004625911,-0.11298728,,-1.127630711,-1.497529507,-0.764457405,0.050326359,-0.17080462,-0.335509062
0.616069888,,1.975151062,-1.750165764,0.466047406,-1.779816453,4.747859955,3.113897562,,0.05143949,-0.066446938,-0.122296624,0.018503644,-0.002876214,-0.124611974,,-1.037958264,-1.510980368,-0.8339535,-0.160129324,-0.195205271,-0.062526688
0.623959808,,1.975606442,-1.750656907,0.465102166,-1.779768769,4.747835636,3.112916708,,0.05237266,-0.066613115,-0.122053742,0.015819177,-0.002109224,-0.121424168,,-1.096245408,-1.490803957,-0.894482434,0.115903132,-0.221130967,-0.114378087
0.632019968,,1.976026058,-1.751172845,0.464120567,-1.779469315,4.747835636,3.111995459,,0.051401142,-0.064849041,-0.122782379,0.022410501,-0.001677792,-0.115192376,,-1.098487139,-1.708259583,-0.70392853,-0.02745074,-0.215030804,-0.233331308
0.639949824,,1.976457119,-1.751725022,0.463186949,-1.779349629,4.747823715,3.111026287,,0.053101301,-0.064682856,-0.121389017,0.01795237,0,-0.12676914,,-1.109696269,-1.712743282,-0.733072042,0.140303791,-0.2409565,-0.19978039
0.647949824,,1.976864815,-1.752251927,0.462181747,-1.779157941,4.747799873,3.110069036,,0.052474927,-0.063941434,-0.123996779,0.022698123,0,-0.116151109,,-1.134356141,-1.726194143,-0.784633696,0.024400659,-0.260782033,0.061001647
0.656059904,,1.977296352,-1.752731625,0.461200535,-1.779074494,4.747764111,3.109135389,,0.050161172,-0.063800819,-0.123178661,0.009203885,-0.004530037,-0.133240625,,-1.107454419,-1.68584156,-0.802568197,0.167754531,-0.237906426,-0.239431471
0.66404992,,1.977680206,-1.753295247,0.460218966,-1.778919045,4.747716427,3.108166218,,0.050902598,-0.063200012,-0.123626068,0.021595575,-0.004530037,-0.114689037,,-1.076069117,-1.67911613,-0.889998794,0.028975783,-0.216555849,-0.276032448
0.671949824,,1.978075504,-1.75375158,0.459189832,-1.778847043,4.747740269,3.107184887,,0.049879942,-0.063059397,-0.122922994,0.008628642,-0.003499394,-0.129046142,,-1.042441964,-1.67463243,-0.854129791,0.051851399,-0.207405597,-0.068626851
0.68004992,,1.978459358,-1.754290883,0.458196253,-1.77872688,4.747740269,3.106168032,,0.050480753,-0.06199839,-0.122194357,0.023081617,-0.002444782,-0.121424168,,-1.015540123,-1.723952293,-0.735313833,0.152504116,-0.2257061,-0.080827184
0.687949824,,1.978878498,-1.754782502,0.457143128,-1.778643433,4.747740269,3.105186939,,0.049982209,-0.063851953,-0.121184483,0.016178705,-0.001869539,-0.121496074,,-0.957253098,-1.564783812,-0.764457405,-0.100652717,-0.263832122,-0.205880553
0.696009984,,1.979298592,-1.755286519,0.456173539,-1.778571908,4.747728348,3.104217768,,0.050199524,-0.060911823,-0.120660372,0.005392902,-0.001510012,-0.127775818,,-1.037958264,-1.575992823,-0.802568197,0.103702798,-0.251631796,-0.210455686
0.70404992,,1.979646206,-1.755790059,0.455156386,-1.778404061,4.74775219,3.103200912,,0.049560364,-0.062202923,-0.122334972,0.021715416,-0.001270328,-0.118092559,,-1.049167395,-1.508738518,-0.959494889,-0.17080462,-0.265357167,0.033550907
0.712069888,,1.980077744,-1.756257836,0.454162806,-1.778332059,4.747680187,3.102267742,,0.049253568,-0.061410364,-0.120123483,0.007621967,-0.001174454,-0.135158092,,-0.999847531,-1.562541962,-1.022265553,-0.01372537,-0.285182714,-0.250106752
0.719970048,,1.980461121,-1.756761376,0.453157634,-1.778188054,4.747584343,3.101238966,,0.048524927,-0.060835123,-0.120826557,0.037055224,-0.008772453,-0.114593163,,-1.049167395,-1.636521697,-0.804809988,-0.07930214,-0.178429812,-0.303483188
0.727990016,,1.980856419,-1.757241551,0.452176422,-1.778045003,4.747656345,3.100257635,,0.049573146,-0.059556805,-0.12128675,0.014476945,-0.005177185,-0.12863867,,-0.993122101,-1.688083291,-0.789117336,-0.111328006,-0.166229486,-0.097602636
0.735959808,,1.981264114,-1.757708851,0.451159269,-1.777900998,4.747656345,3.099192619,,0.047860201,-0.059224442,-0.119075261,0.021643512,0,-0.125067383,,-1.165741444,-1.737403154,-0.645641446,-0.059476607,-0.21350576,-0.166229486
0.743919872,,1.981635571,-1.758212868,0.45018968,-1.77772123,4.747620583,3.098187685,,0.046300653,-0.058073957,-0.120941602,0.01176851,0,-0.117493346,,-1.094003558,-1.735161424,-0.858613431,-0.2257061,-0.2699323,-0.268407255
0.751949824,,1.982019424,-1.758680646,0.44918412,-1.777601544,4.747536659,3.097254515,,0.047246609,-0.057664897,-0.120685942,0.012871058,-0.004074637,-0.124707848,,-1.25541389,-1.806899309,-0.997605681,-0.097602636,-0.260782033,-0.236381382
0.759980032,,1.98237896,-1.759100739,0.448226869,-1.777469937,4.74754858,3.096237421,,0.044255346,-0.05696182,-0.121542417,0.014381071,-0.004074637,-0.118380181,,-1.174708724,-1.777755737,-0.995363891,-0.253156841,-0.233331308,-0.03965107
0.767959808,,1.982762814,-1.759591881,0.447281241,-1.777409856,4.747572422,3.095244169,,0.044856157,-0.05703852,-0.121043868,0.005920207,-0.003906858,-0.129789159,,-1.159016013,-1.750854015,-0.912416875,-0.071676932,-0.207405597,-0.288232774
0.775949824,,1.983122349,-1.76007158,0.446311653,-1.777314011,4.747572422,3.094335079,,0.044242565,-0.05639936,-0.121759728,0.026125612,-0.00263653,-0.112627752,,-1.172466874,-1.67911613,-0.894482434,-0.22723113,-0.242481545,-0.35533461
0.783949824,,1.983421326,-1.760515515,0.445342422,-1.777230088,4.747524738,3.093294144,,0.042593535,-0.05655276,-0.122194357,0.007190535,-0.001989381,-0.129094079,,-1.11417985,-1.634279847,-0.858613431,-0.118953213,-0.260782033,-0.141828835
0.792,,1.983817101,-1.76095945,0.44437319,-1.777098958,4.747512817,3.092312813,,0.042823631,-0.056182049,-0.122015394,0.030248186,-0.001581918,-0.121831633,,-1.096245408,-1.546849251,-1.026749253,-0.042701155,-0.262307078,-0.100652717
0.79993984,,1.98410511,-1.761390988,0.443451166,-1.776966874,4.747512817,3.091320038,,0.042018291,-0.054699201,-0.121861994,0.01176851,-0.001342233,-0.121927507,,-1.031232834,-1.502013087,-1.129872561,-0.154029161,-0.280607581,-0.234856337
0.80804992,,1.984512806,-1.761846368,0.442493916,-1.776943032,4.747441292,3.090350866,,0.040548228,-0.055415057,-0.124559246,0.005536712,-0.001342233,-0.127008826,,-0.990880251,-1.495287657,-1.051409125,0.061001647,-0.298908085,-0.239431471
0.815970048,,1.984728336,-1.762242619,0.441536307,-1.776715581,4.747428894,3.089369535,,0.037991591,-0.053663764,-0.124559246,0.020780647,-0.007142598,-0.120633215,,-0.892240584,-1.416824222,-1.062618256,-0.118953213,-0.186055019,0.051851399
0.824009984,,1.985099792,-1.762710396,0.440519154,-1.776715581,4.747416973,3.088412285,,0.03992185,-0.052589975,-0.124712639,0.006471482,-0.005512744,-0.134702697,,-0.943802238,-1.39664793,-0.901207864,0.048801318,-0.175379738,-0.2409565
0.831949824,,1.985363483,-1.763118092,0.439549536,-1.776547734,4.747453213,3.08744359,,0.038042724,-0.052142564,-0.126936913,0.031398669,-0.004458132,-0.117733032,,-0.907933295,-1.40113163,-0.943802238,-0.024400659,-0.19978039,-0.285182714
0.839919872,,1.985723019,-1.76354963,0.438544363,-1.776428048,4.747428894,3.086390495,,0.040305346,-0.051030427,-0.126668468,0.013110743,-0.002876214,-0.131634727,,-0.887757003,-1.457176805,-0.914658725,0.065576769,-0.222656012,-0.086927347
0.847929856,,1.986046791,-1.763921563,0.437562793,-1.776272122,4.747428894,3.08537364,,0.039960202,-0.050020557,-0.12797235,0.024064325,-0.002109224,-0.124276415,,-0.97742939,-1.582718253,-0.865338862,0.158604279,-0.230281219,-0.086927347
0.855990016,,1.986334801,-1.764353577,0.436521649,-1.776116673,4.747416973,3.084356785,,0.03906538,-0.050825898,-0.128854394,0.013494237,-0.001677792,-0.124108635,,-0.948285878,-1.645488977,-0.910175085,0.03965107,-0.245531633,-0.19978039
0.864,,1.986646175,-1.764713113,0.435504138,-1.775936906,4.74738121,3.083375692,,0.03842622,-0.050058909,-0.129173964,0.009227853,-0.00139017,-0.131083459,,-1.033474684,-1.712743282,-0.789117336,0.186055019,-0.262307078,-0.186055019
0.871929856,,1.986909866,-1.765120808,0.434462994,-1.775793378,4.747309208,3.082382917,,0.038093857,-0.048576061,-0.127179787,0.016178705,-0.000335558,-0.121831633,,-1.011056542,-1.681357861,-0.851888001,0.016775453,-0.272982359,0.018300494
0.880059904,,1.987233639,-1.765504662,0.433445454,-1.775805775,4.747261524,3.081353664,,0.037684795,-0.048691109,-0.126630113,0.007550062,-0.006998788,-0.138273999,,-1.024507403,-1.694808722,-0.887757003,0.192155182,-0.181479901,-0.265357167
0.888,,1.987545013,-1.765876595,0.432439893,-1.775685612,4.747285366,3.080372334,,0.039167643,-0.04999499,-0.127230927,0.023608925,-0.00479369,-0.121663854,,-1.069343686,-1.605136395,-0.661334097,0.138778746,-0.172329649,-0.289757818
0.896,,1.987892628,-1.766260449,0.431470305,-1.77561361,4.747273445,3.079319716,,0.037007287,-0.04812865,-0.125517979,0.008628642,-0.002996056,-0.133528233,,-1.028990984,-1.508738518,-0.894482434,0.065576769,-0.189105108,-0.02745074
0.904079872,,1.988144875,-1.766703908,0.43041718,-1.775530163,4.747249126,3.078278542,,0.037045635,-0.048665542,-0.127141446,0.004817659,-0.002181129,-0.134199351,,-1.129872561,-1.569267392,-0.824986279,0.204355523,-0.224181056,-0.189105108
0.912079872,,1.988420486,-1.76706392,0.429364085,-1.775374715,4.747249126,3.077261686,,0.034489002,-0.047681239,-0.126604557,0.016178705,-0.001725729,-0.116966039,,-1.033474684,-1.515463948,-0.937076807,-0.036600988,-0.234856337,-0.237906426
0.919919872,,1.988719463,-1.767411534,0.428358525,-1.775386159,4.747237206,3.076304436,,0.037518613,-0.047438357,-0.125696942,0.009251822,-0.001414139,-0.131778538,,-1.024507403,-1.466144085,-0.925867736,0.102177761,-0.233331308,-0.128103465
0.92793984,,1.988995552,-1.767855469,0.427329391,-1.775326554,4.747225285,3.075287342,,0.03640648,-0.045981076,-0.127857298,0.019006981,-0.001318265,-0.126409605,,-1.053650975,-1.412340641,-0.690477669,0.231806263,-0.259256989,-0.10675288
0.935959808,,1.989259243,-1.76819164,0.426276267,-1.775158707,4.74716568,3.074210644,,0.033824276,-0.045763761,-0.126246616,0.010785803,-0.007046725,-0.122934185,,-0.970703959,-1.354053617,-0.70392853,-0.050326359,-0.193680227,-0.233331308
0.943919872,,1.989558697,-1.768563096,0.425235152,-1.775134865,4.747189522,3.073253393,,0.036061332,-0.044063598,-0.124929957,0.007454188,-0.006135923,-0.127775818,,-0.997605681,-1.320426464,-0.683752239,0.114378087,-0.147928998,-0.268407255
0.951980032,,1.989822865,-1.76891071,0.424205631,-1.77497894,4.74716568,3.072200775,,0.034233339,-0.042593535,-0.126706809,0.023513051,-0.005392902,-0.126960889,,-0.907933295,-1.457176805,-0.898966014,-0.045751236,-0.155554205,0.001525041
0.960059904,,1.990134716,-1.769258801,0.423176467,-1.774895493,4.747153282,3.07114768,,0.035933502,-0.042529617,-0.124712639,0.006831008,-0.003235741,-0.131970286,,-0.896724224,-1.506496668,-0.943802238,0.016775453,-0.181479901,-0.201305434
0.967990016,,1.990398407,-1.769606892,0.422134966,-1.774787728,4.74716568,3.070130825,,0.034041591,-0.043386091,-0.125824779,0.026557043,-0.002300971,-0.119962096,,-0.901207864,-1.605136395,-0.775666475,-0.004575124,-0.192155182,-0.265357167
0.975990016,,1.990637779,-1.769918744,0.421117812,-1.774656121,4.74716568,3.069101572,,0.03480858,-0.042235605,-0.123920083,0.009946907,-0.001797634,-0.131562829,,-0.889998794,-1.701534152,-0.798084557,-0.128103465,-0.215030804,0.001525041
0.983990016,,1.990937233,-1.770277802,0.420112252,-1.774584119,4.74712944,3.068097115,,0.033837061,-0.041583665,-0.123140313,0.012847089,-0.001462076,-0.126912951,,-0.905691445,-1.710501432,-0.724104822,0.007625206,-0.231806263,-0.144878909
0.99188992,,1.991213322,-1.770589654,0.419083118,-1.774404828,4.747081757,3.066996098,,0.034310039,-0.040893372,-0.12417575,0.017089505,-0.000335558,-0.119482726,,-0.916900516,-1.735161424,-0.937076807,-0.236381382,-0.245531633,-0.224181056
0.999959808,,1.991452694,-1.770901982,0.418101519,-1.774380986,4.747034073,3.065991402,,0.033185117,-0.040471528,-0.121542417,0.007621967,-0.007286409,-0.127128661,,-0.963978529,-1.721710444,-1.147807002,-0.115903132,-0.169279575,-0.215030804
1.007970048,,1.991704941,-1.771225754,0.417156279,-1.774201218,4.747010231,3.064974308,,0.031689487,-0.040088031,-0.122744031,0.029888658,-0.005177185,-0.117685094,,-0.997605681,-1.699292421,-1.091761708,-0.143353865,-0.144878909,0.015250412
1.016,,1.991956711,-1.771573846,0.41618669,-1.774093453,4.747010231,3.063969374,,0.031561654,-0.038260039,-0.125275105,0.010785803,-0.003139867,-0.133719981,,-0.98639667,-1.714985013,-0.948285878,-0.28365767,-0.164704442,-0.195205271
1.023919872,,1.992183685,-1.771873776,0.415157527,-1.773997609,4.747010231,3.062976122,,0.032200813,-0.039448872,-0.124035135,0.005320996,-0.002253034,-0.122670531,,-1.129872561,-1.67687428,-0.963978529,-0.105227843,-0.192155182,-0.2699323
1.032,,1.992483616,-1.772172753,0.414211512,-1.77384216,4.747010231,3.061935186,,0.031305991,-0.038170557,-0.127256498,0.014381071,-0.001773665,-0.12547484,,-1.109696269,-1.618587255,-0.883273363,-0.329408884,-0.204355523,0.022875618
1.039929856,,1.992711544,-1.772460763,0.413229942,-1.77384216,4.746997833,3.06090641,,0.031561654,-0.039052594,-0.125633031,0.005464807,-0.001653823,-0.130867735,,-1.156774282,-1.53564024,-1.042441964,-0.147928998,-0.196730316,-0.201305434
1.047929856,,1.992927074,-1.772772614,0.412284702,-1.773758237,4.746985912,3.059853554,,0.030487869,-0.037020072,-0.126821861,0.017832527,-0.001653823,-0.118476056,,-1.206094027,-1.493045807,-1.053650975,-0.2257061,-0.218080893,-0.266882211
1.055980032,,1.9931674,-1.773073022,0.411291122,-1.773734395,4.746866226,3.058896303,,0.028404212,-0.035626706,-0.128611505,0.007621967,-0.003427488,-0.133336484,,-1.192643166,-1.502013087,-0.990880251,-0.233331308,-0.207405597,-0.164704442
1.063970048,,1.993382931,-1.773384873,0.410273969,-1.773650471,4.746890068,3.057819366,,0.029465215,-0.036265865,-0.129429638,0.004434163,-0.003427488,-0.128806457,,-1.284557462,-1.428033352,-0.98415482,-0.115903132,-0.163179412,-0.088452391
1.071970048,,1.993610859,-1.773672406,0.409304351,-1.773494546,4.746866226,3.056802511,,0.027419908,-0.035511658,-0.129378498,0.019702066,-0.003427488,-0.128063425,,-1.25765574,-1.318184614,-0.968462169,-0.262307078,-0.163179412,-0.210455686
1.079949824,,1.993862152,-1.773948018,0.408251256,-1.773482625,4.746878147,3.055845499,,0.026627351,-0.035690621,-0.130030438,0.005872271,-0.003139867,-0.128159299,,-1.248688459,-1.26438117,-1.049167395,-0.172329649,-0.149454042,-0.31110841
1.087949824,,1.994078159,-1.774212186,0.407269657,-1.773470704,4.746890068,3.05475688,,0.025438515,-0.034003243,-0.130784646,0.003930826,-0.003139867,-0.123533398,,-1.250930309,-1.293524742,-0.966220319,-0.09302751,-0.158604279,0.007625206
1.095990016,,1.994257927,-1.774463956,0.406228542,-1.773339097,4.746854305,3.053763628,,0.02582201,-0.031753402,-0.130477846,0.016034894,-0.002924151,-0.138441771,,-1.24644661,-1.320426464,-0.999847531,-0.208930641,-0.173854694,-0.257731974
1.103970048,,1.994437695,-1.774727647,0.405211359,-1.773303334,4.746866226,3.052806377,,0.024428645,-0.032712139,-0.130580112,0.006159892,-0.002157161,-0.116798259,,-1.197126865,-1.320426464,-0.98191303,-0.141828835,-0.189105108,-0.346184343
1.11204992,,1.994629383,-1.775039498,0.404193848,-1.773290936,4.746842384,3.051777363,,0.023572171,-0.03065405,-0.13225472,0.003691141,-0.00170176,-0.132976964,,-1.230754018,-1.333877325,-0.860855222,-0.048801318,-0.18452999,-0.091502473
1.119919872,,1.994821072,-1.775255505,0.403116763,-1.773123566,4.746806622,3.050760508,,0.020619258,-0.031280424,-0.130912483,0.020636836,-0.001462076,-0.129789159,,-1.141081572,-1.291282892,-0.916900516,-0.163179412,-0.204355523,-0.125053376
1.128009984,,1.995001316,-1.775459592,0.402075261,-1.773123566,4.746686935,3.049683809,,0.023955667,-0.028915539,-0.13045229,0.006471482,-0.012175973,-0.121711791,,-1.188159585,-1.358537197,-0.782391906,-0.080827184,-0.062526688,-0.237906426
1.135949824,,1.995193005,-1.775735203,0.401046097,-1.773039643,4.74678278,3.048726559,,0.022600651,-0.028902756,-0.130196616,0.015172029,-0.006878946,-0.133336484,,-1.224028587,-1.40785706,-0.641157806,0.019825535,-0.062526688,-0.154029161
1.144009984,,1.995396614,-1.775986973,0.400016963,-1.772859875,4.746806622,3.047685385,,0.021424599,-0.027790619,-0.130362809,0.01778459,-0.00479369,-0.12187957,,-1.179192305,-1.439242363,-0.759973764,-0.097602636,-0.070151895,0.056426525
1.151990016,,1.99555254,-1.77615482,0.398975462,-1.772836034,4.746758938,3.046645164,,0.020555343,-0.026716832,-0.130362809,0.00680704,-0.002996056,-0.136404455,,-1.181434155,-1.472869515,-0.8339535,-0.0259257,-0.09912768,-0.222656012
1.160009984,,1.995696068,-1.776418511,0.397886008,-1.772764031,4.746734619,3.045627832,,0.020759873,-0.027023628,-0.12921232,0.021212079,0.001941444,-0.125954211,,-1.206094027,-1.490803957,-0.903449655,0.103702798,-0.189105108,-0.280607581
1.16793984,,1.995851994,-1.776610676,0.396808922,-1.77258474,4.746675015,3.044599056,,0.019545473,-0.025042238,-0.129007787,0.019126823,-0.008628642,-0.129645348,,-1.069343686,-1.499771237,-0.827228069,-0.045751236,-0.057951566,0.019825535
1.175970048,,1.996031761,-1.776826684,0.39575544,-1.772572819,4.746698856,3.043545961,,0.019200327,-0.026716832,-0.128202453,0.006159892,-0.008101337,-0.134031579,,-1.165741444,-1.493045807,-0.764457405,0.059476607,-0.016775453,-0.17080462
1.18393984,,1.996235847,-1.777042691,0.394786209,-1.772488896,4.746698856,3.042517185,,0.020644825,-0.024671525,-0.126438364,0.022889871,-0.002876214,-0.121759728,,-1.165741444,-1.553574681,-0.744281113,0.123528339,-0.219605923,-0.242481545
1.191970048,,1.996355534,-1.777210538,0.393685162,-1.772357289,4.746603012,3.04146409,,0.01574887,-0.025400165,-0.126988038,0.008628642,-0.01330249,-0.132713318,,-1.046925545,-1.573750973,-0.921384156,0.007625206,0.089977428,-0.033550907
1.19993984,,1.996487141,-1.777426068,0.392655641,-1.77233297,4.74674654,3.040471315,,0.018318288,-0.023610521,-0.125517979,0.004745753,0.008341021,-0.126577392,,-1.136597991,-1.587201834,-1.033474684,0.132678583,-0.295857996,-0.117428169
1.208009984,,1.996631622,-1.777618233,0.391590565,-1.772189442,4.746519566,3.039406538,,0.014815698,-0.023278158,-0.126361668,0.019318571,-0.014381071,-0.12434832,,-1.076069117,-1.567025542,-0.941560447,0.035075948,0.208930641,-0.221130967
1.21593984,,1.996787071,-1.777774159,0.390585005,-1.772201363,4.74674654,3.038425684,,0.015966184,-0.022498386,-0.127448246,0.006471482,0.011624699,-0.131203294,,-1.006572962,-1.522189379,-0.728588402,0.03965107,-0.401085824,-0.221130967
1.223949824,,1.996859074,-1.778002087,0.389555842,-1.772141282,4.746554852,3.037336826,,0.015263109,-0.022626217,-0.124265231,0.003834952,-0.014261228,-0.127560094,,-1.051409125,-1.508738518,-0.768941045,0.147928998,0.190630153,-0.047276277
1.231990016,,1.997003078,-1.778158013,0.388514727,-1.772022072,4.746650696,3.036295891,,0.015480423,-0.021616347,-0.12358772,0.014381071,-0.041920822,-0.131395042,,-1.028990984,-1.506496668,-0.683752239,0.022875618,-0.362959802,-0.266882211
1.239909888,,1.997146606,-1.77832586,0.38750881,-1.772045914,4.746566772,3.035314798,,0.015646605,-0.021808093,-0.125939831,0.005177185,0.02291384,-0.120992742,,-1.058134556,-1.490803957,-0.997605681,0.059476607,0.135728672,-0.324833781
1.248019968,,1.997290611,-1.778529946,0.386539578,-1.771985833,4.746542931,3.034297943,,0.015288675,-0.021130586,-0.124456979,0.003906858,-0.037822217,-0.125067383,,-1.132114291,-1.486320376,-1.006572962,0.118953213,-0.138778746,-0.041176111
1.25604992,,1.997374535,-1.778661553,0.385486454,-1.771938149,4.746591091,3.033304691,,0.011607122,-0.01913641,-0.12554355,0.006998788,0.024879253,-0.129980907,,-1.040200114,-1.425791502,-0.923625946,0.10675288,-0.050326359,-0.215030804
1.264069888,,1.997506619,-1.778817956,0.384528846,-1.771866147,4.746459484,3.032251596,,0.014994662,-0.018944664,-0.123664424,0.011504856,-0.025909895,-0.112915374,,-1.082794547,-1.432516932,-0.878789723,0.007625206,0.036600988,-0.286707729
1.271899904,,1.997578144,-1.778985325,0.383547276,-1.771866147,4.746591091,3.031270742,,0.011901135,-0.021002755,-0.124712639,0.00479369,0.022506375,-0.130316466,,-1.100728989,-1.338360906,-0.905691445,0.054901481,-0.041176111,-0.192155182
1.279990016,,1.997673988,-1.779105488,0.382554084,-1.771842305,4.746435642,3.030277967,,0.015211976,-0.016963271,-0.125633031,0.002996056,-0.033316147,-0.124659911,,-1.080552697,-1.367504478,-0.990880251,0.103702798,0.010675289,-0.048801318
1.287869952,,1.997817993,-1.779285256,0.381560504,-1.77173454,4.746626854,3.02923727,,0.010763432,-0.018292721,-0.124929957,0.012415658,0.034922034,-0.126505479,,-1.105212569,-1.333877325,-1.105212569,0.065576769,-0.102177761,-0.2257061
1.295980032,,1.997889996,-1.779440705,0.380567312,-1.771662537,4.7464118,3.028244019,,0.013217801,-0.016937705,-0.125364587,0.01176851,-0.032381378,-0.126673266,,-1.042441964,-1.365262628,-1.044683695,-0.057951566,0.12047825,-0.271457344
1.303929856,,1.998033524,-1.779585187,0.379585743,-1.771650616,4.746603012,3.027226925,,0.011555989,-0.016375246,-0.126630113,0.00479369,0.018503644,-0.123533398,,-1.192643166,-1.378713489,-1.053650975,0.015250412,-0.2257061,0.038126029
1.311909888,,1.998105526,-1.779681031,0.378639728,-1.771662537,4.746351719,3.026257753,,0.009817477,-0.01643916,-0.127614424,0.002972088,-0.025909895,-0.135373816,,-1.069343686,-1.423549652,-0.923625946,0.074727021,0.205880553,-0.231806263
1.319990016,,1.998165607,-1.779812638,0.377598584,-1.771495167,4.746542931,3.025204897,,0.011926701,-0.013984792,-0.128368631,0.018911108,0.021595575,-0.119314946,,-1.165741444,-1.363020778,-0.98191303,-0.061001647,-0.329408884,-0.272982359
1.32793984,,1.998249531,-1.779945199,0.376605034,-1.771495167,4.746208191,3.024223804,,0.008027833,-0.016119583,-0.129007787,0.007621967,-0.018503644,-0.136620164,,-1.055892825,-1.363020778,-0.943802238,-0.105227843,0.300433099,-0.108277924
1.33593984,,1.998357296,-1.780088727,0.375587881,-1.771458928,4.746507645,3.023183346,,0.012476377,-0.012028966,-0.128611505,0.003906858,0.021595575,-0.125426903,,-1.165741444,-1.376471639,-0.818260849,-0.018300494,-0.370584995,-0.064051732
1.34393984,,1.998417377,-1.780160729,0.374630243,-1.771375004,4.746208191,3.022166252,,0.009421199,-0.015403724,-0.129058912,0.003115899,-0.016178705,-0.124707848,,-1.176950574,-1.39888978,-0.97294575,0.030500824,0.292807907,-0.210455686
1.35188992,,1.99848938,-1.78025705,0.373613089,-1.771267239,4.746471405,3.021197081,,0.00640437,-0.011837219,-0.13045229,0.016178705,0.009851033,-0.131155357,,-1.053650975,-1.349569917,-0.822744489,-0.193680227,-0.362959802,-0.221130967
1.359970048,,1.998573303,-1.780364815,0.372523636,-1.771219556,4.746208191,3.020168304,,0.012259063,-0.012783173,-0.131244838,0.008412926,-0.015243934,-0.122382909,,-1.210577726,-1.412340641,-0.869822502,-0.117428169,0.277557492,0.007625206
1.367879936,,1.998633385,-1.780436818,0.371482134,-1.771267239,4.746327877,3.019139051,,0.006851781,-0.011990617,-0.129544675,0.004625911,-0.039715722,-0.137483031,,-1.284557462,-1.280073881,-0.863097072,-0.080827184,-0.31110841,-0.266882211
1.375959808,,1.998621464,-1.780520741,0.370500922,-1.77114803,4.746232033,3.018158197,,0.002837864,-0.0093445,-0.128777683,0.000886833,0.04055462,-0.120010033,,-1.015540123,-1.412340641,-0.728588402,-0.02745074,0.205880553,-0.323308736
1.38388992,,1.998681068,-1.780604664,0.369483411,-1.771076028,4.746279716,3.017141342,,0.009970875,-0.01172217,-0.128049046,0.014381071,-0.042232409,-0.132473633,,-1.161257863,-1.363020778,-0.771182835,-0.286707729,-0.094552554,-0.062526688
1.392029952,,1.998764992,-1.780700986,0.3685022,-1.771099869,4.746351719,3.016112328,,0.004422978,-0.010047575,-0.127563283,0.005177185,0.0385173,-0.13336046,,-1.219544888,-1.291282892,-0.876547933,-0.166229486,-0.030500824,-0.189105108
1.399949824,,1.998788834,-1.780748669,0.367460698,-1.771015946,4.746160507,3.015083551,,0.007465373,-0.007951134,-0.127882868,0.01347027,-0.041968759,-0.115120471,,-1.089519978,-1.295766473,-0.898966014,-0.131153539,0.086927347,-0.244006589
1.408009984,,1.998836994,-1.780820672,0.366383612,-1.771004025,4.746315479,3.01411438,,0.008488027,-0.008424112,-0.12740989,0.01176851,0.018503644,-0.130652025,,-1.25317204,-1.383197069,-0.950527668,-0.288232774,-0.17080462,-0.137253702
1.415949824,,1.998872757,-1.780880753,0.365390033,-1.770932023,4.746076584,3.013085604,,0.003272492,-0.006276538,-0.126208276,0.003283678,-0.032381378,-0.125331029,,-1.226270318,-1.150048852,-0.737555683,-0.102177761,0.166229486,-0.074727021
1.423909888,,1.998884678,-1.780904595,0.36433655,-1.77086002,4.746291637,3.012032509,,0.002249839,-0.00269725,-0.126821861,0.01052215,0.02274606,-0.124108635,,-1.080552697,-1.358537197,-0.706170321,-0.338559151,-0.251631796,-0.231806263
1.432,,1.998920918,-1.780940358,0.363355339,-1.770980183,4.746016502,3.011099577,,0.006851781,-0.006532202,-0.12417575,0.007190535,-0.021595575,-0.12204735,,-1.345086336,-1.342844486,-0.643399656,-0.291282862,0.274507403,-0.340084195
1.43988992,,1.998932838,-1.780988518,0.362302244,-1.770908181,4.746279716,3.010094643,,0.002786732,-0.006608901,-0.127333194,0.003810984,0.011217235,-0.128854394,,-1.212819457,-1.165741444,-0.896724224,-0.21198073,-0.329408884,-0.010675289
1.448,,1.998968601,-1.780916516,0.361272722,-1.77086002,4.745968342,3.009065628,,0.002249839,0,-0.123766683,-0.002564624,-0.01361408,-0.13041234,,-1.134356141,-1.25989747,-0.97294575,-0.12657842,0.289757818,-0.175379738
1.456019968,,1.998968601,-1.780976597,0.360231578,-1.770776097,4.74619627,3.008084297,,0.002249839,-0.005458415,-0.124111831,0.00711863,-0.004625911,-0.117972717,,-1.179192305,-1.363020778,-0.798084557,-0.208930641,-0.350759476,-0.253156841
1.464059904,,1.999016762,-1.781036202,0.359225661,-1.770776097,4.746016502,3.007079124,,0.00241602,-0.006519419,-0.122922994,0.004961469,0.003571299,-0.129549474,,-1.190401435,-1.11417985,-0.782391906,-0.231806263,0.265357167,-0.067101814
1.472009984,,1.999040604,-1.781000439,0.358184516,-1.770776097,4.746124268,3.006062508,,0.00241602,0.000920388,-0.121798076,0.003067962,-0.038900796,-0.119482726,,-1.237479448,-1.199368596,-0.685994029,-0.205880553,-0.205880553,-0.047276277
1.47993984,,1.999028683,-1.781072442,0.357226908,-1.770764176,4.746100426,3.005010128,,0.00161068,-0.001495631,-0.121184483,0.002229066,0.035689022,-0.122886248,,-1.273348451,-1.26662302,-0.883273363,-0.169279575,0.155554205,-0.202830479
1.487929856,,1.999004841,-1.781072442,0.356221735,-1.770764176,4.746064186,3.004064798,,0.00161068,-0.001495631,-0.120583676,0.001749697,-0.040362872,-0.122934185,,-1.295766473,-1.206094027,-1.033474684,-0.161654368,-0.108277924,-0.280607581
1.49593984,,1.999052525,-1.781060521,0.355240136,-1.77068073,4.746076584,3.002999783,,0.00161068,-0.001495631,-0.11839775,0.001629855,0.032309473,-0.121112585,,-1.273348451,-1.226270318,-1.12314713,-0.150979072,0.03965107,0.030500824
1.503980032,,1.99899292,-1.781048123,0.354282528,-1.770668809,4.745909214,3.002018452,,0,-0.001342233,-0.120622024,0.005752428,-0.04146542,-0.129094079,,-1.302491903,-1.125388861,-0.921384156,-0.187580064,0.103702798,-0.186055019
1.512029952,,1.999040604,-1.781060521,0.353312939,-1.770716492,4.746136189,3.001013756,,0,-0.001035437,-0.120762639,0.005752428,0.028714204,-0.114353478,,-1.300250173,-1.089519978,-0.950527668,-0.216555849,-0.109802961,-0.250106752
1.519909888,,1.999004841,-1.781036202,0.352403253,-1.77068073,4.745909214,3.000056744,,0,-0.000664725,-0.117911994,0.003499394,-0.0376065,-0.127560094,,-1.387680769,-1.013298392,-0.863097072,-0.19978039,0.222656012,-0.077777103
1.527980032,,1.999028683,-1.781060521,0.351421684,-1.770668809,4.746124268,2.999063492,,0,-0.000664725,-0.123076394,0.002444782,0.018503644,-0.11710985,,-1.385438919,-1.004331112,-0.963978529,-0.192155182,-0.250106752,-0.05337644
1.535909888,,1.999040604,-1.781024281,0.350464433,-1.77069265,4.745837212,2.998046875,,0,-0.000664725,-0.122296624,0.001869539,-0.018503644,-0.127991527,,-1.437000513,-0.858613431,-1.044683695,-0.160129324,0.291282862,-0.245531633
1.544009984,,1.998980522,-1.781000439,0.349506438,-1.770668809,4.746100426,2.997089624,,0,0.001649029,-0.123140313,0.001510012,0.021595575,-0.121160522,,-1.459418654,-0.851888001,-0.988638461,-0.146403953,-0.323308736,-0.295857996
1.551929856,,1.999016762,-1.781024281,0.348537236,-1.770621125,4.745765209,2.996084452,,0,0.001649029,-0.12343432,0.001318265,-0.01392567,-0.124755785,,-1.614103556,-0.786875486,-1.011056542,-0.158604279,0.315683514,-0.03965107
1.559990016,,1.99899292,-1.780988518,0.347567618,-1.770549122,4.74598074,2.995103598,,-0.000933172,0.001649029,-0.124405846,0.007166567,-0.003834952,-0.127368346,,-1.607378125,-0.793600917,-0.715137541,-0.163179412,-0.321783692,-0.189105108
1.567909888,,1.999004841,-1.780976597,0.346562058,-1.770524804,4.745825291,2.994266272,,-0.000933172,0.001636246,-0.124405846,0.007166567,0.00340352,-0.111405358,,-1.681357861,-0.672543168,-0.98639667,-0.242481545,0.25620693,-0.29738304
1.575849984,,1.998932838,-1.780892674,0.345616817,-1.770549122,4.745896816,2.993284941,,-0.002352104,0.00479369,-0.123511024,0.003810984,-0.034394726,-0.128159299,,-1.712743282,-0.654608667,-0.98639667,-0.242481545,-0.21198073,-0.166229486
1.58393984,,1.998932838,-1.780904595,0.344682783,-1.770524804,4.745837212,2.992292166,,-0.004704208,0.00588026,-0.12128675,0.002588593,0.026868634,-0.118523993,,-1.690325141,-0.674784958,-0.952769458,-0.239431471,0.166229486,-0.051851399
1.591899904,,1.998908997,-1.780892674,0.343689233,-1.770549122,4.745837212,2.991322994,,-0.002888997,0.003553722,-0.124904387,0.001941444,-0.044629257,-0.12569055,,-1.701534152,-0.495440125,-1.006572962,-0.218080893,-0.152504116,-0.272982359
1.599980032,,1.998872757,-1.78079683,0.342648089,-1.770524804,4.745837212,2.990425587,,-0.001904693,0.009255018,-0.123370409,0.001557949,0.029768815,-0.11710985,,-1.916748047,-0.582870722,-0.946044028,-0.195205271,-0.019825535,-0.346184343
1.607949824,,1.998836994,-1.78076059,0.341690481,-1.770489041,4.745681286,2.989432812,,-0.006187056,0.005905826,-0.122258268,0.001318265,-0.036887445,-0.126409605,,-1.869670033,-0.502165556,-0.869822502,-0.21350576,0.091502473,-0.061001647
1.615990016,,1.998764992,-1.780700986,0.340697289,-1.770537202,4.745849133,2.988475561,,-0.007836086,0.009600163,-0.125083357,0.001126517,0.025909895,-0.122598626,,-1.948133349,-0.403525889,-0.901207864,-0.196730316,-0.163179412,-0.141828835
1.623909888,,1.99870491,-1.780616585,0.339739293,-1.770549122,4.745597839,2.987470388,,-0.009421199,0.011773303,-0.122488372,0.000982706,-0.025909895,-0.114713006,,-1.802415729,-0.538034558,-0.730830252,-0.19825536,0.21350576,-0.236381382
1.631859968,,1.998692989,-1.780556504,0.338746101,-1.770537202,4.745837212,2.986549139,,-0.005023787,0.009012138,-0.123856165,0.000886833,0.025909895,-0.125067383,,-1.894329906,-0.405767709,-0.679268599,-0.195205271,-0.251631796,-0.186055019
1.639929856,,1.998645306,-1.78046066,0.337764531,-1.770512883,4.745549679,2.985616207,,-0.006851781,0.010520551,-0.121580765,0.000790959,-0.021595575,-0.114017919,,-2.082642078,-0.425944,-0.733072042,-0.190630153,0.276032448,0.07930214
1.647990016,,1.99853754,-1.780352894,0.336818904,-1.770489041,4.745837212,2.984659195,,-0.010763432,0.012425245,-0.12343432,0.000719053,0.028114993,-0.131538853,,-1.889846325,-0.405767709,-0.83843714,-0.192155182,-0.34160924,-0.2257061
1.655970048,,1.998453617,-1.780268971,0.335813731,-1.770561043,4.745585918,2.983702183,,-0.006532202,0.013179452,-0.121222831,0.000647148,0.003643204,-0.114497289,,-2.037805796,-0.535792708,-0.854129791,-0.193680227,0.306533277,-0.288232774
1.663959808,,1.998357296,-1.780220811,0.334819794,-1.770549122,4.745753288,2.982756853,,-0.014406636,0.011492073,-0.122194357,0.000599211,0.010450245,-0.126361668,,-1.968309641,-0.425944,-0.83843714,-0.193680227,-0.303483188,-0.064051732
1.671929856,,1.998261452,-1.780088727,0.333838582,-1.770500962,4.745633602,2.981739759,,-0.007299192,0.014048708,-0.118806817,0.000551274,0.026916571,-0.119171135,,-1.986244202,-0.450603932,-0.737555683,-0.189105108,0.219605923,-0.064051732
1.679959808,,1.998177528,-1.77995712,0.332880944,-1.770561043,4.745669365,2.980758905,,-0.014726216,0.012834306,-0.11963772,0.000527306,-0.039356194,-0.118811607,,-2.066949368,-0.405767709,-0.685994029,-0.192155182,-0.276032448,-0.179954857
1.687899904,,1.998105526,-1.779836957,0.331923336,-1.770512883,4.74560976,2.979873419,,-0.010456636,0.016682042,-0.116646461,0.000479369,0.024351945,-0.12070512,,-1.9458915,-0.387833238,-0.757731974,-0.193680227,0.146403953,-0.228756174
1.695970048,,1.998021603,-1.779741112,0.330965728,-1.770512883,4.745537758,2.978904247,,-0.010175406,0.013524598,-0.117375098,0.000455401,-0.042040661,-0.116390795,,-2.129719973,-0.369898736,-0.950527668,-0.218080893,-0.163179412,0.047276277
1.703919872,,1.997925758,-1.779609028,0.329972148,-1.77047712,4.745621681,2.977947474,,-0.016004533,0.019046929,-0.117106654,0.000431432,0.037918091,-0.129357725,,-1.970551491,-0.334029764,-0.993122101,-0.21350576,0.010675289,-0.250106752
1.711980032,,1.997829914,-1.779416863,0.32901454,-1.770489041,4.745429993,2.976966619,,-0.010175406,0.01546764,-0.11718335,0.000407464,-0.044173855,-0.1084093,,-2.093851089,-0.381107807,-0.762215614,-0.230281219,-0.067101814,-0.276032448
1.719879936,,1.99769783,-1.779297177,0.328021348,-1.770512883,4.745597839,2.976009369,,-0.016643692,0.018625084,-0.117145002,0.000383495,0.030104375,-0.124659911,,-1.96606791,-0.316095293,-0.795842767,-0.2257061,-0.019825535,-0.163179412
1.727929856,,1.997590065,-1.77916557,0.327051371,-1.770524804,4.745406151,2.975064039,,-0.012450811,0.018893531,-0.115214743,0.000359527,-0.03834952,-0.119290978,,-1.999695063,-0.396800458,-0.679268599,-0.248581707,0.007625206,-0.057951566
1.73588992,,1.997470856,-1.778997723,0.326058179,-1.77047712,4.745585918,2.974010944,,-0.017564081,0.017973142,-0.115342572,0.000359527,0.032069787,-0.120345592,,-2.051256657,-0.295919001,-0.728588402,-0.260782033,-0.062526688,-0.192155182
1.743899904,,1.997338772,-1.778853718,0.325184464,-1.770549122,4.745370388,2.973137617,,-0.013026054,0.019839486,-0.114626721,0.000335558,-0.042831622,-0.110494561,,-2.006420374,-0.381107807,-0.912416875,-0.265357167,0.050326359,-0.312633455
1.751929856,,1.997206688,-1.778697316,0.324250817,-1.770512883,4.745597839,2.972192764,,-0.01820324,0.01941764,-0.113463446,0.000335558,0.032381378,-0.116486669,,-2.017629385,-0.358689696,-1.053650975,-0.29738304,-0.210455686,-0.030500824
1.760079872,,1.997087002,-1.778541867,0.323280841,-1.770549122,4.745286465,2.971259356,,-0.013179452,0.02187201,-0.113974772,0.000239685,-0.032381378,-0.116990007,,-2.035563946,-0.405767709,-0.831711709,-0.31110841,0.163179412,-0.17080462
1.767949824,,1.996991158,-1.77837402,0.322419107,-1.770537202,4.7455616,2.970350266,,-0.017998708,0.019545473,-0.113143869,0.000239685,0.018503644,-0.10809771,,-2.069191217,-0.363173306,-0.914658725,-0.323308736,-0.289757818,-0.248581707
1.775899904,,1.996859074,-1.778205697,0.321533769,-1.770537202,4.745298386,2.969452858,,-0.016566994,0.023227027,-0.111788854,0.000239685,-0.025909895,-0.113946013,,-2.075916529,-0.425944,-0.809293628,-0.358384669,0.19825536,-0.32788384
1.783949824,,1.996703148,-1.778025929,0.320612103,-1.770524804,4.745549679,2.968519926,,-0.018024275,0.02054256,-0.113220565,0.000239685,0.016178705,-0.116846196,,-2.055740356,-0.405767709,-0.925867736,-0.370584995,-0.337034106,-0.0259257
1.791909888,,1.996547222,-1.777845685,0.319797933,-1.770584885,4.745274544,2.967598677,,-0.018241588,0.024070716,-0.112376876,0.000239685,-0.016106799,-0.116007298,,-2.11178565,-0.42370218,-1.102970839,-0.407186002,0.19825536,-0.146403953
1.799990016,,1.996367455,-1.777653996,0.318876266,-1.770608727,4.745501995,2.966641426,,-0.017653562,0.02348269,-0.113271698,-0.001557949,0.016178705,-0.106827386,,-2.145412683,-0.441636682,-1.069343686,-0.41328615,-0.362959802,-0.244006589
1.807899904,,1.996295452,-1.777474229,0.318002552,-1.770621125,4.745250702,2.9658041,,-0.018676216,0.024198547,-0.114665069,-0.001557949,-0.016178705,-0.116414763,,-2.167830706,-0.448362112,-1.064859986,-0.41328615,0.242481545,-0.204355523
1.815980032,,1.996103764,-1.777222935,0.317080885,-1.770644967,4.745465755,2.964859009,,-0.019085279,0.024786573,-0.115342572,-0.001557949,-0.005225122,-0.108145647,,-2.170072556,-0.41697675,-0.97294575,-0.425486475,-0.388885498,0.047276277
1.823929856,,1.995959759,-1.777078454,0.316206783,-1.770633046,4.745310307,2.963985682,,-0.018867964,0.025272334,-0.114115387,-0.001557949,0.003954794,-0.122550689,,-2.194732428,-0.399042279,-0.907933295,-0.451412201,0.196730316,-0.2257061
1.831859968,,1.995792389,-1.776851002,0.315309078,-1.770716492,4.745358467,2.963088036,,-0.021565214,0.025847577,-0.114626721,-0.002492719,-0.0376065,-0.104262762,,-2.226117849,-0.354206055,-0.939318597,-0.436161786,-0.254681885,-0.265357167
1.839970048,,1.995636463,-1.776646916,0.314399421,-1.770728413,4.745381832,2.962202787,,-0.019519906,0.027982367,-0.115393706,-0.005800365,0.036240298,-0.119051293,,-2.277679443,-0.325062543,-0.9751876,-0.417861283,0.097602636,-0.187580064
1.84788992,,1.995444775,-1.776382748,0.313537657,-1.770776097,4.745346546,2.961293459,,-0.023214243,0.026793532,-0.114818461,-0.005800365,-0.041729074,-0.110063128,,-2.24629426,-0.2779845,-0.777908266,-0.404135913,-0.247056678,0.018300494
1.855959808,,1.995276928,-1.776214902,0.31260401,-1.770740334,4.745334625,2.960360527,,-0.019916184,0.028570393,-0.116416357,-0.00340352,0.023968451,-0.120824963,,-2.326999426,-0.293677181,-0.98415482,-0.425486475,0.077777103,-0.179954857
1.863949824,,1.995085239,-1.775962655,0.311694354,-1.770800416,4.745310307,2.95946312,,-0.023827836,0.028902756,-0.116914906,-0.002396845,-0.032309473,-0.105748802,,-2.338208437,-0.260050029,-0.816019058,-0.465137571,-0.233331308,-0.259256989
1.871929856,,1.994893074,-1.775747124,0.310736716,-1.770836178,4.745310307,2.958601952,,-0.023457123,0.028762141,-0.115764417,-0.011888351,-0.007693873,-0.11758922,,-2.320273876,-0.204004765,-0.84516257,-0.492588311,0.050326359,-0.061001647
1.879980032,,1.994701386,-1.775447671,0.30983904,-1.770908181,4.745274544,2.957704544,,-0.024428645,0.03093528,-0.112466358,-0.008077368,-0.027156254,-0.109631695,,-2.365110159,-0.271259069,-0.921384156,-0.34160924,-0.215030804,-0.033550907
1.887959808,,1.994521618,-1.775231663,0.308976918,-1.77089626,4.745262623,2.956795692,,-0.025464082,0.030104375,-0.113719113,-0.0040267,0.022458438,-0.119818285,,-2.315790415,-0.239873722,-0.83843714,-0.41023609,0.001525041,-0.224181056
1.895990016,,1.994281769,-1.775015656,0.308055252,-1.770920102,4.74522686,2.955921888,,-0.025221201,0.030487869,-0.112491928,-0.002996056,-0.034969971,-0.106204204,,-2.369593859,-0.179344848,-0.638916016,-0.463612527,-0.123528339,-0.301958144
1.903970048,,1.994102001,-1.774751488,0.307181537,-1.771015946,4.745250702,2.95501256,,-0.025246767,0.032852758,-0.111072995,-0.0085088,0.029864689,-0.116103172,,-2.445815325,-0.177103028,-0.829469919,-0.442261934,-0.076252058,-0.068626851
1.912019968,,1.993909836,-1.774524037,0.306248248,-1.771099869,4.745118618,2.954151154,,-0.027074762,0.032072984,-0.111392573,-0.0080534,-0.033891391,-0.114784911,,-2.351659298,-0.14123407,-0.755490184,-0.326358825,-0.007625206,-0.131153539
1.91988992,,1.993694782,-1.774212186,0.305386156,-1.771087948,4.745286465,2.953218222,,-0.026231073,0.032686576,-0.110740632,-0.0080534,0.03108708,-0.108025804,,-2.362868309,-0.13899225,-0.916900516,-0.361434758,-0.19978039,-0.196730316
1.927859968,,1.993454933,-1.773912255,0.30447647,-1.771076028,4.745035172,2.952380896,,-0.028186897,0.035319909,-0.110676713,-0.0040267,-0.032381378,-0.10922423,,-2.37183547,-0.170377597,-0.8339535,-0.41328615,0.103702798,-0.289757818
1.93588992,,1.993275166,-1.773672406,0.303566784,-1.77111179,4.745262623,2.951507092,,-0.025885927,0.03475745,-0.109014906,-0.000743022,0.025454495,-0.11035075,,-2.421155453,-0.197279334,-0.83843714,-0.478862941,-0.251631796,-0.02745074
1.94393984,,1.993047237,-1.773336236,0.302692682,-1.771291081,4.745059013,2.950609922,,-0.03065405,0.035345476,-0.107276395,-0.021595575,-0.032381378,-0.112124413,,-2.396495581,-0.226422861,-0.674784958,-0.279082537,0.135728672,-0.143353865
1.951929856,,1.992819309,-1.773036782,0.301783025,-1.771291081,4.745286465,2.949701071,,-0.029797578,0.03640648,-0.109500661,-0.005872271,0.018503644,-0.102201477,,-2.333724737,-0.318337113,-0.638916016,-0.333984017,-0.356859624,-0.25620693
1.960039936,,1.992567539,-1.772808854,0.300909281,-1.771303479,4.745023251,2.94891119,,-0.030807449,0.036035765,-0.106061988,-0.004386227,-0.015891083,-0.105940551,,-2.24629426,-0.2779845,-0.569419861,-0.399560779,0.172329649,-0.332458973
1.967980032,,1.992291927,-1.772472684,0.300011605,-1.771447007,4.74522686,2.948037863,,-0.0306157,0.037096769,-0.107979469,-0.015627431,-0.00510528,-0.113754265,,-2.318032026,-0.329546154,-0.804809988,-0.277557492,-0.390410542,-0.056426525
1.97593984,,1.992076397,-1.772184674,0.29912588,-1.771470849,4.744999409,2.947152376,,-0.030871363,0.038285606,-0.106061988,-0.005872271,0.004362258,-0.110015191,,-2.22163415,-0.42370218,-0.907933295,-0.308058321,0.175379738,-0.102177761
1.984019968,,1.991836548,-1.771909539,0.298251778,-1.771483246,4.745178699,2.946255445,,-0.032072984,0.039857935,-0.105780758,-0.003882889,-0.031182954,-0.103399895,,-2.165589094,-0.479747444,-0.847404361,-0.370584995,-0.388885498,-0.21350576
1.99188992,,1.991621017,-1.771573846,0.297402024,-1.771579091,4.745023251,2.945465565,,-0.031587221,0.039282691,-0.105295002,-0.017688716,0.026293391,-0.106995165,,-2.174556255,-0.459571153,-0.735313833,-0.231806263,0.097602636,-0.253156841
1.999899904,,1.991344929,-1.771249596,0.29648,-1.771591012,4.745071411,2.944568396,,-0.034923632,0.041545313,-0.10468141,-0.006471482,-0.037534595,-0.10757041,,-2.143170834,-0.497681946,-0.751006544,-0.239431471,-0.315683514,0.030500824
2.007830016,,1.991057396,-1.770925824,0.295666188,-1.771662537,4.74501133,2.94374299,,-0.034258906,0.040599357,-0.103786588,-0.003619236,0.002996056,-0.104670227,,-2.069191217,-0.508890986,-0.672543168,-0.315683514,0.045751236,-0.100652717
2.015929856,,1.990769863,-1.770625893,0.294804454,-1.771782223,4.745059013,2.942869663,,-0.033581398,0.041634794,-0.102239825,-0.01469266,-0.0335798,-0.107498504,,-2.120752811,-0.529067278,-0.798084557,-0.208930641,-0.289757818,-0.19825536
2.023959808,,1.990518093,-1.770277802,0.293990642,-1.771782223,4.744999409,2.942044258,,-0.034246121,0.041174602,-0.102060854,-0.005632586,0.024999093,-0.101650201,,-2.116269112,-0.446120292,-1.013298392,-0.2409565,-0.035075948,-0.298908085
2.031879936,,1.990242481,-1.769942586,0.293200433,-1.771770302,4.744951725,2.941182852,,-0.036419261,0.04128965,-0.100884803,-0.00524909,-0.036887445,-0.10874486,,-2.116269112,-0.394558668,-1.082794547,-0.280607581,-0.176904783,-0.050326359
2.03984,,1.990014553,-1.769582574,0.29235068,-1.771889989,4.745035172,2.940345049,,-0.034361169,0.042516835,-0.102201469,-0.00572846,0.036743633,-0.099780664,,-2.174556255,-0.42370218,-0.889998794,-0.279082537,-0.122003295,-0.056426525
2.047859968,,1.989703178,-1.769258801,0.291572452,-1.771961991,4.744915962,2.93947196,,-0.03625308,0.044204213,-0.100897588,-0.009946907,-0.040290967,-0.106971197,,-2.176798105,-0.28470993,-0.881031573,-0.161654368,-0.105227843,-0.18452999
2.055959808,,1.989415169,-1.768874947,0.290734679,-1.771914307,4.74501133,2.938670158,,-0.03604855,0.044562142,-0.101498395,-0.004458132,0.02475941,-0.098174773,,-2.205941677,-0.170377597,-0.885515153,-0.233331308,-0.183004946,-0.279082537
2.063959808,,1.989127636,-1.768551175,0.28994447,-1.772022072,4.744832039,2.937844753,,-0.036304213,0.045099035,-0.101396136,-0.014429008,-0.031494543,-0.107690252,,-2.226117849,-0.154684931,-0.748764753,-0.280607581,-0.003050082,-0.061001647
2.071859968,,1.988887787,-1.768167321,0.28917861,-1.772081677,4.745035172,2.937031031,,-0.035268776,0.04467719,-0.101102121,-0.007621967,0.024495756,-0.09640111,,-2.351659298,-0.204004765,-0.97294575,-0.164704442,-0.332458973,-0.015250412
2.079970048,,1.988599777,-1.767831628,0.288340837,-1.772117917,4.74480772,2.936193943,,-0.037902109,0.046748064,-0.101881891,-0.004506069,-0.027419908,-0.11217235,,-2.270954132,-0.244357347,-1.013298392,-0.260782033,0.088452391,-0.231806263
2.087859968,,1.988276482,-1.767447774,0.287598193,-1.772177521,4.745023251,2.935404062,,-0.036355346,0.045508098,-0.103709884,-0.008652611,0.013230585,-0.091703296,,-2.326999426,-0.262291849,-0.937076807,-0.266882211,-0.436161786,-0.2699323
2.09588992,,1.987988949,-1.767051999,0.286796361,-1.772261445,4.744736195,2.934602737,,-0.036432043,0.046262305,-0.102188691,-0.009946907,-0.012175973,-0.105916582,,-2.356142998,-0.318337113,-0.937076807,-0.163179412,0.135728672,-0.216555849
2.103919872,,1.987689018,-1.766691987,0.285970569,-1.772273366,4.744963646,2.933764935,,-0.037991591,0.046837546,-0.104579143,-0.004458132,-0.003954794,-0.102321319,,-2.253019571,-0.291435361,-0.903449655,-0.2699323,-0.474287808,-0.061001647
2.111919872,,1.987413406,-1.766356293,0.285180748,-1.772357289,4.744736195,2.932963848,,-0.037199035,0.048230913,-0.101856329,-0.017089505,0.003571299,-0.105916582,,-2.275437593,-0.27574271,-0.851888001,-0.291282862,0.163179412,-0.244006589
2.11993984,,1.987089634,-1.765876595,0.284378558,-1.772416894,4.744951725,2.932185888,,-0.040458743,0.048307613,-0.102431573,-0.008412926,-0.042496063,-0.09033709,,-2.24629426,-0.316095293,-0.946044028,-0.208930641,-0.462087482,-0.234856337
2.127849984,,1.986777782,-1.765552823,0.283552378,-1.772453133,4.744820118,2.931444407,,-0.039678972,0.050186738,-0.102060854,-0.00680704,0.003235741,-0.106012456,,-2.194732428,-0.394558668,-1.002089262,-0.28365767,0.056426525,-0.276032448
2.135810048,,1.986478806,-1.76518089,0.282810479,-1.772512738,4.74484396,2.930606604,,-0.039282691,0.050135605,-0.102572188,-0.017137442,-0.041081924,-0.097671434,,-2.172314405,-0.448362112,-0.952769458,-0.423961461,-0.294332951,-0.006100165
2.143929856,,1.986154556,-1.764701192,0.282007933,-1.772692506,4.744855881,2.929829121,,-0.038592402,0.050378487,-0.102508269,-0.016178705,0.035113782,-0.105389275,,-2.24405241,-0.477505654,-0.932593167,-0.230281219,-0.032025866,-0.17080462
2.151849984,,1.985831261,-1.764281575,0.28118214,-1.772656266,4.74480772,2.928979874,,-0.042171691,0.051592886,-0.100654706,-0.005392902,-0.038972702,-0.093165368,,-2.096092939,-0.410251319,-0.961736739,-0.404135913,-0.21198073,-0.2257061
2.159929856,,1.985519409,-1.763897721,0.280392289,-1.772872273,4.744855881,2.928297758,,-0.03984515,0.050455187,-0.102265388,-0.030655649,0.029121667,-0.09592174,,-2.158863544,-0.291435361,-0.800326347,-0.349234432,-0.144878909,-0.349234432
2.167980032,,1.985207558,-1.763466183,0.279614449,-1.772919957,4.744700432,2.927460194,,-0.042235605,0.052347094,-0.099555358,-0.010785803,-0.041968759,-0.105053723,,-2.120752811,-0.20624657,-0.818260849,-0.352284521,-0.056426525,-0.080827184
2.17588992,,1.98486042,-1.763106171,0.278740346,-1.772968117,4.744904041,2.926682949,,-0.042951465,0.051196609,-0.101856329,-0.004577974,0.032261536,-0.097599529,,-2.049014807,-0.174861223,-0.791359127,-0.50936377,-0.398035735,-0.065576769
2.183879936,,1.984572887,-1.762638871,0.27799806,-1.773159329,4.744592667,2.925881147,,-0.040842239,0.053152435,-0.099517003,-0.021595575,-0.032381378,-0.101122893,,-2.131961823,-0.161410362,-0.818260849,-0.329408884,0.129628494,-0.19978039
2.191869952,,1.984164715,-1.762255017,0.277172297,-1.773219411,4.744855881,2.925127745,,-0.042593535,0.053842727,-0.101498395,-0.005872271,0.010641992,-0.089713909,,-2.176798105,-0.197279334,-0.457329363,-0.469712675,-0.480387986,-0.285182714
2.199919872,,1.983829498,-1.761810605,0.276430011,-1.773279015,4.744580746,2.924313784,,-0.041353565,0.053663764,-0.097331084,-0.014956313,-0.016178705,-0.10150639,,-2.235085011,-0.266775459,-0.679268599,-0.520039022,0.117428169,-0.137253702
2.207879936,,1.98351717,-1.76137859,0.275628179,-1.773315255,4.744832039,2.923560381,,-0.041826542,0.054417968,-0.09933804,-0.009946907,0.01222391,-0.092254564,,-2.293372154,-0.27350089,-0.688235819,-0.398035735,-0.474287808,0.054901481
2.215929856,,1.983158112,-1.760935609,0.274861962,-1.773339097,4.744604588,2.922818422,,-0.043539491,0.054686416,-0.096640788,-0.004458132,-0.014500912,-0.102608941,,-2.300097704,-0.255566388,-0.710653961,-0.529189289,0.096077591,-0.172329649
2.223859968,,1.982834816,-1.760479752,0.27404815,-1.773482625,4.744736195,2.922029018,,-0.042312305,0.05538949,-0.098954543,-0.017568875,-0.042927496,-0.091966942,,-2.37183547,-0.367656916,-0.715137541,-0.547489762,-0.480387986,-0.21198073
2.231919872,,1.982462883,-1.760059659,0.273269922,-1.773506467,4.74464035,2.92131114,,-0.044395961,0.056463279,-0.097088203,-0.009251822,0.039284293,-0.09280584,,-2.360626459,-0.434911251,-0.8339535,-0.416336238,0.024400659,-0.298908085
2.239919872,,1.982091427,-1.759579961,0.2724801,-1.773518387,4.744616508,2.920533657,,-0.044216998,0.05769046,-0.095375255,0,-0.040842239,-0.098917797,,-2.360626459,-0.515616417,-0.746522903,-0.623741865,-0.260782033,-0.041176111
2.24784,,1.981779099,-1.759124581,0.271737814,-1.773674313,4.744688511,2.919755697,,-0.04410195,0.057345316,-0.094531566,-0.016178705,0.038756985,-0.091104083,,-2.405462742,-0.517858267,-0.670301378,-0.446837068,-0.175379738,-0.010675289
2.255919872,,1.981396198,-1.758668725,0.270935625,-1.773650471,4.744568825,2.919002295,,-0.04789855,0.058623634,-0.091744833,-0.005392902,-0.040051281,-0.101913854,,-2.255261421,-0.535792708,-0.594079793,-0.5398646,-0.077777103,-0.172329649
2.263919872,,1.981036663,-1.758164708,0.270181745,-1.773710076,4.744724274,2.918248415,,-0.047361657,0.059224442,-0.093636744,-0.017281253,0.032381378,-0.085111968,,-2.259745121,-0.524583697,-0.70392853,-0.645092428,-0.350759476,-0.251631796
2.271909888,,1.980676651,-1.757696931,0.269439459,-1.773830239,4.744472981,2.917482853,,-0.048563275,0.05827849,-0.091067329,-0.014381071,-0.03803793,-0.098510332,,-2.259745121,-0.486472875,-0.719621181,-0.459037393,0.059476607,-0.147928998
2.279949824,,1.980257511,-1.757181946,0.26864925,-1.77384216,4.744724274,2.916764975,,-0.049522012,0.059914734,-0.091962151,-0.005177185,0.027084349,-0.088611364,,-2.176798105,-0.464054793,-0.83619535,-0.602391243,-0.532239377,0.032025866
2.287949824,,1.979885578,-1.756749455,0.267966896,-1.77400953,4.744437218,2.916034937,,-0.049470883,0.059838034,-0.08883027,-0.019726034,-0.018503644,-0.096113488,,-2.205941677,-0.42370218,-0.930351377,-0.573415458,0.146403953,-0.132678583
2.295909888,,1.97949028,-1.756245915,0.267201036,-1.774033372,4.744700432,2.915257454,,-0.050378487,0.059914734,-0.089763448,-0.008628642,0.010330402,-0.093812518,,-2.185765266,-0.302644432,-0.816019058,-0.497163415,-0.504788637,-0.195205271
2.30388992,,1.979082584,-1.755741898,0.266446769,-1.774069611,4.744472981,2.914551973,,-0.051950816,0.061205834,-0.089098722,-0.005057343,0.003259709,-0.084033385,,-2.145412683,-0.230906487,-0.739797473,-0.646617472,0.10675288,-0.314158469
2.31193984,,1.97869873,-1.755298916,0.265728474,-1.774248902,4.744628429,2.913857937,,-0.051286094,0.063494019,-0.088638522,-0.018911108,-0.033172335,-0.094172046,,-2.163347244,-0.322820723,-0.69271946,-0.41328615,-0.465137571,-0.147928998
2.319909888,,1.978230953,-1.754770581,0.265010178,-1.774285142,4.744544506,2.913092136,,-0.052206479,0.062535286,-0.087577522,-0.00680704,0.025790052,-0.091942981,,-2.114027262,-0.325062543,-0.620981514,-0.516988933,0,-0.030500824
2.32788992,,1.977848053,-1.754267041,0.26428026,-1.774416749,4.744556427,2.912374258,,-0.05172072,0.063532375,-0.08609467,-0.033052493,-0.044125918,-0.09544237,,-2.183523417,-0.41697675,-0.486472875,-0.527664244,-0.344659299,-0.193680227
2.335849984,,1.977392197,-1.75375158,0.263537616,-1.774548356,4.744568825,2.911644697,,-0.053024605,0.064951308,-0.086644351,-0.01176851,0.037462689,-0.082978778,,-2.261986732,-0.441636682,-0.757731974,-0.349234432,-0.125053376,-0.208930641
2.343929856,,1.977020741,-1.753235642,0.262843639,-1.774596516,4.74446106,2.910974741,,-0.051733505,0.064785123,-0.087436907,-0.005368933,-0.040171124,-0.084848315,,-2.250777721,-0.41921857,-0.883273363,-0.538339555,-0.169279575,-0.268407255
2.351929856,,1.976589203,-1.752707783,0.262149304,-1.774823491,4.744580746,2.910256863,,-0.052283179,0.064043701,-0.084074929,-0.021595575,0.033603769,-0.087964214,,-2.304581165,-0.41921857,-0.966220319,-0.228756174,-0.344659299,-0.073201977
2.359909888,,1.976170063,-1.752228085,0.261467338,-1.77481157,4.744305134,2.909526825,,-0.053919427,0.065232538,-0.0854683,-0.005872271,-0.032381378,-0.084344976,,-2.248535872,-0.459571153,-0.818260849,-0.423961461,0.048801318,-0.021350577
2.368009984,,1.975678444,-1.751664464,0.260772616,-1.7750271,4.744616508,2.908857107,,-0.051912468,0.066063441,-0.087884314,-0.030128343,0.029265478,-0.094076172,,-2.257503271,-0.499923766,-0.867580712,-0.236381382,-0.492588311,-0.19825536
2.375879936,,1.97529459,-1.751112763,0.260102242,-1.775050942,4.744317532,2.908139229,,-0.05430292,0.065117486,-0.083052278,-0.009251822,-0.018503644,-0.076147765,,-2.219392538,-0.464054793,-0.757731974,-0.253156841,0.102177761,-0.251631796
2.383929856,,1.97487545,-1.750572983,0.259372354,-1.775099103,4.744604588,2.907540798,,-0.05260276,0.066037871,-0.085046455,-0.004961469,0.011504856,-0.080821618,,-2.181281567,-0.313853472,-0.724104822,-0.385835409,-0.507838726,-0.318733603
2.39188992,,1.974479675,-1.750069443,0.258713573,-1.775266472,4.744341373,2.906823158,,-0.052666675,0.06553933,-0.082157455,-0.014381071,-0.014381071,-0.089977562,,-2.315790415,-0.316095293,-0.771182835,-0.115903132,0.100652717,-0.135728672
2.399949824,,1.974024296,-1.749517743,0.258031607,-1.775290791,4.744556427,2.9061656,,-0.054622501,0.065910041,-0.082822181,-0.005440838,0.010018812,-0.084009416,,-2.293372154,-0.289193571,-0.928109586,-0.29738304,-0.516988933,-0.016775453
2.407899904,,1.973568439,-1.749002282,0.257361233,-1.775433842,4.744341373,2.905459404,,-0.054315705,0.06582056,-0.082656004,-0.020972395,-0.012679311,-0.087101348,,-2.259745121,-0.322820723,-1.035716534,-0.181479901,0.062526688,-0.123528339
2.415919872,,1.973137379,-1.748450581,0.25669086,-1.77544624,4.744449139,2.904789209,,-0.05531279,0.067507938,-0.082911663,-0.00680704,-0.037486658,-0.080893524,,-2.235085011,-0.322820723,-0.997605681,-0.231806263,-0.475812852,-0.216555849
2.423879936,,1.97269392,-1.747934643,0.256092042,-1.775530163,4.744353294,2.904167175,,-0.055568457,0.066919915,-0.082285285,-0.017041568,0.038469363,-0.078880168,,-2.154379845,-0.286951751,-0.950527668,-0.291282862,-0.006100165,-0.288232774
2.432,,1.972226143,-1.747382943,0.255433649,-1.775661771,4.744377136,2.90350914,,-0.056539975,0.069080271,-0.082515381,-0.012942963,-0.037199035,-0.087317064,,-2.174556255,-0.322820723,-0.959494889,-0.141828835,-0.272982359,-0.114378087
2.439899904,,1.971782684,-1.746806924,0.254811227,-1.775709931,4.744449139,2.902839184,,-0.055913601,0.069195315,-0.082617648,-0.004721785,0.033340115,-0.077537939,,-2.165589094,-0.42370218,-0.961736739,-0.29738304,-0.176904783,0.045751236
2.44784,,1.971363068,-1.746243779,0.254141212,-1.775817696,4.744329453,2.902229071,,-0.057652112,0.071624123,-0.082553737,-0.022146849,-0.037294909,-0.082715124,,-2.158863544,-0.544759989,-0.782391906,-0.202830479,-0.144878909,-0.117428169
2.45593984,,1.970871925,-1.745655839,0.253506422,-1.775841538,4.744449139,2.901523352,,-0.05574742,0.071521856,-0.083870403,-0.008532768,0.024711473,-0.085519433,,-2.219392538,-0.567178071,-0.901207864,-0.2699323,-0.34160924,-0.19825536
2.46393984,,1.970452309,-1.745092217,0.252848059,-1.775948826,4.744233608,2.900901079,,-0.058061175,0.071381241,-0.081467167,-0.017832527,-0.027252128,-0.073942669,,-2.183523417,-0.439394861,-0.867580712,-0.399560779,-0.010675289,-0.315683514
2.47188992,,1.969948769,-1.744528596,0.252213627,-1.776140992,4.744472981,2.900303125,,-0.056770075,0.072033182,-0.082489818,-0.018503644,0.018503644,-0.084464818,,-2.277679443,-0.390075028,-0.903449655,-0.176904783,-0.465137571,-0.216555849
2.479849984,,1.969504833,-1.743941132,0.251567245,-1.776140992,4.744185448,2.899597168,,-0.057460364,0.072902441,-0.082553737,-0.005632586,-0.018503644,-0.0819721,,-2.291130304,-0.318337113,-0.849646211,-0.378210217,0.080827184,-0.012200329
2.487949824,,1.969049931,-1.743377511,0.250932813,-1.776356045,4.744449139,2.898975134,,-0.057498716,0.073145323,-0.081863441,-0.025190841,0.010354371,-0.079215728,,-2.275437593,-0.2779845,-0.748764753,-0.262307078,-0.524614155,-0.030500824
2.495909888,,1.968594074,-1.742765729,0.250262469,-1.776367966,4.744173527,2.89832902,,-0.058623634,0.073337063,-0.081403248,-0.007621967,-0.012679311,-0.087724529,,-2.37631917,-0.195037514,-0.831711709,-0.393460631,0.089977428,-0.155554205
2.503970048,,1.968102455,-1.742142026,0.249628037,-1.776547734,4.744401455,2.897706985,,-0.059224442,0.074589819,-0.0824259,-0.035521243,-0.004194479,-0.072504565,,-2.304581165,-0.251082778,-0.83619535,-0.41328615,-0.582565725,-0.236381382
2.511929856,,1.967598915,-1.741566483,0.24898164,-1.776715581,4.744197369,2.897084951,,-0.061167486,0.076468945,-0.081799529,-0.01840777,0.003595268,-0.079958752,,-2.311306715,-0.369898736,-0.735313833,-0.36905998,0.059476607,-0.237906426
2.519959808,,1.967095852,-1.740967099,0.248323262,-1.776763264,4.744281292,2.896438837,,-0.060911823,0.074500337,-0.081467167,-0.006519419,-0.048176587,-0.080270343,,-2.214908838,-0.387833238,-0.748764753,-0.565790296,-0.387360454,-0.02745074
2.527849984,,1.966616154,-1.740367238,0.247724801,-1.776990716,4.744293213,2.895852566,,-0.06207509,0.076954708,-0.078884967,-0.025909895,0.032621063,-0.073607109,,-2.23956871,-0.381107807,-0.854129791,-0.364484847,-0.230281219,0.019825535
2.535899904,,1.96606493,-1.739791695,0.247101992,-1.777026955,4.744113922,2.89523077,,-0.064772338,0.076647907,-0.079153411,-0.006231797,-0.038924765,-0.083146557,,-2.152138233,-0.479747444,-0.813777208,-0.55358994,-0.103702798,-0.169279575
2.543909888,,1.965549469,-1.73914415,0.246455595,-1.777194802,4.744305134,2.894536734,,-0.063430108,0.077350982,-0.078578167,-0.025909895,0.025909895,-0.078640483,,-2.131961823,-0.441636682,-0.751006544,-0.445312023,-0.390410542,-0.196730316
2.551820032,,1.965022087,-1.73850805,0.245857134,-1.777242009,4.744113922,2.894034147,,-0.064900175,0.076302759,-0.077363767,-0.008628642,-0.032381378,-0.069196917,,-2.158863544,-0.351964265,-0.569419861,-0.492588311,0.001525041,-0.330933928
2.559909888,,1.964506626,-1.737920586,0.245246679,-1.777337853,4.744353294,2.893436193,,-0.062905997,0.077721693,-0.075395159,-0.022722092,0.018503644,-0.078712389,,-2.226117849,-0.150201306,-0.717379391,-0.645092428,-0.471237719,-0.19978039
2.568,,1.963979244,-1.737308804,0.244612262,-1.777493779,4.74404192,2.892778158,,-0.063903086,0.078552604,-0.075829782,-0.010785803,-0.017473001,-0.078808263,,-2.306823015,-0.174861223,-0.710653961,-0.442261934,0.05337644,-0.059476607
2.575929856,,1.963476181,-1.736661259,0.244001821,-1.777493779,4.744293213,2.892192125,,-0.063864738,0.078245804,-0.076903574,-0.006591324,0.018503644,-0.07638745,,-2.335966587,-0.264533639,-0.652366877,-0.608491421,-0.544439673,-0.054901481
2.583859968,,1.962960243,-1.736038033,0.24340336,-1.777661626,4.743982315,2.89153409,,-0.064005353,0.078220241,-0.074052922,-0.016562199,-0.016178705,-0.081085272,,-2.38304472,-0.334029764,-0.780150056,-0.459037393,0.09302751,-0.154029161
2.591919872,,1.96245718,-1.735390488,0.242804527,-1.777673546,4.744245529,2.891007423,,-0.065449849,0.079242893,-0.075267322,-0.008077368,0.010641992,-0.065673552,,-2.387528181,-0.387833238,-0.795842767,-0.50936377,-0.523089111,-0.237906426
2.599830016,,1.961929798,-1.734754388,0.242265984,-1.777745072,4.744018078,2.890468836,,-0.064491108,0.0789361,-0.073017485,-0.023896545,0.003283678,-0.067854688,,-2.313548565,-0.378865987,-0.847404361,-0.629841983,0.070151895,-0.271457344
2.607919872,,1.961425781,-1.734143082,0.241679505,-1.777900998,4.74420929,2.88987112,,-0.064900175,0.08093027,-0.072902441,-0.010785803,-0.031039143,-0.076818883,,-2.358384609,-0.520100057,-0.789117336,-0.407186002,-0.507838726,-0.141828835
2.615919872,,1.960910797,-1.733471219,0.241093025,-1.777996842,4.744053841,2.889284611,,-0.068019263,0.080994189,-0.072199367,-0.01732919,0.023297334,-0.073894732,,-2.192490816,-0.55372721,-0.661334097,-0.593241036,-0.003050082,-0.018300494
2.623869952,,1.960359573,-1.732835595,0.240470216,-1.778199975,4.744125843,2.888698578,,-0.067354538,0.079984315,-0.073106967,-0.016178705,-0.036432046,-0.072816156,,-2.120752811,-0.459571153,-0.555969,-0.332458973,-0.398035735,-0.077777103
2.63193984,,1.959832191,-1.73218805,0.239895731,-1.778212372,4.744113922,2.888124228,,-0.066549204,0.082553737,-0.071675256,-0.007190535,0.034131072,-0.077322222,,-2.093851089,-0.336271584,-0.614256084,-0.536814511,-0.100652717,-0.190630153
2.639869952,,1.959340096,-1.731564347,0.239309251,-1.778439824,4.744029999,2.887526035,,-0.067405671,0.0837937,-0.070256323,-0.025909895,-0.04024303,-0.060112875,,-2.154379845,-0.316095293,-0.549243569,-0.271457344,-0.330933928,-0.236381382
2.647919872,,1.958788872,-1.730832402,0.238758728,-1.778487984,4.744078159,2.887047768,,-0.067980915,0.082988359,-0.069540463,-0.009251822,0.028762141,-0.064331323,,-2.149896383,-0.351964265,-0.513374627,-0.359909713,-0.19978039,-0.335509062
2.655810048,,1.958297729,-1.730149094,0.238171875,-1.778571908,4.743946075,2.886497259,,-0.068095967,0.084241115,-0.069681078,-0.033819485,-0.034514569,-0.072025195,,-2.253019571,-0.331787974,-0.679268599,-0.42701152,-0.125053376,-0.18452999
2.663929856,,1.95775795,-1.72951347,0.237621352,-1.778739278,4.744161606,2.885910749,,-0.067252278,0.085941277,-0.069732212,-0.01176851,0.025909895,-0.0708028,,-2.344933748,-0.351964265,-0.784633696,-0.178429812,-0.376685172,-0.030500824
2.671820032,,1.957195282,-1.728830163,0.237082437,-1.77877504,4.743898392,2.885348558,,-0.06979613,0.084829137,-0.067507938,-0.005081311,-0.032381378,-0.06732738,,-2.295614004,-0.428185821,-0.827228069,-0.378210217,-0.033550907,-0.030500824
2.679929856,,1.956655502,-1.728146378,0.236507937,-1.77897865,4.744102001,2.884810448,,-0.067725256,0.085417166,-0.068479463,-0.018503644,0.029816752,-0.071737573,,-2.400979042,-0.484231085,-0.816019058,-0.144878909,-0.436161786,-0.128103465
2.68784,,1.956068039,-1.727474515,0.235945046,-1.778930966,4.743814945,2.884307861,,-0.071572989,0.086081892,-0.06675373,-0.009251822,-0.03063168,-0.064954504,,-2.333724737,-0.526825488,-0.69271946,-0.280607581,0.089977428,-0.181479901
2.69588992,,1.955564499,-1.726767365,0.235394523,-1.77897865,4.744102001,2.883793354,,-0.07222493,0.086695485,-0.066459715,-0.017520938,0.009803097,-0.061215423,,-2.23732686,-0.441636682,-0.612014294,-0.414811194,-0.506313682,-0.263832122
2.70384,,1.954977512,-1.72607166,0.234891936,-1.779206101,4.743826866,2.883279085,,-0.072480597,0.085787877,-0.066101789,-0.017473001,-0.016178705,-0.067878656,,-2.266470432,-0.405767709,-0.665817738,-0.201305434,0.083877265,-0.207405597
2.711929856,,1.954389572,-1.725412194,0.234281123,-1.77919418,4.74404192,2.882752657,,-0.074692085,0.084420078,-0.064184316,-0.006159892,0.011169298,-0.0689812,,-2.131961823,-0.385591418,-0.681510389,-0.333984017,-0.515463948,-0.02745074
2.71993984,,1.953803062,-1.724728409,0.233778521,-1.77936155,4.743826866,2.882202387,,-0.072966352,0.085787877,-0.06323836,-0.033220273,-0.012535499,-0.06052034,,-2.134203672,-0.233148292,-0.549243569,-0.366009891,0.077777103,0.067101814
2.727970048,,1.953227043,-1.724008862,0.233251974,-1.779433552,4.743982315,2.881711721,,-0.073758908,0.086043544,-0.063685767,-0.010785803,-0.004649879,-0.06174273,,-2.235085011,-0.441636682,-0.520100057,-0.29738304,-0.477337897,-0.051851399
2.735849984,,1.952640057,-1.723325555,0.23273702,-1.779540841,4.743826866,2.88116169,,-0.075241759,0.086951144,-0.061269749,-0.026293391,-0.0080534,-0.07144995,,-2.23956871,-0.481989264,-0.710653961,-0.549014807,-0.022875618,-0.154029161
2.743859968,,1.952052593,-1.722653691,0.232210472,-1.77974445,4.743994236,2.880611181,,-0.074155189,0.086784966,-0.061678812,-0.016274579,0.010594055,-0.058099523,,-2.37407732,-0.488714695,-0.791359127,-0.361434758,-0.433111697,-0.224181056
2.75188992,,1.951441288,-1.721922223,0.231743455,-1.779864613,4.743802547,2.880156517,,-0.075650819,0.088523477,-0.059045479,-0.021260016,0.004554006,-0.059417788,,-2.356142998,-0.605288863,-0.946044028,-0.576465547,0.036600988,-0.298908085
2.759810048,,1.950829983,-1.721214596,0.231288433,-1.780056302,4.743946075,2.879678249,,-0.075139493,0.087475255,-0.059671853,-0.018503644,-0.026724823,-0.06308496,,-2.362868309,-0.596321583,-0.97294575,-0.449887156,-0.452937245,-0.210455686
2.768,,1.950218678,-1.720471207,0.230773866,-1.780127827,4.743838787,2.879151583,,-0.075625256,0.088638522,-0.059901953,-0.009251822,0.003451457,-0.065577678,,-2.306823015,-0.654608667,-0.941560447,-0.562740207,0.059476607,-0.045751236
2.775929856,,1.949631214,-1.719787423,0.230295241,-1.780283753,4.743898392,2.878625155,,-0.075075582,0.088331729,-0.060042568,-0.024208136,-0.033340115,-0.056996975,,-2.217150688,-0.535792708,-0.793600917,-0.549014807,-0.414811194,0.010675289
2.783879936,,1.949056149,-1.719055955,0.229792282,-1.780355279,4.743838787,2.87817049,,-0.075599685,0.08883027,-0.058802597,-0.01176851,0.027971182,-0.05896239,,-2.257503271,-0.381107807,-0.804809988,-0.524614155,-0.047276277,-0.057951566
2.791899904,,1.948444843,-1.718324963,0.229349241,-1.780427281,4.743802547,2.8776443,,-0.07632833,0.09035147,-0.059850819,-0.004961469,-0.040410809,-0.067351349,,-2.201457977,-0.365415126,-0.735313833,-0.681693435,-0.321783692,-0.122003295
2.799909888,,1.94782114,-1.717604939,0.228834659,-1.780558888,4.743850231,2.877130032,,-0.075855352,0.089610048,-0.058035608,-0.021595575,0.039979376,-0.055942364,,-2.194732428,-0.461812973,-0.811535418,-0.46818763,-0.108277924,-0.21198073
2.807899904,,1.947234154,-1.716813389,0.228427574,-1.780594651,4.743778706,2.876699448,,-0.076673478,0.091156811,-0.058393538,-0.009251822,-0.034682348,-0.054000918,,-2.219392538,-0.396800458,-0.683752239,-0.571890414,-0.146403953,-0.271457344
2.81588992,,1.946610928,-1.716117684,0.227936968,-1.780678574,4.743910313,2.876244307,,-0.0757403,0.090709396,-0.058892079,-0.019726034,0.025909895,-0.060568277,,-2.253019571,-0.452845722,-0.665817738,-0.735069871,-0.326358825,-0.192155182
2.823909888,,1.946011066,-1.715410058,0.227517515,-1.7808345,4.743719101,2.875742197,,-0.075050011,0.090824448,-0.057012953,-0.01176851,-0.038085867,-0.060736053,,-2.329241276,-0.513374627,-0.677026808,-0.474287808,-0.071676932,-0.03965107
2.831859968,,1.945375919,-1.714654748,0.227050886,-1.7808345,4.743910313,2.875263453,,-0.076366678,0.091233507,-0.057716027,-0.005656554,0.034202978,-0.052706622,,-2.340450287,-0.585112572,-0.813777208,-0.677118301,-0.337034106,0.02745074
2.839820032,,1.944788933,-1.71388704,0.226547927,-1.780989949,4.743610859,2.874856949,,-0.076571211,0.090428166,-0.057025738,-0.021595575,-0.032381378,-0.05273059,,-2.340450287,-0.437153071,-0.885515153,-0.547489762,0.02745074,-0.021350577
2.847909888,,1.944141388,-1.71317989,0.226105258,-1.781037633,4.743850231,2.874402523,,-0.076993056,0.089635611,-0.057498716,-0.009946907,0.025909895,-0.063660204,,-2.329241276,-0.396800458,-0.937076807,-0.599341214,-0.433111697,-0.144878909
2.855879936,,1.943518162,-1.712424103,0.225674197,-1.781133477,4.743575096,2.873876095,,-0.078360856,0.091770403,-0.057460364,-0.022554312,-0.032381378,-0.060496371,,-2.349417448,-0.345238835,-0.860855222,-0.72439456,0.135728672,-0.239431471
2.86388992,,1.942883015,-1.711716477,0.225231156,-1.781289403,4.743862152,2.873432875,,-0.078015707,0.091233507,-0.059313927,-0.016178705,0.021595575,-0.048296429,,-2.349417448,-0.289193571,-0.802568197,-0.451412201,-0.532239377,-0.28365767
2.871849984,,1.94223547,-1.711033169,0.224788487,-1.781373326,4.743575096,2.873050213,,-0.082758263,0.091642573,-0.056795638,-0.006663229,-0.016178705,-0.052275192,,-2.322515726,-0.327304333,-0.813777208,-0.68016839,0.160129324,-0.315683514
2.879919872,,1.941624165,-1.710313145,0.224333465,-1.781588856,4.743838787,2.872643948,,-0.080955841,0.093854062,-0.05711522,-0.018503644,0.009347696,-0.056565545,,-2.232843399,-0.430427611,-0.780150056,-0.361434758,-0.44073689,-0.21198073
2.887919872,,1.940904617,-1.709522072,0.223902777,-1.781648461,4.743587017,2.872177362,,-0.084343381,0.093521699,-0.056220397,-0.011169298,-0.016849821,-0.05788381,,-2.055740356,-0.580628932,-0.849646211,-0.535289466,0.147928998,-0.076252058
2.89588992,,1.940234184,-1.708706204,0.223447382,-1.781816308,4.743778706,2.871710539,,-0.082515381,0.095643707,-0.056424927,-0.02274606,-0.003067962,-0.054312509,,-2.138687372,-0.596321583,-0.759973764,-0.35533461,-0.478862941,-0.041176111
2.903919872,,1.939562798,-1.707963292,0.223052651,-1.781924073,4.743575096,2.871303797,,-0.075395159,0.094761662,-0.054839816,-0.011624699,0.004554006,-0.053737268,,-2.149896383,-0.638916016,-0.721862972,-0.430061609,0.147928998,-0.077777103
2.911949824,,1.938890934,-1.707255665,0.222597614,-1.782079522,4.74367094,2.870848894,,-0.081249848,0.095209077,-0.054545801,-0.023321303,-0.036767602,-0.055966333,,-2.248535872,-0.580628932,-0.735313833,-0.356859624,-0.401085824,-0.118953213
2.919959808,,1.938220501,-1.70647556,0.222190902,-1.782223527,4.743647099,2.870430231,,-0.082950011,0.096679144,-0.05425179,-0.014381071,0.035521243,-0.050789148,,-2.284404993,-0.260050029,-0.881031573,-0.29738304,0.022875618,-0.21198073
2.927859968,,1.937536716,-1.70572025,0.221759468,-1.78230745,4.743587017,2.870047808,,-0.081198715,0.097088203,-0.053983342,-0.007022756,-0.028594362,-0.044077981,,-2.293372154,-0.307128042,-0.847404361,-0.391935587,-0.2699323,-0.309583366
2.93588992,,1.936925411,-1.7049287,0.221340775,-1.782462899,4.743635178,2.869688749,,-0.080955841,0.096819758,-0.053638197,-0.021739384,0.037678406,-0.046666574,,-2.250777721,-0.347480625,-0.901207864,-0.173854694,-0.007625206,-0.321783692
2.94388992,,1.936218262,-1.704161469,0.220933691,-1.782498662,4.743563175,2.869305849,,-0.081249848,0.097740144,-0.051209394,-0.006471482,-0.035113782,-0.052035507,,-2.259745121,-0.425944,-0.860855222,-0.31110841,-0.204355523,-0.219605923
2.951899904,,1.935571194,-1.70338184,0.220526591,-1.782606427,4.743731022,2.868923187,,-0.081403248,0.098353736,-0.053203568,-0.019510319,0.032381378,-0.052179318,,-2.179039955,-0.481989264,-0.863097072,-0.320258647,-0.189105108,-0.077777103
2.960079872,,1.934887886,-1.702590768,0.220167443,-1.78272659,4.743551254,2.868468523,,-0.081019752,0.09933804,-0.051094346,-0.008628642,-0.031230891,-0.050357714,,-2.192490816,-0.625465155,-0.739797473,-0.260782033,-0.114378087,0.001525041
2.96788992,,1.934288502,-1.701834981,0.219736382,-1.782750432,4.743731022,2.868109465,,-0.080380596,0.098724447,-0.052487709,-0.005536712,0.031326763,-0.047984838,,-2.194732428,-0.55821085,-0.762215614,-0.384310365,-0.234856337,-0.019825535
2.97593984,,1.933593273,-1.70103151,0.219329298,-1.782954041,4.743503571,2.86769104,,-0.080406159,0.098302603,-0.050889812,-0.021547638,-0.038205709,-0.055175375,,-2.313548565,-0.318337113,-0.83843714,-0.266882211,0.047276277,-0.096077591
2.983849984,,1.932886124,-1.700287644,0.218910605,-1.782954041,4.743731022,2.867259979,,-0.080418944,0.097740144,-0.049470883,-0.00680704,0.021595575,-0.05601427,,-2.369593859,-0.309369862,-0.863097072,-0.364484847,-0.353809565,-0.172329649
2.991849984,,1.9322505,-1.699496571,0.218527481,-1.783097569,4.743503571,2.866877317,,-0.082157455,0.099785455,-0.050659716,-0.028186899,-0.032381378,-0.041561294,,-2.452540636,-0.394558668,-0.802568197,-0.452937245,0.102177761,-0.2409565
2.999849984,,1.931639671,-1.698716942,0.218120396,-1.783205334,4.743742943,2.866554499,,-0.082183026,0.098583832,-0.050033342,-0.01176851,0.016178705,-0.040099218,,-2.504102468,-0.410251319,-0.728588402,-0.303483188,-0.430061609,-0.323308736
3.007879936,,1.930944443,-1.697937314,0.217749253,-1.783289258,4.743515491,2.866231203,,-0.085864574,0.101050988,-0.048230913,-0.005872271,-0.025909895,-0.043598611,,-2.430122614,-0.506649196,-0.70168668,-0.506313682,0.137253702,-0.288232774
3.015929856,,1.930273533,-1.69709808,0.217330173,-1.783456628,4.743766785,2.865872145,,-0.0837937,0.101498395,-0.049215216,-0.025909895,0.026628949,-0.04812865,,-2.320273876,-0.643399656,-0.69496125,-0.343134254,-0.460562438,-0.21198073
3.023919872,,1.929565907,-1.696306531,0.216983005,-1.783540551,4.743527412,2.865465641,,-0.08898367,0.100756973,-0.045559231,-0.009946907,-0.021595575,-0.049710568,,-2.230601549,-0.670301378,-0.759973764,-0.455987304,0.155554205,-0.077777103
3.031820032,,1.928882599,-1.695514981,0.216648206,-1.783660714,4.743706703,2.8650949,,-0.087551959,0.101907462,-0.047476705,-0.026245454,0.01052215,-0.047074039,,-2.163347244,-0.598563433,-0.744281113,-0.492588311,-0.423961461,-0.015250412
3.03988992,,1.928187847,-1.694747273,0.216289043,-1.783839528,4.743563175,2.864735842,,-0.089175418,0.10209921,-0.045827676,-0.010785803,0.003451457,-0.043167181,,-2.326999426,-0.508890986,-0.829469919,-0.436161786,0.166229486,-0.024400659
3.047879936,,1.927492142,-1.693896119,0.215893567,-1.78386337,4.743694782,2.864377022,,-0.089801796,0.102367654,-0.046160039,-0.006159892,0.010138655,-0.04597149,,-2.183523417,-0.403525889,-0.764457405,-0.582565725,-0.417861283,-0.051851399
3.055859968,,1.926773071,-1.693092648,0.215522438,-1.784079377,4.743551254,2.864005804,,-0.089213766,0.10374824,-0.046594668,-0.021787321,0.003187804,-0.047817059,,-2.344933748,-0.41697675,-0.677026808,-0.448362112,0.149454042,-0.117428169
3.06393984,,1.926077843,-1.692241494,0.215199232,-1.784103219,4.743694782,2.863646984,,-0.090313122,0.104438528,-0.045597579,-0.006471482,-0.03235741,-0.042016692,,-2.315790415,-0.55821085,-0.457329363,-0.564265251,-0.401085824,-0.173854694
3.07193984,,1.925358295,-1.691413228,0.214816496,-1.784175221,4.743575096,2.863312006,,-0.087730922,0.103019595,-0.044715542,-0.019534288,0.038229678,-0.03990747,,-2.266470432,-0.555969,-0.446120292,-0.616116643,0.073201977,-0.239431471
3.07984,,1.924699306,-1.690562073,0.214517251,-1.784270589,4.743647099,2.863037109,,-0.088216677,0.104438528,-0.043219909,-0.010258497,-0.040722396,-0.038061898,,-2.37407732,-0.549243569,-0.502165556,-0.516988933,-0.36905998,-0.279082537
3.087879936,,1.923943996,-1.68972284,0.214134142,-1.784306351,4.743659019,2.86269021,,-0.090747751,0.104387395,-0.043398876,-0.006159892,0.038828891,-0.040746365,,-2.167830706,-0.645641446,-0.551485419,-0.603916287,0.041176111,-0.216555849
3.095899904,,1.923236847,-1.688835446,0.213798583,-1.784450356,4.74362278,2.862367153,,-0.087066196,0.102981247,-0.042925898,-0.026005769,-0.03916445,-0.044964813,,-2.248535872,-0.614256084,-0.582870722,-0.556640029,-0.204355523,-0.135728672
3.103859968,,1.922517776,-1.688055817,0.213427439,-1.784486119,4.74367094,2.862020254,,-0.090875581,0.102674447,-0.04245292,-0.007190535,0.0394281,-0.044533383,,-2.282163143,-0.432669431,-0.598563433,-0.579515636,-0.129628494,-0.028975783
3.111899904,,1.921799183,-1.6871689,0.213116601,-1.784558121,4.743563175,2.861673117,,-0.088523477,0.101728491,-0.042222824,-0.010713898,-0.036935382,-0.037582532,,-2.24629426,-0.450603932,-0.499923766,-0.677118301,-0.032025866,0.038126029
3.119929856,,1.921127319,-1.686353032,0.21280539,-1.78471357,4.743731022,2.861421824,,-0.087999366,0.102508269,-0.042043857,-0.01840777,0.032381378,-0.03604855,,-2.38304472,-0.513374627,-0.56493628,-0.5398646,-0.205880553,0.048801318
3.127919872,,1.920372486,-1.685513798,0.212458223,-1.784725491,4.743515491,2.861110449,,-0.091885448,0.101805195,-0.039269909,-0.00680704,-0.032381378,-0.038565237,,-2.37183547,-0.461812973,-0.576145291,-0.582565725,0.036600988,-0.022875618
3.135820032,,1.919689178,-1.684674088,0.212123036,-1.784857575,4.743694782,2.860788107,,-0.089252114,0.102342084,-0.040957287,-0.020684773,0.025909895,-0.043670516,,-2.439089775,-0.614256084,-0.627706945,-0.648142517,-0.366009891,-0.111328006
3.143899904,,1.918898106,-1.683846776,0.211847395,-1.78496534,4.743407726,2.860429287,,-0.091118462,0.104157299,-0.039014246,-0.014381071,-0.032381378,-0.045468152,,-2.425638914,-0.708412111,-0.719621181,-0.471237719,0.117428169,-0.141828835
3.151820032,,1.918155193,-1.683018986,0.211500227,-1.785049264,4.743694782,2.860118151,,-0.091195159,0.101907462,-0.038451787,-0.006159892,0.026628949,-0.036000613,,-2.286646843,-0.578387141,-0.728588402,-0.599341214,-0.401085824,-0.228756174
3.159909888,,1.917447567,-1.682179753,0.211212978,-1.785216633,4.74345541,2.859866858,,-0.094058588,0.104285128,-0.036457609,-0.025909895,-0.025909895,-0.032141693,,-2.335966587,-0.547001779,-0.710653961,-0.343134254,0.141828835,-0.279082537
3.167990016,,1.916728497,-1.68130428,0.210913748,-1.785300557,4.743659019,2.859615564,,-0.095209077,0.104170084,-0.039052594,-0.010785803,0.014381071,-0.032165661,,-2.282163143,-0.470780224,-0.69496125,-0.455987304,-0.416336238,-0.28365767
3.175899904,,1.915937424,-1.680441205,0.210602537,-1.785408322,4.743443489,2.859316349,,-0.096819758,0.106061988,-0.035064247,-0.027611656,-0.018503644,-0.038253646,,-2.140928984,-0.42146039,-0.70392853,-0.442261934,0.176904783,-0.234856337
3.183820032,,1.91518259,-1.679637257,0.210338876,-1.78558809,4.743719101,2.859029055,,-0.096142247,0.105780758,-0.036572661,-0.010785803,0.021595575,-0.039140482,,-2.300097704,-0.477505654,-0.620981514,-0.326358825,-0.475812852,-0.18452999
3.191869952,,1.914391041,-1.67878658,0.210063621,-1.78576738,4.743419647,2.858717918,,-0.096870892,0.104873158,-0.03468075,-0.021643512,-0.019702066,-0.037558563,,-2.282163143,-0.493198335,-0.580628932,-0.38278535,0.224181056,-0.083877265
3.199810048,,1.913612366,-1.67794687,0.209752411,-1.785827462,4.743610859,2.858419418,,-0.093726225,0.106765062,-0.035767321,-0.014381071,-0.029864689,-0.038205709,,-2.259745121,-0.555969,-0.520100057,-0.231806263,-0.419386327,-0.001525041
3.20793984,,1.912857056,-1.677107636,0.209525079,-1.785875146,4.743467808,2.858168125,,-0.094902277,0.106803417,-0.033581398,-0.005680523,0.027611656,-0.032716934,,-2.253019571,-0.607530653,-0.524583697,-0.385835409,0.10675288,0.018300494
3.215879936,,1.912101746,-1.676267926,0.209201872,-1.786007229,4.743551254,2.857880831,,-0.09690924,0.107723802,-0.03468075,-0.021236047,-0.041537326,-0.032621063,,-2.255261421,-0.547001779,-0.508890986,-0.237906426,-0.28365767,0.019825535
3.223929856,,1.911346436,-1.67539293,0.208950579,-1.786042992,4.743539333,2.857629538,,-0.093815707,0.106394351,-0.032494828,-0.006159892,0.026988475,-0.03154248,,-2.315790415,-0.365415126,-0.547001779,-0.312633455,0.03965107,-0.030500824
3.231820032,,1.910543919,-1.674553219,0.208639368,-1.786126439,4.743503571,2.857354164,,-0.095375255,0.106880113,-0.032597091,-0.015291872,-0.037414752,-0.037366815,,-2.185765266,-0.425944,-0.486472875,-0.372110039,-0.300433099,-0.067101814
3.239810048,,1.909836292,-1.673689667,0.208375722,-1.786222283,4.74349165,2.857043505,,-0.095426388,0.106432706,-0.031318776,-0.009946907,0.038709048,-0.036144424,,-2.228359699,-0.490956515,-0.544759989,-0.276032448,0.042701155,-0.123528339
3.247869952,,1.909033298,-1.672850434,0.208100453,-1.786294285,4.743479729,2.85675621,,-0.096180595,0.106330439,-0.030551786,-0.006375608,-0.042831622,-0.032141693,,-2.194732428,-0.549243569,-0.475263834,-0.405660957,-0.178429812,-0.158604279
3.255789824,,1.908289909,-1.672035042,0.207884744,-1.786474053,4.743551254,2.856504917,,-0.095030114,0.107353091,-0.029222334,-0.022770029,0.036839508,-0.026293391,,-2.183523417,-0.616497874,-0.529067278,-0.305008233,-0.115903132,-0.22723113
3.26393984,,1.907498837,-1.671159569,0.207657412,-1.786485974,4.743443489,2.856313944,,-0.093981892,0.110510536,-0.030193856,-0.00680704,-0.039859533,-0.025742115,,-2.261986732,-0.744281113,-0.470780224,-0.433111697,0.003050082,-0.236381382
3.271849984,,1.906755924,-1.670260255,0.207394138,-1.786593739,4.74362278,2.856122494,,-0.094071373,0.108810373,-0.029107286,-0.02430401,0.032980587,-0.026029738,,-2.266470432,-0.605288863,-0.585112572,-0.483438045,-0.335509062,-0.244006589
3.279879936,,1.905964851,-1.669372384,0.207178786,-1.786761586,4.743383884,2.855930805,,-0.095081247,0.109679632,-0.029196769,-0.01176851,-0.032381378,-0.028282773,,-2.38080287,-0.481989264,-0.609772444,-0.420911372,0.193680227,-0.207405597
3.287789824,,1.905185699,-1.668521229,0.206927493,-1.786773507,4.743647099,2.855631828,,-0.097880758,0.11077898,-0.029733662,-0.015962988,0.028714204,-0.031806134,,-2.282163143,-0.497681946,-0.688235819,-0.626791954,-0.457512349,-0.135728672
3.295859968,,1.90444231,-1.66769344,0.206664219,-1.787000958,4.743359566,2.855404139,,-0.096679144,0.110868461,-0.027969584,-0.020157468,-0.018503644,-0.033364084,,-2.226117849,-0.508890986,-0.710653961,-0.434636742,0.218080893,-0.067101814
3.303789824,,1.903579712,-1.666770283,0.206436142,-1.786976639,4.74362278,2.855153322,,-0.098775581,0.111635454,-0.028953888,-0.006471482,-0.005800365,-0.02861833,,-2.163347244,-0.591838002,-0.742039263,-0.562740207,-0.431586653,0.001525041
3.311830016,,1.902824402,-1.665870969,0.206268743,-1.787096802,4.743407726,2.854949474,,-0.099146292,0.111226395,-0.026422819,-0.029409289,0.004913533,-0.026221486,,-2.167830706,-0.643399656,-0.795842767,-0.591715991,0.164704442,0.028975783
3.319859968,,1.901961327,-1.664983575,0.205981493,-1.787168328,4.743587017,2.854710341,,-0.098775581,0.111341439,-0.026026541,-0.008077368,0.009467538,-0.026341327,,-2.291130304,-0.627706945,-0.798084557,-0.500213504,-0.370584995,0.064051732
3.327830016,,1.901158333,-1.664108102,0.205778137,-1.787216489,4.743395805,2.854542732,,-0.10027121,0.111980602,-0.02614159,-0.005057343,0.003259709,-0.024471788,,-2.398737192,-0.589596152,-0.762215614,-0.610016465,0.176904783,0.030500824
