Junhao2000/UR5-final-year-project/Final report/Matlab_script/circle_movement_125mms.csv
Time,Position->,Joint 1,Joint 2,Joint 3,Joint 4,Joint 5,Joint 6,Velocity->,Joint 1,Joint 2,Joint 3,Joint 4,Joint 5,Joint 6,Current->,Joint 1,Joint 2,Joint 3,Joint 4,Joint 5,Joint 6
0,,1.951177597,-1.720411126,0.508521736,-1.785995309,4.748410225,3.156624794,,0,0,-0.004218447,0,0,0,,-1.096245408,-2.031080246,-0.28246814,-0.03965107,-0.056426525,-0.224181056
0.00793984,,1.951225281,-1.720446889,0.508473814,-1.785947148,4.748434067,3.156564713,,0.003630421,-0.008296279,-0.00451246,0,0,0,,-1.040200114,-1.96382606,-0.313853472,-0.030500824,-0.061001647,-0.266882211
0.016009984,,1.95126152,-1.720495049,0.508425891,-1.785959069,4.748398304,3.156468868,,0.006851781,-0.004704208,-0.004947088,0,0,-0.008628642,,-1.25541389,-1.82035017,-0.318337113,-0.028975783,-0.056426525,-0.115903132
0.023949824,,1.951297283,-1.720542733,0.508425891,-1.785959069,4.748398304,3.15651679,,0.00318301,-0.008526376,-0.005995309,0,0,-0.005033375,,-1.071585417,-2.163347244,-0.457329363,-0.028975783,-0.061001647,-0.22723113
0.031960064,,1.951321125,-1.720626656,0.508318424,-1.78597099,4.748398304,3.156420946,,0.011019096,-0.011901135,-0.013486248,0,0,-0.015243934,,-0.98415482,-1.898813486,-0.399042279,0,-0.059476607,-0.260782033
0.039949824,,1.951381207,-1.720699135,0.508246481,-1.785959069,4.748398304,3.156289577,,0.009421199,-0.009139969,-0.009881393,0,0,-0.019102855,,-1.132114291,-2.102818251,-0.452845722,0.019825535,-0.074727021,-0.111328006
0.047879936,,1.95151329,-1.720806901,0.508102715,-1.785959069,4.748410225,3.156241655,,0.01518641,-0.017270068,-0.017423466,0,0,-0.005968144,,-0.896724224,-1.936924338,-0.499923766,0.02745074,-0.074727021,-0.2699323
0.056039936,,1.951621056,-1.720938985,0.50803113,-1.786007229,4.748410225,3.156026125,,0.015927834,-0.014125407,-0.015084145,0,0,-0.033507895,,-1.190401435,-2.028838634,-0.484231085,0.070151895,-0.09302751,-0.047276277
0.064,,1.951693058,-1.721094433,0.507935286,-1.785947148,4.748422146,3.155930281,,0.009664079,-0.021015538,-0.020951621,0,0,-0.01176851,,-0.898966014,-1.972793341,-0.578387141,0.100652717,-0.068626851,-0.150979072
0.072019968,,1.951825142,-1.721250836,0.507743895,-1.785959069,4.748398304,3.155739069,,0.021015538,-0.018714566,-0.021808093,0,0,-0.038277615,,-1.127630711,-1.986244202,-0.647883236,0.118953213,-0.073201977,-0.030500824
0.079949824,,1.95196867,-1.721430604,0.507552564,-1.785947148,4.748386383,3.155571699,,0.018292721,-0.02344434,-0.025246767,0,0,-0.020229373,,-0.970703959,-1.914506197,-0.69496125,0.173854694,-0.067101814,-0.08540231
0.08788992,,1.952136517,-1.721622769,0.507337213,-1.785863225,4.748422146,3.155308247,,0.020811006,-0.024032366,-0.02984871,0.01732919,0,-0.030583743,,-0.999847531,-1.918989778,-0.683752239,0.071676932,-0.076252058,0.068626851
0.095949824,,1.952316284,-1.721826379,0.507121861,-1.78576738,4.748398304,3.155104876,,0.02215324,-0.025847577,-0.029273467,0.007621967,0,-0.030607712,,-0.955011308,-1.907780766,-0.84292078,-0.042701155,-0.086927347,-0.047276277
0.10388992,,1.952496052,-1.722041909,0.506870568,-1.785815541,4.748398304,3.154865742,,0.025745312,-0.028020717,-0.033261817,0.003906858,0,-0.029337384,,-1.060376406,-1.912264347,-0.876547933,0.048801318,-0.076252058,0.018300494
0.111980032,,1.952700138,-1.7223056,0.506630898,-1.785755459,4.748434067,3.154602289,,0.022971362,-0.030794665,-0.036061332,0.00263653,0,-0.040602557,,-0.919142306,-1.853977323,-0.970703959,0.123528339,-0.086927347,-0.047276277
0.120039936,,1.952879906,-1.722581689,0.50633204,-1.785683457,4.748434067,3.15426755,,0.02827638,-0.031957936,-0.039244343,0.014429008,0,-0.040626526,,-0.993122101,-1.894329906,-1.035716534,0.062526688,-0.086927347,-0.12657842
0.127899904,,1.953107357,-1.722833935,0.506020784,-1.785623852,4.748398304,3.153968334,,0.028007934,-0.034182206,-0.041072335,0.01176851,0,-0.042831622,,-0.883273363,-1.856219172,-1.067101836,-0.030500824,-0.082352221,-0.167754531
0.13588992,,1.953322887,-1.723085705,0.505685627,-1.785611931,4.748410225,3.153633118,,0.030960847,-0.035153728,-0.045367483,0.00479369,0,-0.042160504,,-0.930351377,-1.840526462,-1.053650975,0.05337644,-0.082352221,-0.242481545
0.143929856,,1.953587055,-1.723409478,0.505314469,-1.785564248,4.748386383,3.153370142,,0.029695312,-0.038004376,-0.04862719,0.003259709,0,-0.041417483,,-0.824986279,-1.748612285,-0.988638461,0.138778746,-0.07930214,-0.292807907
0.15204992,,1.953874588,-1.723685567,0.504907787,-1.785432164,4.748398304,3.153011084,,0.034578484,-0.039627839,-0.051848553,0.012942963,0,-0.049542788,,-0.8339535,-1.728435993,-0.923625946,-0.175379738,-0.083877265,-0.260782033
0.15993984,,1.954102039,-1.724020783,0.504524648,-1.785396401,4.748362541,3.152592421,,0.034872498,-0.04108512,-0.053932209,0.004961469,0,-0.055894427,,-0.894482434,-1.703776002,-0.97742939,0.015250412,-0.12657842,-0.152504116
0.168,,1.954401493,-1.724380318,0.504058003,-1.785288636,4.748362541,3.152125835,,0.036674924,-0.043475572,-0.057856642,0.022602249,0,-0.058051586,,-0.919142306,-1.620828986,-0.97294575,-0.018300494,-0.12657842,-0.012200329
0.175929856,,1.954713821,-1.724788491,0.503602982,-1.785204713,4.748266697,3.151659012,,0.037020072,-0.045904376,-0.060195964,0.014932345,-0.005776396,-0.054048855,,-0.820502639,-1.513222098,-0.883273363,-0.141828835,-0.117428169,0.02745074
0.183929856,,1.954989433,-1.725148503,0.503124356,-1.785192792,4.748291016,3.151216507,,0.039231561,-0.046990946,-0.062560849,0.005632586,-0.005776396,-0.059921127,,-0.881031573,-1.661181569,-0.795842767,-0.03965107,-0.041176111,-0.086927347
0.191980032,,1.955325127,-1.725484196,0.50262177,-1.785061185,4.748302937,3.150665998,,0.040561009,-0.048448227,-0.066331886,0.036072519,-0.003906858,-0.072504565,,-0.928109586,-1.708259583,-0.773424625,-0.003050082,-0.016775453,-0.169279575
0.199970048,,1.955636501,-1.725867573,0.502095222,-1.784941498,4.748326778,3.150127411,,0.044140298,-0.050263438,-0.067661338,0.011097393,-0.00263653,-0.062030349,,-0.916900516,-1.692566991,-0.8339535,-0.230281219,-0.028975783,-0.245531633
0.207929856,,1.956007957,-1.726311509,0.501568317,-1.784905259,4.748302937,3.149600744,,0.046032209,-0.051835768,-0.071048878,0.007190535,-0.001989381,-0.066967852,,-1.024507403,-1.757579446,-0.851888001,-0.10675288,-0.03965107,-0.298908085
0.216,,1.956356049,-1.726719205,0.500946581,-1.784773652,4.748326778,3.149062395,,0.046492402,-0.053881075,-0.075574122,0.032213598,-0.001581918,-0.075572528,,-1.031232834,-1.784481168,-0.798084557,-0.073201977,-0.070151895,-0.173854694
0.224019968,,1.956727505,-1.727186982,0.500372112,-1.784701649,4.748326778,3.148464203,,0.047706805,-0.055939168,-0.075804219,0.010785803,-0.001318265,-0.076243639,,-1.035716534,-1.833801031,-0.786875486,-0.301958144,-0.061001647,0.001525041
0.231919872,,1.957135201,-1.727654282,0.499761671,-1.784642045,4.748326778,3.14785409,,0.047144342,-0.058022823,-0.079268456,0.004625911,-0.001126517,-0.074661724,,-1.071585417,-1.865186334,-0.757731974,-0.100652717,-0.059476607,-0.042701155
0.239970048,,1.95750618,-1.728110139,0.499127239,-1.784486119,4.748302937,3.147195816,,0.050800331,-0.060055349,-0.0825793,0.025406558,-0.000982706,-0.087820403,,-1.087278128,-1.894329906,-0.824986279,-0.245531633,-0.064051732,-0.17080462
0.24788992,,1.957901955,-1.728602235,0.498444915,-1.784462277,4.748302937,3.14652586,,0.051963601,-0.062560849,-0.086912796,0.006471482,-0.000886833,-0.076051891,,-0.9751876,-1.840526462,-0.84292078,-0.160129324,-0.073201977,-0.250106752
0.255980032,,1.95830965,-1.729117695,0.497703016,-1.784402196,4.748302937,3.145891666,,0.052922338,-0.064465545,-0.088101633,0.015795209,-0.000790959,-0.087484844,,-1.064859986,-1.802415729,-0.641157806,-0.057951566,-0.09912768,-0.242481545
0.263929856,,1.958729267,-1.729609315,0.49698469,-1.784222428,4.748291016,3.145185709,,0.052308746,-0.066830434,-0.089546129,0.017856495,-0.000719053,-0.090169311,,-0.914658725,-1.67463243,-0.771182835,-0.230281219,-0.09302751,0.004575124
0.271879936,,1.959136486,-1.730184857,0.496302724,-1.784246747,4.748302937,3.144491911,,0.054660849,-0.067801952,-0.091233507,0.006471482,-0.000671117,-0.087892309,,-0.921384156,-1.730677724,-0.863097072,-0.118953213,-0.103702798,-0.056426525
0.279960064,,1.959603786,-1.730748955,0.495572418,-1.784127061,4.748314857,3.143726349,,0.056169264,-0.069284797,-0.093917973,0.024016388,0,-0.105173565,,-0.854129791,-1.771030307,-0.807051778,-0.015250412,-0.115903132,-0.221130967
0.28788992,,1.960059643,-1.731300179,0.494794965,-1.783971135,4.748291016,3.142912388,,0.057230268,-0.072339982,-0.075395159,0.017760621,0,-0.08738897,,-0.807051778,-1.710501432,-0.616497874,-0.166229486,-0.131153539,-0.285182714
0.295869952,,1.960503101,-1.731888119,0.493969172,-1.783935372,4.748266697,3.142158508,,0.060464412,-0.073055834,-0.075395159,0.005872271,0,-0.105245471,,-0.912416875,-1.755337715,-0.795842767,-0.016775453,-0.181479901,-0.230281219
0.303909888,,1.960922718,-1.732487981,0.493179321,-1.783743683,4.748182774,3.14129734,,0.060617808,-0.075139493,-0.102572188,0.032381378,-0.003211772,-0.105317369,,-0.970703959,-1.874153614,-0.757731974,-0.089977428,-0.12657842,-0.076252058
0.311830016,,1.961473942,-1.733099286,0.492329568,-1.783660714,4.748207092,3.140483856,,0.063315056,-0.076814093,-0.105627365,0.008628642,-0.003211772,-0.111285515,,-0.955011308,-1.972793341,-0.8339535,-0.03965107,-0.102177761,-0.222656012
0.319990016,,1.96195364,-1.733687226,0.491479814,-1.783540551,4.748207092,3.13962245,,0.064082049,-0.076993056,-0.108554706,0.038900796,-0.002996056,-0.097935088,,-1.105212569,-2.057981968,-0.869822502,0.09302751,-0.088452391,-0.259256989
0.327909888,,1.962432861,-1.734299008,0.490546167,-1.783348862,4.748195171,3.138772726,,0.066574767,-0.080546774,-0.110536098,0.018503644,-0.002181129,-0.115695715,,-1.111938,-1.984002352,-0.903449655,-0.007625206,-0.118953213,-0.247056678
0.33588992,,1.962996483,-1.734981839,0.489672452,-1.783217255,4.748170853,3.137803793,,0.066485286,-0.082055189,-0.11336118,0.034898065,-0.001725729,-0.112100445,,-1.125388861,-1.860702753,-0.706170321,0.173854694,-0.12657842,-0.021350577
0.343869952,,1.963535786,-1.735653702,0.488690853,-1.783001725,4.748207092,3.136894226,,0.068530597,-0.085084803,-0.116582543,0.016178705,-0.001414139,-0.125498801,,-1.12090528,-1.809141159,-0.677026808,0.028975783,-0.129628494,-0.282132626
0.351899904,,1.96409893,-1.736349408,0.487722009,-1.782798592,4.748207092,3.135972977,,0.068824604,-0.085008107,-0.118218787,0.026724823,-0.001198423,-0.109655663,,-1.091761708,-1.697050571,-0.643399656,0.166229486,-0.138778746,-0.274507403
0.359960064,,1.964662552,-1.737033192,0.48672846,-1.782678429,4.748170853,3.134992123,,0.071521856,-0.085723959,-0.123076394,0.014381071,-0.001054612,-0.130819798,,-1.035716534,-1.607378125,-0.84067893,0.059476607,-0.172329649,-0.147928998
0.367919872,,1.965250015,-1.7377165,0.485747248,-1.782558743,4.748086929,3.133939028,,0.069987878,-0.087206811,-0.125147268,0.027300065,-0.001054612,-0.12569055,,-0.97742939,-1.513222098,-0.9751876,0.244006589,-0.164704442,-0.083877265
0.376009984,,1.965801239,-1.738412205,0.484705746,-1.782355134,4.748111248,3.132861853,,0.07343933,-0.088600174,-0.128777683,0.016178705,-0.006519419,-0.127512157,,-0.98191303,-1.645488977,-0.898966014,-0.001525041,-0.074727021,-0.2257061
0.383960064,,1.966400623,-1.739107911,0.48362866,-1.782271687,4.748123169,3.131820679,,0.073835611,-0.08991684,-0.130196616,0.015195997,-0.004314321,-0.135158092,,-1.022265553,-1.824833751,-0.822744489,0.210455686,-0.088452391,-0.207405597
0.391879936,,1.967011929,-1.739731137,0.482551575,-1.782031838,4.74813509,3.130732059,,0.072838522,-0.088178329,-0.132893875,0.022003038,-0.002804309,-0.126313731,,-1.008814693,-1.847251892,-0.795842767,-0.030500824,-0.11285305,0.033550907
0.4,,1.967647076,-1.740498845,0.481414557,-1.781899754,4.748111248,3.129595518,,0.075395159,-0.075395159,-0.135501638,0.019270634,-0.002085255,-0.144505784,,-1.136597991,-1.793448448,-0.9751876,0.105227843,-0.115903132,-0.250106752
0.408029952,,1.968222618,-1.741254632,0.480373442,-1.78167278,4.748111248,3.128458738,,0.075395159,-0.075395159,-0.138454556,0.025909895,0,-0.138825268,,-1.163499713,-1.766546726,-1.154532433,-0.115903132,-0.18452999,-0.285182714
0.416039936,,1.968894005,-1.742009942,0.479200482,-1.781540696,4.748039722,3.127226353,,0.075395159,-0.094071373,-0.141535297,0.022170817,-0.005560681,-0.142516404,,-1.188159585,-1.732919574,-1.1164217,-0.009150247,-0.190630153,0.042701155
0.424009984,,1.969492912,-1.742765729,0.478075832,-1.781289403,4.748039722,3.126089573,,0.075574122,-0.096231729,-0.147313297,0.026796728,-0.005560681,-0.15289475,,-1.170225143,-1.584960103,-1.002089262,-0.187580064,-0.09912768,-0.257731974
0.431949824,,1.970080376,-1.743509118,0.476890892,-1.781133477,4.748051643,3.124905109,,0.074615382,-0.096231729,-0.149422511,0.021212079,0,-0.152535215,,-1.096245408,-1.654456139,-0.872064292,-0.144878909,-0.132678583,-0.234856337
0.439990016,,1.970680237,-1.744324986,0.475693971,-1.780906502,4.747979641,3.123636961,,0.075318456,-0.097088203,-0.152081415,0.026820697,0,-0.147094384,,-1.060376406,-1.730677724,-1.004331112,-0.237906426,-0.181479901,-0.004575124
0.447970048,,1.971302986,-1.745068375,0.474509031,-1.780738656,4.74796772,3.122344971,,0.074564248,-0.097049855,-0.155200511,0.017473001,-0.005776396,-0.159054637,,-0.988638461,-1.862944603,-1.167983294,-0.167754531,-0.102177761,-0.266882211
0.456009984,,1.971926212,-1.745871846,0.473264158,-1.780535046,4.74796772,3.121100426,,0.075395159,-0.097880758,-0.163407311,0.022482406,-0.004458132,-0.165861681,,-1.011056542,-1.95485878,-1.087278128,-0.208930641,-0.117428169,-0.250106752
0.463919872,,1.972514153,-1.746663872,0.472019672,-1.780439202,4.748027802,3.119748592,,0.077683344,-0.099005677,-0.164174303,0.014429008,-0.002876214,-0.16641295,,-1.067101836,-1.921231627,-1.008814693,-0.152504116,-0.138778746,-0.158604279
0.472,,1.973161221,-1.747515027,0.470726877,-1.780319516,4.747991562,3.118456364,,0.077811174,-0.100066684,-0.170425266,0.02027731,0,-0.157928124,,-0.990880251,-1.766546726,-1.11417985,-0.09302751,-0.181479901,-0.276032448
0.479899904,,1.973700523,-1.748294655,0.469350934,-1.780139748,4.747955799,3.11710453,,0.075395159,-0.102815062,-0.173621058,0.019726034,0,-0.170751244,,-1.013298392,-1.569267392,-1.078310847,-0.102177761,-0.207405597,-0.044226196
0.487929856,,1.97437191,-1.74914581,0.467974633,-1.779972378,4.747907639,3.115692616,,0.078514248,-0.100961506,-0.177647769,0.025238778,-0.004841627,-0.179955125,,-1.080552697,-1.513222098,-1.107454419,0.004575124,-0.193680227,-0.314158469
0.495879936,,1.975007057,-1.749913518,0.46655038,-1.77978069,4.747871876,3.114328623,,0.079000011,-0.10027121,-0.181508288,0.025502432,-0.004841627,-0.181057677,,-1.002089262,-1.526672959,-0.98639667,0.006100165,-0.154029161,-0.277557492
0.503909888,,1.975630283,-1.750716988,0.465150088,-1.779469315,4.747883797,3.112844944,,0.075395159,-0.10085924,-0.184333369,0.034394726,-0.003307646,-0.182567686,,-1.028990984,-1.490803957,-1.067101836,0.082352221,-0.164704442,-0.114378087
0.511970048,,1.976253986,-1.751532857,0.463653952,-1.779206101,4.747871876,3.111433029,,0.078846611,-0.099389173,-0.188091621,0.027827371,-0.002300971,-0.181441173,,-1.055892825,-1.732919574,-0.795842767,0.094552554,-0.193680227,-0.259256989
0.520029952,,1.976889133,-1.752360169,0.462169766,-1.779038731,4.747883797,3.109937429,,0.075395159,-0.099593706,-0.192437887,0.026293391,-0.001797634,-0.18218419,,-1.060376406,-1.797932029,-0.959494889,0.134203628,-0.202830479,0.03965107
0.527980032,,1.977572441,-1.753199402,0.460602075,-1.778847043,4.747848034,3.108405352,,0.081492729,-0.100514092,-0.197372198,0.02027731,-0.001677792,-0.19184348,,-1.011056542,-1.67687428,-1.089519978,0.111328006,-0.231806263,-0.228756174
0.535899904,,1.978230953,-1.75396711,0.458986104,-1.778643433,4.747811794,3.106838226,,0.082387552,-0.10135778,-0.197052613,0.024040356,-0.005632586,-0.201694518,,-1.017781973,-1.766546726,-1.064859986,0.08540231,-0.207405597,-0.054901481
0.543919872,,1.978866577,-1.754806821,0.45735848,-1.778487984,4.747764111,3.105258703,,0.081786744,-0.102572188,-0.201923013,0.023632893,-0.005632586,-0.203564048,,-0.968462169,-1.591685534,-0.905691445,0.036600988,-0.183004946,-0.253156841
0.551949824,,1.979538441,-1.75559837,0.455682933,-1.778283898,4.747776031,3.103679419,,0.083090626,-0.102009721,-0.202549383,0.027659591,-0.003499394,-0.208477587,,-0.97967124,-1.578234673,-1.100728989,-0.009150247,-0.192155182,-0.086927347
0.559970048,,1.980173588,-1.75642616,0.453971446,-1.778032605,4.747787952,3.101980448,,0.083486907,-0.103914417,-0.206000835,0.027180223,-0.002444782,-0.217897192,,-0.995363891,-1.670148849,-1.185917735,-0.042701155,-0.233331308,-0.305008233
0.568039936,,1.980844498,-1.757289712,0.452308267,-1.777828995,4.74775219,3.100269556,,0.083218463,-0.102060854,-0.209413946,0.029289447,-0.002061287,-0.215404466,,-1.080552697,-1.730677724,-1.004331112,-0.11285305,-0.233331308,-0.230281219
0.576039936,,1.981527805,-1.758128945,0.45059675,-1.777601544,4.747644424,3.098558426,,0.083154544,-0.101907462,-0.210666701,0.027779434,-0.008436895,-0.216986388,,-1.152290583,-1.786723018,-0.903449655,-0.141828835,-0.192155182,-0.272982359
0.583909888,,1.982151031,-1.758932416,0.44883731,-1.777397935,4.747656345,3.09679985,,0.081313767,-0.100629143,-0.214591131,0.02320146,-0.005632586,-0.220509753,,-1.228512168,-1.860702753,-1.230754018,-0.125053376,-0.160129324,-0.19825536
0.591899904,,1.982798576,-1.759723965,0.447137803,-1.777206246,4.747680187,3.095017195,,0.075395159,-0.101050988,-0.219014108,0.023944482,-0.003307646,-0.22257103,,-1.221786737,-1.833801031,-1.060376406,-0.100652717,-0.21350576,-0.312633455
0.599899904,,1.983445644,-1.760551755,0.445402354,-1.777026955,4.747620583,3.093258142,,0.075395159,-0.101102121,-0.220139027,0.025310684,-0.002348908,-0.226142332,,-1.170225143,-1.672390699,-1.102970839,-0.041176111,-0.239431471,-0.233331308
0.607919872,,1.984080791,-1.761354748,0.443618953,-1.776823346,4.747572422,3.091451406,,0.076673478,-0.100360692,-0.224267989,0.024399882,-0.002253034,-0.227436632,,-1.087278128,-1.562541962,-1.342844486,-0.001525041,-0.244006589,-0.257731974
0.615919872,,1.984704494,-1.762134377,0.441859514,-1.776619736,4.747524738,3.08965683,,0.074001789,-0.099785455,-0.229956508,0.028810078,-0.006231797,-0.234866843,,-0.995363891,-1.558058381,-1.268864751,0.042701155,-0.21350576,-0.088452391
0.624059904,,1.98527956,-1.76296169,0.44007647,-1.776344124,4.747536659,3.08780241,,0.0757403,-0.098916195,-0.233638063,0.030967239,-0.005344965,-0.237767026,,-0.957253098,-1.551332951,-1.228512168,0.077777103,-0.193680227,-0.288232774
0.631919872,,1.985890865,-1.763753716,0.438221186,-1.776128594,4.74754858,3.085947752,,0.073886745,-0.097228818,-0.239633366,0.028738173,-0.005344965,-0.241266429,,-0.932593167,-1.596169114,-1.170225143,0.123528339,-0.218080893,-0.077777103
0.640009984,,1.986454487,-1.764533345,0.436282337,-1.775864903,4.747524738,3.084010124,,0.073055834,-0.097420566,-0.244606018,0.029505163,-0.003307646,-0.23834227,,-0.930351377,-1.699292421,-1.170225143,0.115903132,-0.250106752,-0.259256989
0.647919872,,1.987065792,-1.765264813,0.434331536,-1.775697533,4.747488499,3.082059622,,0.074155189,-0.094761662,-0.24867107,0.022770029,-0.000599211,-0.243088022,,-0.999847531,-1.753095865,-1.165741444,0.167754531,-0.266882211,-0.057951566
0.656019968,,1.987653255,-1.76598436,0.432284474,-1.775493924,4.747357368,3.0801332,,0.074398071,-0.094851151,-0.252416551,0.023704797,-0.011049456,-0.247426316,,-1.071585417,-1.67687428,-0.943802238,0.155554205,-0.242481545,-0.25620693
0.664009984,,1.988192558,-1.766799752,0.430273771,-1.775302712,4.74738121,3.078111172,,0.073043056,-0.095247425,-0.253746003,0.019534288,-0.008628642,-0.259122908,,-1.082794547,-1.699292421,-1.143323421,0.150979072,-0.082352221,-0.231806263
0.671970048,,1.988803864,-1.767555539,0.428191125,-1.775111024,4.747393131,3.076065302,,0.07098496,-0.091885448,-0.256916225,0.023872577,0.00201335,-0.263485193,,-1.046925545,-1.569267392,-1.174708724,0.096077591,-0.308058321,-0.189105108
0.679929856,,1.989331245,-1.76832277,0.426060915,-1.774931256,4.747177601,3.073935509,,0.0708827,-0.092562959,-0.258999884,0.024543693,-0.025550369,-0.254281282,,-1.026749253,-1.412340641,-0.97294575,0.035075948,-0.010675289,-0.244006589
0.687980032,,1.989894867,-1.769078557,0.423918366,-1.774763886,4.747428894,3.071841955,,0.069450982,-0.091271862,-0.263499558,0.023704797,0.025909895,-0.268686324,,-0.907933295,-1.479594946,-1.232995749,0.019825535,-0.364484847,-0.105227843
0.695980032,,1.990410328,-1.76978666,0.421752214,-1.774536435,4.747081757,3.06966424,,0.069502115,-0.090108588,-0.265007973,0.026461169,-0.021595575,-0.262790084,,-0.858613431,-1.699292421,-1.042441964,-0.068626851,0.140303791,-0.231806263
0.703990016,,1.990961552,-1.770481888,0.419561744,-1.774285142,4.747261524,3.067427158,,0.07098496,-0.088676877,-0.267360061,0.0295531,0.010450245,-0.274414808,,-0.865338862,-1.712743282,-1.011056542,-0.100652717,-0.439211845,-0.265357167
0.711879936,,1.991525173,-1.771189992,0.417443514,-1.774081532,4.747045994,3.065213442,,0.068620078,-0.084662959,-0.268408298,0.02969691,-0.011480888,-0.273983359,,-0.925867736,-1.741886854,-1.324910045,-0.167754531,0.088452391,-0.114378087
0.720039936,,1.992076397,-1.771861855,0.415265024,-1.77384216,4.747201443,3.063036203,,0.068415545,-0.084343381,-0.27246055,0.023680829,0.01021056,-0.270124435,,-1.002089262,-1.732919574,-1.145565152,-0.169279575,-0.417861283,-0.250106752
0.72804992,,1.992567539,-1.772544686,0.41318202,-1.773662392,4.746985912,3.060822487,,0.067865871,-0.082489818,-0.276039839,0.024184167,-0.014381071,-0.277338952,,-1.163499713,-1.647730708,-1.329393625,-0.173854694,0.09912768,-0.179954857
0.735970048,,1.993107319,-1.773144547,0.410991877,-1.773458783,4.74716568,3.058585167,,0.064439975,-0.080572344,-0.283760875,0.017401095,0.012511531,-0.283211201,,-1.208335876,-1.53339839,-1.345086336,-0.123528339,-0.416336238,-0.221130967
0.74388992,,1.993634701,-1.773816411,0.408825755,-1.773315255,4.746878147,3.056324244,,0.062663116,-0.079613604,-0.285077542,0.022793997,-0.014381071,-0.27918452,,-1.26438117,-1.380955338,-1.336119056,-0.105227843,0.096077591,-0.279082537
0.752009984,,1.994113922,-1.774427716,0.406611294,-1.773183171,4.747081757,3.054050922,,0.059083827,-0.076277196,-0.290229172,0.013997575,0.011960257,-0.289946347,,-1.237479448,-1.331635475,-1.367504478,-0.082352221,-0.422436416,-0.195205271
0.759949824,,1.99454546,-1.774991814,0.404289335,-1.773039643,4.746842384,3.051729679,,0.058419105,-0.0733115,-0.294971734,0.023992419,-0.025909895,-0.293805271,,-1.188159585,-1.345086336,-1.25989747,0.019825535,0.152504116,-0.234856337
0.76809984,,1.994977474,-1.77560312,0.401907831,-1.772847954,4.746985912,3.049444437,,0.053535931,-0.069399849,-0.300302327,0.02118811,-0.003259709,-0.289946347,,-1.109696269,-1.378713489,-1.127630711,-0.001525041,-0.480387986,-0.253156841
0.775960064,,1.995456696,-1.776142899,0.399490029,-1.772620503,4.74674654,3.047051907,,0.052896772,-0.066459715,-0.301299393,0.028330708,-0.010881676,-0.298910558,,-1.208335876,-1.441484213,-1.226270318,0.074727021,0.118953213,-0.147928998
0.784,,1.995851994,-1.776658837,0.397012293,-1.772416894,4.746914387,3.044682741,,0.048755024,-0.062739819,-0.306476593,0.021212079,-0.005081311,-0.305214256,,-1.174708724,-1.508738518,-1.190401435,0.07930214,-0.437686831,-0.144878909
0.791949824,,1.996235847,-1.777186219,0.394522935,-1.772189442,4.746710777,3.042158127,,0.046709716,-0.06022153,-0.306029171,0.024280041,-0.011073424,-0.300037056,,-1.087278128,-1.591685534,-1.102970839,0.144878909,0.096077591,-0.257731974
0.799929856,,1.996619701,-1.777618233,0.391985655,-1.772057835,4.746806622,3.039789438,,0.043347742,-0.056616675,-0.307422549,0.012847089,-0.034274884,-0.316647202,,-1.067101836,-1.589443684,-1.289041042,0.08540231,-0.353809565,-0.286707729
0.807970048,,1.996966839,-1.778086011,0.389424413,-1.77195007,4.746675015,3.037181377,,0.039282691,-0.054085609,-0.311244696,0.012535499,-0.01097755,-0.314178467,,-1.071585417,-1.499771237,-1.073827267,0.17080462,0.074727021,-0.150979072
0.815929856,,1.997254848,-1.778517548,0.386898726,-1.771782223,4.746626854,3.034668684,,0.036930587,-0.050902598,-0.311589867,0.018359832,-0.029337384,-0.30976826,,-1.058134556,-1.475111365,-1.324910045,0.030500824,-0.271457344,-0.195205271
0.824009984,,1.997578144,-1.778901402,0.384385049,-1.771758382,4.74657917,3.032132149,,0.034693532,-0.048192564,-0.314184844,0.007502125,-0.008460863,-0.310319543,,-1.105212569,-1.432516932,-1.206094027,0.149454042,0.047276277,-0.29738304
0.831929856,,1.997817993,-1.779260937,0.381907672,-1.771542851,4.746591091,3.029655695,,0.030871363,-0.04359062,-0.31601283,0.023584956,-0.04410195,-0.318996102,,-1.109696269,-1.437000513,-1.40113163,-0.015250412,-0.335509062,-0.17080462
0.839980032,,1.998069763,-1.779620949,0.379441917,-1.771458928,4.746471405,3.027107477,,0.02956748,-0.041839328,-0.317073822,0.008412926,-0.008772453,-0.318133235,,-1.136597991,-1.40113163,-1.419066072,0.033550907,0.103702798,-0.086927347
0.84793984,,1.998309135,-1.779969041,0.376976162,-1.771291081,4.746554852,3.024606466,,0.024006801,-0.037518613,-0.316511363,0.030320089,-0.03063168,-0.314609885,,-1.183676004,-1.383197069,-1.291282892,-0.012200329,-0.332458973,-0.251631796
0.855980032,,1.998477459,-1.780268971,0.374474823,-1.771207158,4.7464118,3.022106171,,0.022869097,-0.033287384,-0.318352163,0.012942963,0.004601942,-0.317557991,,-1.161257863,-1.342844486,-1.394406199,-0.123528339,0.135728672,-0.289757818
0.863909888,,1.998669147,-1.780484502,0.371985108,-1.771135632,4.746399403,3.019533873,,0.018816831,-0.029183986,-0.3178536,0.022314629,-0.044988781,-0.317438155,,-1.163499713,-1.275590181,-1.289041042,0.056426525,-0.210455686,-0.135728672
0.872019968,,1.998788834,-1.780736748,0.36944744,-1.77089626,4.746327877,3.017045498,,0.015697736,-0.024505343,-0.318863481,0.014381071,0.02303368,-0.321608663,,-1.172466874,-1.241963029,-1.185917735,-0.259256989,0.05337644,-0.204355523
0.87988992,,1.998968601,-1.780880753,0.366898179,-1.77086002,4.746255875,3.014533043,,0.0132945,-0.018267155,-0.317291141,0.006231797,-0.041081924,-0.307754904,,-1.181434155,-1.250930309,-1.280073881,-0.059476607,-0.064051732,-0.204355523
0.887919872,,1.999016762,-1.781060521,0.364348531,-1.770704571,4.746291637,3.011960506,,0.009958092,-0.017640779,-0.315795511,0.018503644,0.02135589,-0.318133235,,-1.206094027,-1.239721179,-1.154532433,-0.244006589,0.045751236,-0.280607581
0.895869952,,1.999100685,-1.781132046,0.361787289,-1.770668809,4.746160507,3.009496212,,0.007414241,-0.01095518,-0.317572385,0.009251822,-0.047265787,-0.316431493,,-1.170225143,-1.203852296,-1.280073881,-0.204355523,-0.09302751,-0.158604279
0.903899904,,1.999172688,-1.781168286,0.359189689,-1.770668809,4.746148109,3.006947756,,0.005522331,-0.007529289,-0.313801348,0.004314321,0.026173549,-0.315856248,,-1.268864751,-1.25765574,-1.12314713,-0.138778746,0.089977428,-0.176904783
0.91193984,,1.999136448,-1.781240288,0.356592506,-1.770596806,4.746124268,3.004423618,,-0.001163269,-0.005023787,-0.309646815,0.00309193,-0.042184472,-0.307083786,,-1.54236567,-1.152290583,-1.25317204,-0.091502473,-0.073201977,-0.295857996
0.920019968,,1.999136448,-1.781204049,0.354078799,-1.770524804,4.746100426,3.001922846,,-0.005228318,-0.002543852,-0.309646815,0.010785803,0.021835258,-0.310055882,,-1.488562226,-0.910175085,-1.203852296,-0.280607581,0.065576769,-0.154029161
0.927869952,,1.999076843,-1.781156365,0.351661354,-1.770524804,4.74598074,2.999374866,,-0.004180098,0.005675729,-0.305134356,0.004625911,-0.039140482,-0.307874739,,-1.551332951,-0.955011308,-1.105212569,-0.222656012,0.024400659,-0.059476607
0.935949824,,1.999076843,-1.781096284,0.349279135,-1.770489041,4.746100426,2.996957779,,-0.002569418,0.005394499,-0.305300534,0.002924151,0.022338595,-0.30106771,,-1.941407919,-0.551485419,-1.320426464,-0.196730316,-0.022875618,-0.263832122
0.943919872,,1.998968601,-1.78101236,0.346873283,-1.770453278,4.745837212,2.994469404,,-0.012028966,0.019430423,-0.304904252,0.002157161,-0.032381378,-0.308689684,,-1.81138289,-0.641157806,-1.293524742,-0.210455686,0.138778746,-0.265357167
0.951869952,,1.998860836,-1.780916516,0.344515383,-1.770512883,4.746004581,2.992064476,,-0.018522818,0.015454857,-0.304213971,0.00170176,0.02336924,-0.30459106,,-2.053498507,-0.41249314,-1.354053617,-0.208930641,-0.09302751,-0.12657842
0.959990016,,1.99870491,-1.780748669,0.342073619,-1.770512883,4.745800972,2.989672184,,-0.018983012,0.022140456,-0.304047793,0.00139017,-0.025909895,-0.301714867,,-1.793448448,-0.443878502,-1.25989747,-0.218080893,0.192155182,-0.292807907
0.967970048,,1.998525143,-1.780628506,0.33966741,-1.770512883,4.745944977,2.987278938,,-0.01784531,0.022242721,-0.305032074,0.001198423,0.012128036,-0.298263401,,-2.001936913,-0.316095293,-1.105212569,-0.245531633,-0.228756174,-0.268407255
0.975960064,,1.998393536,-1.780400578,0.337249964,-1.770489041,4.745729446,2.984874249,,-0.022664567,0.027790619,-0.302871734,0.001030643,-0.016178705,-0.298766732,,-2.019871235,-0.27350089,-1.098487139,-0.247056678,0.231806263,-0.140303791
0.983899904,,1.998261452,-1.780136887,0.334843755,-1.770512883,4.745909214,2.982565165,,-0.023354858,0.031970717,-0.30170846,0.000910801,0.015195997,-0.303272814,,-2.084883928,-0.27350089,-1.25317204,-0.272982359,-0.251631796,-0.172329649
0.99188992,,1.998033524,-1.77988464,0.332414329,-1.770489041,4.745645523,2.980136871,,-0.028033499,0.036201946,-0.298742771,0.000814927,-0.014381071,-0.293206066,,-2.022113085,-0.239873722,-1.078310847,-0.321783692,0.190630153,-0.259256989
0.99988992,,1.997781754,-1.779573266,0.329888284,-1.770489041,4.745812893,2.977803469,,-0.029375732,0.040957287,-0.297809601,0.000743022,0.014381071,-0.303392649,,-2.055740356,-0.226422861,-1.25541389,-0.347709388,-0.257731974,-0.239431471
1.007859968,,1.997518539,-1.779189412,0.327446491,-1.770500962,4.745490074,2.975363255,,-0.032891106,0.044076383,-0.29378289,0.000671117,-0.01531584,-0.299030393,,-2.134203672,-0.204004765,-1.040200114,-0.376685172,0.260782033,-0.181479901
1.01588992,,1.997266769,-1.778793637,0.325016677,-1.770512883,4.745729446,2.972994089,,-0.036291428,0.04941975,-0.292773008,0.000479369,0.008868326,-0.28436169,,-2.080400229,-0.27350089,-1.215061307,-0.430061609,-0.301958144,-0.274507403
1.02388992,,1.996991158,-1.778397862,0.322706342,-1.770572964,4.745453835,2.970637321,,-0.038975894,0.05179742,-0.288759112,0.000479369,-0.009994844,-0.293805271,,-2.1095438,-0.316095293,-1.154532433,-0.477337897,0.196730316,-0.292807907
1.031929856,,1.996631622,-1.777953927,0.320420355,-1.770656888,4.745657921,2.968280554,,-0.041941591,0.057051305,-0.284438401,-0.006423545,0.01176851,-0.292103499,,-2.147654533,-0.342997015,-1.183676004,-0.420911372,-0.315683514,-0.141828835
1.039919872,,1.996295452,-1.777509991,0.318205893,-1.770608727,4.745406151,2.966007471,,-0.046147257,0.059531238,-0.283364594,-0.00417051,-0.010833739,-0.279975474,,-2.154379845,-0.378865987,-1.349569917,-0.455987304,0.132678583,-0.253156841
1.047990016,,1.995876312,-1.77699453,0.31595549,-1.770656888,4.745573998,2.96378231,,-0.047630105,0.063174441,-0.283415735,-0.00294812,0.011576761,-0.286422998,,-2.248535872,-0.336271584,-1.221786737,-0.530714333,-0.306533277,-0.266882211
1.055949824,,1.995492458,-1.776467148,0.313800931,-1.770824258,4.745346546,2.96147275,,-0.051950816,0.067252278,-0.280654579,-0.023009712,-0.010761835,-0.285727888,,-2.282163143,-0.199521139,-1.298008323,-0.38278535,0.10675288,-0.115903132
1.063869952,,1.995061398,-1.775926892,0.311562508,-1.770776097,4.745490074,2.95929575,,-0.056105349,0.070563115,-0.283479661,-0.006159892,0.013518206,-0.27518177,,-2.37856102,-0.14123407,-1.237479448,-0.442261934,-0.314158469,-0.271457344
1.071949824,,1.994581223,-1.775351826,0.309348047,-1.770848099,4.745274544,2.95708251,,-0.059160527,0.074538685,-0.280769616,-0.016298547,-0.01176851,-0.283786446,,-2.421155453,-0.022418106,-1.271106601,-0.555114985,0.097602636,-0.250106752
1.079960064,,1.994138241,-1.774715726,0.30707404,-1.771015946,4.745370388,2.954833269,,-0.062113442,0.078488685,-0.28102529,-0.013206616,0.015291872,-0.280862302,,-2.457024336,-0.024659917,-1.085036278,-0.347709388,-0.18452999,-0.196730316
1.087970048,,1.993610859,-1.774043862,0.304703802,-1.771027867,4.745154858,2.952667713,,-0.065756641,0.081671692,-0.27579698,-0.008077368,-0.028091025,-0.269093812,,-2.434606314,0.035868969,-1.217303157,-0.448362112,0.097602636,-0.253156841
1.095849984,,1.993071079,-1.773396794,0.302453369,-1.771135632,4.745346546,2.950430393,,-0.069847263,0.087845966,-0.274684846,-0.02861833,0.025358621,-0.276787668,,-2.38080287,-0.04035259,-0.988638461,-0.574940503,-0.274507403,-0.193680227
1.10393984,,1.992531776,-1.772641007,0.300179362,-1.771339242,4.745059013,2.948289156,,-0.073707782,0.091310211,-0.270594209,-0.014381071,-0.021595575,-0.268782198,,-2.409946442,-0.121057771,-0.98639667,-0.242481545,0.166229486,-0.282132626
1.11188992,,1.99190855,-1.771873776,0.297988504,-1.771386925,4.745286465,2.946111679,,-0.079945967,0.096730277,-0.269303113,-0.020301279,0.014381071,-0.267775536,,-2.223875999,-0.302644432,-1.11417985,-0.497163415,-0.340084195,-0.260782033
1.119990016,,1.991261005,-1.771069829,0.295786023,-1.771638695,4.74501133,2.943982124,,-0.083154544,0.102163121,-0.264675617,-0.022650186,-0.018503644,-0.262790084,,-2.143170834,-0.360931486,-0.966220319,-0.190630153,0.111328006,0.001525041
1.12788992,,1.990602016,-1.770265881,0.293595552,-1.771638695,4.745166779,2.941828728,,-0.085544996,0.103709884,-0.263103276,-0.006639261,0.019845877,-0.257612914,,-2.129719973,-0.378865987,-1.24644661,-0.401085824,-0.251631796,-0.253156841
1.135929856,,1.989954948,-1.769414727,0.291548848,-1.771866147,4.744915962,2.939723015,,-0.088395648,0.10835018,-0.256532729,-0.030439932,-0.025909895,-0.262118965,,-2.183523417,-0.179344848,-1.12090528,-0.160129324,0.073201977,-0.189105108
1.14384,,1.98922348,-1.768539254,0.289525777,-1.771878068,4.745083332,2.937641382,,-0.091195159,0.111878335,-0.253682077,-0.008101337,0.018503644,-0.261136264,,-2.268712282,-0.031385347,-1.055892825,-0.323308736,-0.282132626,-0.141828835
1.151899904,,1.988516331,-1.767616097,0.287586212,-1.772094075,4.744855881,2.935583591,,-0.093802929,0.115265876,-0.254091144,-0.029840721,-0.025909895,-0.258092284,,-2.266470432,-0.008967242,-1.284557462,-0.192155182,0.062526688,-0.320258647
1.159909888,,1.987736702,-1.766715829,0.285635382,-1.772153203,4.745047092,2.933573484,,-0.09675584,0.119701639,-0.253055692,-0.014285197,0.014381071,-0.257229418,,-2.302339554,-0.14123407,-1.239721179,-0.292807907,-0.36905998,-0.129628494
1.167949824,,1.986969471,-1.765696828,0.283684224,-1.772345368,4.744783878,2.931587934,,-0.100590795,0.123114742,-0.249974951,-0.032453284,-0.017425064,-0.242249131,,-2.270954132,-0.156926736,-1.315942764,-0.323308736,0.082352221,-0.259256989
1.175960064,,1.986166477,-1.764664952,0.281709075,-1.772512738,4.744975567,2.929625988,,-0.100168951,0.127652764,-0.250384033,-0.017473001,0.021595575,-0.251213342,,-2.134203672,-0.289193571,-1.235237598,-0.315683514,-0.423961461,-0.218080893
1.18388992,,1.985363483,-1.763669793,0.279770225,-1.772716347,4.744711876,2.927711725,,-0.102955677,0.129915386,-0.247878522,-0.033076461,-0.014812503,-0.24375914,,-2.145412683,-0.109848715,-1.134356141,-0.451412201,0.128103465,-0.282132626
1.191949824,,1.984524727,-1.762614552,0.277794719,-1.772968117,4.744867802,2.925701857,,-0.106688365,0.133405194,-0.24657464,-0.026748791,0.00882039,-0.245892331,,-2.127478123,-0.069496125,-1.143323421,-0.439211845,-0.428536564,-0.245531633
1.199919872,,1.983649731,-1.761546914,0.275843531,-1.773195092,4.744724274,2.923811197,,-0.105486751,0.135207623,-0.244145826,-0.029625006,0.003235741,-0.246132016,,-2.318032026,-0.130025014,-1.037958264,-0.515463948,0.097602636,-0.09302751
1.207849984,,1.982762814,-1.76040775,0.273892343,-1.773411099,4.744855881,2.921885252,,-0.110063121,0.140141934,-0.242701337,-0.025166873,-0.029577069,-0.240115941,,-2.326999426,-0.156926736,-1.109696269,-0.498688459,-0.469712675,-0.295857996
1.215970048,,1.981935501,-1.75931627,0.271965146,-1.773554627,4.744688511,2.919983149,,-0.112121217,0.142762482,-0.238751337,-0.021523669,-0.008556737,-0.238486081,,-2.396495581,-0.318337113,-0.955011308,-0.590190947,-0.010675289,-0.056426525
1.223960064,,1.981000423,-1.758117024,0.270013958,-1.773746316,4.74480772,2.91811657,,-0.118257135,0.146942586,-0.235095337,-0.022506375,-0.029337384,-0.228491247,,-2.309064865,-0.269017279,-0.881031573,-0.585615814,-0.405660957,-0.244006589
1.23188992,,1.980017185,-1.7569297,0.268122703,-1.773938004,4.744664669,2.916298389,,-0.11963772,0.150330126,-0.230685145,-0.027875308,0.021499701,-0.224848032,,-2.304581165,-0.186070278,-1.201610446,-0.600866199,-0.009150247,-0.02745074
1.239949824,,1.979046345,-1.755694215,0.26623106,-1.774117295,4.74467659,2.914444208,,-0.12467429,0.155085459,-0.226799071,-0.025190841,-0.032285504,-0.219598949,,-2.203699827,-0.06725432,-0.948285878,-0.544439673,-0.335509062,-0.257731974
1.248,,1.978051662,-1.754422967,0.264387727,-1.774357144,4.74464035,2.912649393,,-0.125735298,0.158434659,-0.222324952,-0.030751523,0.002972088,-0.229521886,,-2.284404993,-0.210730195,-0.809293628,-0.561215162,-0.045751236,-0.09912768
1.255960064,,1.976973057,-1.75316364,0.262520432,-1.774608437,4.744604588,2.910855293,,-0.131653905,0.161796629,-0.219832242,-0.033675674,-0.042328283,-0.214158103,,-2.295614004,-0.235390112,-1.154532433,-0.45446226,-0.390410542,-0.286707729
1.263899904,,1.975930214,-1.751832787,0.260820568,-1.774883572,4.744544506,2.909132004,,-0.135514423,0.164327696,-0.215843886,-0.0354014,0.02521481,-0.215740025,,-2.194732428,-0.271259069,-1.098487139,-0.376685172,-0.088452391,-0.11285305
1.271929856,,1.97482729,-1.750512902,0.25909707,-1.775194947,4.744472981,2.907373428,,-0.135987401,0.166104555,-0.212290168,-0.032285504,-0.047026101,-0.206943601,,-2.24405241,-0.154684931,-0.948285878,-0.31110841,-0.193680227,-0.305008233
1.279919872,,1.973784447,-1.749121968,0.257397175,-1.77541,4.744580746,2.905663013,,-0.13745746,0.169249222,-0.208992109,-0.02924151,0.02631736,-0.211401731,,-2.23732686,-0.152443111,-1.248688459,-0.236381382,-0.34160924,-0.073201977
1.287919872,,1.972633839,-1.747779195,0.255816758,-1.775637929,4.744353294,2.904023886,,-0.13900423,0.172227696,-0.206997931,-0.027563719,-0.032381378,-0.202892929,,-2.248535872,-0.204004765,-1.215061307,-0.286707729,0.015250412,-0.263832122
1.295949824,,1.971518993,-1.746387784,0.254153222,-1.775817696,4.744604588,2.90238452,,-0.143158764,0.17644614,-0.205233857,-0.023560988,0.021595575,-0.197236374,,-2.219392538,-0.367656916,-1.111938,-0.280607581,-0.459037393,-0.004575124
1.30393984,,1.970332146,-1.744972531,0.252584785,-1.77608091,4.744305134,2.900781393,,-0.14260909,0.178350836,-0.201769605,-0.031494543,-0.018503644,-0.195918113,,-2.205941677,-0.313853472,-1.152290583,-0.32788384,0.086927347,-0.265357167
1.311949824,,1.969193459,-1.743521039,0.251028687,-1.776272122,4.74450922,2.899166584,,-0.146520734,0.181981251,-0.20208919,-0.030224217,0.010761835,-0.200376242,,-2.338208437,-0.121057771,-0.98639667,-0.388885498,-0.489538223,-0.015250412
1.31993984,,1.96803093,-1.742021863,0.249436289,-1.776583974,4.74425745,2.897599459,,-0.147364423,0.187286273,-0.198458776,-0.036072519,-0.017592844,-0.194623813,,-2.396495581,-0.125541389,-1.154532433,-0.420911372,0.048801318,-0.228756174
1.327909888,,1.966795921,-1.740522687,0.247844264,-1.776894871,4.744413376,2.896032333,,-0.153180763,0.187209576,-0.197730124,-0.036000613,-0.005081311,-0.195055246,,-2.318032026,-0.253324598,-1.049167395,-0.492588311,-0.518513978,-0.022875618
1.335810048,,1.965477943,-1.739023987,0.246360093,-1.7771228,4.744269371,2.894512892,,-0.160479963,0.193089843,-0.194623813,-0.033292178,0.004218447,-0.198794335,,-2.185765266,-0.28470993,-0.959494889,-0.555114985,0.033550907,-0.323308736
1.343869952,,1.964182854,-1.737477128,0.244827613,-1.777458016,4.744281292,2.893005133,,-0.162371874,0.195620909,-0.191837087,-0.033675674,-0.038733017,-0.193041906,,-2.324757576,0.004483621,-0.914658725,-0.564265251,-0.41023609,-0.2257061
1.351820032,,1.962888241,-1.735929791,0.243307486,-1.77772123,4.744293213,2.891545534,,-0.1612086,0.195211843,-0.188679636,-0.031878039,0.022050975,-0.190836802,,-2.353901148,-0.121057771,-0.993122101,-0.538339555,-0.088452391,-0.215030804
1.35988992,,1.961582184,-1.734322373,0.241834924,-1.777973,4.744233608,2.890074253,,-0.163931414,0.199852139,-0.184972525,-0.031494543,-0.026916571,-0.178373218,,-2.266470432,-0.242115542,-1.044683695,-0.530714333,-0.35533461,-0.288232774
1.367960064,,1.960323334,-1.732751671,0.240362361,-1.778212372,4.744245529,2.888626814,,-0.168111518,0.202280939,-0.181994036,-0.036551889,0.002588593,-0.179044321,,-2.149896383,-0.264533639,-0.818260849,-0.477337897,-0.088452391,-0.080827184
1.375970048,,1.958968639,-1.731072728,0.238890171,-1.778523747,4.744269371,2.887179136,,-0.16823934,0.207931101,-0.177443236,-0.035976645,-0.038589206,-0.166556761,,-2.201457977,-0.076221555,-0.726346612,-0.402610868,-0.455987304,-0.257731974
1.383830016,,1.957662106,-1.729441468,0.237453565,-1.778823201,4.744149685,2.885839224,,-0.174132392,0.211139679,-0.175180614,-0.033244241,0.021931132,-0.179883227,,-2.268712282,-0.212972,-1.015540123,-0.288232774,-0.041176111,-0.11285305
1.391899904,,1.956260204,-1.727678601,0.236016959,-1.779050652,4.744149685,2.884475708,,-0.171447918,0.21422042,-0.168188214,-0.0304639,-0.040866207,-0.173172057,,-2.434606314,-0.367656916,-0.898966014,-0.346184343,-0.364484847,-0.234856337
1.399929856,,1.95490551,-1.725987736,0.234652624,-1.779266183,4.744197369,2.883159399,,-0.177750021,0.212878183,-0.16611734,-0.02924151,0.035257593,-0.165621996,,-2.255261421,-0.248840973,-0.869822502,-0.320258647,-0.125053376,-0.25620693
1.407869952,,1.953503132,-1.724248711,0.23328793,-1.779469315,4.744029999,2.881831646,,-0.184767991,0.217735797,-0.160083681,-0.032860745,-0.040866207,-0.153877452,,-2.248535872,-0.116574146,-0.728588402,-0.466662616,-0.244006589,0.02745074
1.415909888,,1.95196867,-1.722497765,0.232006729,-1.779792611,4.744161606,2.880515575,,-0.187235147,0.219793886,-0.159137726,-0.04081827,0.023105586,-0.157304943,,-2.450299025,-0.374382377,-1.087278128,-0.520039022,-0.208930641,-0.216555849
1.424,,1.95045805,-1.720711056,0.230713934,-1.78016359,4.743994236,2.879271507,,-0.187695339,0.221494049,-0.153014585,-0.041681137,-0.037175067,-0.159869567,,-2.275437593,-0.473022014,-1.055892825,-0.544439673,-0.21350576,-0.19825536
1.431899904,,1.948996067,-1.718935792,0.229505032,-1.780486886,4.744053841,2.87797904,,-0.191351324,0.223040804,-0.148911193,-0.028905952,0.020996362,-0.148508519,,-2.167830706,-0.163652167,-0.988638461,-0.571890414,-0.228756174,-0.086927347
1.439929856,,1.947485447,-1.717137162,0.228367656,-1.780654732,4.743922234,2.876746893,,-0.189472198,0.225495175,-0.147952452,-0.028210867,-0.031806134,-0.142804027,,-2.253019571,-0.174861223,-0.83619535,-0.658817768,-0.169279575,-0.228756174
1.44784,,1.945951462,-1.715266053,0.227182716,-1.780858342,4.74409008,2.875586271,,-0.193345502,0.229956508,-0.143721223,-0.027204191,0.031111049,-0.154332861,,-2.338208437,-0.307128042,-0.997605681,-0.683218479,-0.222656012,-0.080827184
1.455990016,,1.944368839,-1.713395421,0.226105258,-1.781169717,4.743898392,2.874390602,,-0.194010228,0.23037836,-0.13839063,-0.036120456,-0.032381378,-0.144266099,,-2.326999426,-0.28022632,-1.174708724,-0.631367028,-0.108277924,-0.169279575
1.463830016,,1.94278717,-1.711489026,0.225003824,-1.78142101,4.744078159,2.873289585,,-0.198752776,0.230979159,-0.144462645,-0.032788839,0.022027006,-0.131155357,,-2.253019571,-0.174861223,-0.961736739,-0.552064896,-0.272982359,-0.260782033
1.471949824,,1.941180706,-1.709654156,0.223914757,-1.781684701,4.743802547,2.872165203,,-0.201219931,0.235287085,-0.134197757,-0.037918091,-0.033172335,-0.143738806,,-2.297855854,-0.410251319,-1.037958264,-0.529189289,-0.115903132,-0.181479901
1.479899904,,1.939514637,-1.707831208,0.222824946,-1.782019917,4.743994236,2.871100187,,-0.204939842,0.237894863,-0.137150675,-0.036240298,0.028234836,-0.134582847,,-2.347175598,-0.493198335,-0.898966014,-0.475812852,-0.224181056,-0.132678583
1.48784,,1.937848568,-1.705936257,0.221795425,-1.782343213,4.743814945,2.87007165,,-0.207419768,0.239224315,-0.129800349,-0.038229678,-0.037702374,-0.122934185,,-2.304581165,-0.056045264,-1.033474684,-0.330933928,-0.196730316,-0.25620693
1.495919872,,1.936122417,-1.703981702,0.220813841,-1.782558743,4.743934155,2.869186163,,-0.206422687,0.241742596,-0.128816038,-0.031182954,0.030535806,-0.129357725,,-2.226117849,-0.210730195,-1.11417985,-0.333984017,-0.205880553,-0.2699323
1.503899904,,1.934444427,-1.702098672,0.219843864,-1.782774274,4.743778706,2.868145227,,-0.210065886,0.245015085,-0.126911342,-0.031734228,-0.032381378,-0.122215129,,-2.042289495,-0.293677181,-0.930351377,-0.314158469,-0.103702798,-0.03965107
1.511949824,,1.932730675,-1.700131718,0.218826711,-1.783073727,4.743910313,2.867200375,,-0.202549383,0.24748224,-0.12343432,-0.035425369,0.021236047,-0.129094079,,-2.423397303,-0.096397854,-1.055892825,-0.483438045,-0.18452999,-0.253156841
1.519899904,,1.931040287,-1.698152844,0.217868716,-1.783408944,4.743742943,2.866278648,,-0.214450523,0.249974951,-0.120545328,-0.035449337,-0.031973913,-0.108529143,,-2.344933748,-0.224181056,-0.867580712,-0.42701152,-0.186055019,-0.329408884
1.527980032,,1.929337978,-1.696162526,0.21692346,-1.783636395,4.743850231,2.865370274,,-0.213990331,0.252224803,-0.118154876,-0.037989993,0.027779434,-0.120010033,,-2.291130304,-0.448362112,-0.883273363,-0.532239377,-0.10675288,-0.161654368
1.535869952,,1.927648067,-1.694172208,0.215989441,-1.783923451,4.743731022,2.86450839,,-0.219474301,0.253682077,-0.114434972,-0.030391995,-0.041057955,-0.111357421,,-2.311306715,-0.251082778,-0.901207864,-0.545964718,-0.251631796,-0.056426525
1.543980032,,1.925933838,-1.69210941,0.215103731,-1.784246747,4.743862152,2.86357522,,-0.221366212,0.257823825,-0.113271698,-0.033244241,0.033531863,-0.110566467,,-2.340450287,-0.309369862,-0.641157806,-0.626791954,-0.175379738,-0.205880553
1.551970048,,1.924183846,-1.690046612,0.214265957,-1.784438435,4.74362278,2.862761736,,-0.222695664,0.258041143,-0.107506491,-0.024879253,-0.038181741,-0.09903764,,-2.248535872,-0.363173306,-0.674784958,-0.63899225,-0.125053376,-0.286707729
1.559929856,,1.922397614,-1.687935654,0.213415831,-1.784606282,4.743814945,2.861960411,,-0.223973989,0.258897603,-0.106969595,-0.026796728,0.021595575,-0.108121678,,-2.152138233,-0.199521139,-0.688235819,-0.649667561,-0.257731974,-0.056426525
1.567980032,,1.920599937,-1.685801331,0.212577686,-1.784869496,4.743575096,2.861182451,,-0.227233693,0.259869128,-0.102303736,-0.028354676,-0.036096487,-0.092014879,,-2.340450287,-0.311611652,-0.690477669,-0.654242694,-0.086927347,0.006100165
1.575899904,,1.918825626,-1.683631245,0.21172756,-1.785049264,4.743766785,2.860429287,,-0.225124463,0.262873173,-0.100654706,-0.02969691,0.026940539,-0.107330725,,-2.436848164,-0.600805223,-0.753248334,-0.649667561,-0.359909713,-0.208930641
1.583899904,,1.916968346,-1.681532208,0.210973665,-1.78533632,4.743527412,2.859663486,,-0.236105219,0.26242578,-0.095375255,-0.033603769,-0.031925976,-0.084392913,,-2.22163415,-0.345238835,-0.793600917,-0.472762764,0.096077591,-0.272982359
1.591869952,,1.915122032,-1.679385964,0.210195065,-1.785564248,4.743731022,2.85899353,,-0.235389352,0.265813321,-0.091642573,-0.03293265,0.018503644,-0.094004266,,-2.409946442,-0.345238835,-0.690477669,-0.474287808,-0.428536564,-0.21198073
1.599899904,,1.913204193,-1.677275006,0.209513098,-1.785851304,4.74349165,2.858251572,,-0.235568315,0.265238076,-0.087398559,-0.032429315,-0.021595575,-0.088155963,,-2.385286331,-0.41921857,-0.589596152,-0.356859624,0.103702798,0.007625206
1.607909888,,1.911262512,-1.675188843,0.208782807,-1.786103074,4.743766785,2.857569695,,-0.242893085,0.267666876,-0.085417166,-0.028186899,0.011648667,-0.08245147,,-2.161105394,-0.170377597,-0.547001779,-0.326358825,-0.455987304,-0.061001647
1.615879936,,1.909344673,-1.673065964,0.208100453,-1.786342446,4.743503571,2.856852055,,-0.236718804,0.266158462,-0.07906393,-0.028474519,-0.018503644,-0.087293096,,-2.161105394,-0.316095293,-0.600805223,-0.405660957,0.122003295,-0.147928998
1.623919872,,1.907414913,-1.670943562,0.207478017,-1.786545579,4.743742943,2.856253862,,-0.242509589,0.270108461,-0.077887878,-0.028905952,0.010881676,-0.069292791,,-2.232843399,-0.42146039,-0.589596152,-0.431586653,-0.466662616,-0.247056678
1.63193984,,1.905461311,-1.668772999,0.206843615,-1.786785428,4.743503571,2.855715513,,-0.239198744,0.274326891,-0.074078493,-0.035976645,-0.014381071,-0.075476654,,-2.400979042,-0.246599168,-0.737555683,-0.538339555,0.138778746,-0.207405597
1.639859968,,1.903495789,-1.666566674,0.206256762,-1.787084405,4.743754864,2.8551054,,-0.246229485,0.275170594,-0.069399849,-0.029025793,0.011888351,-0.072768219,,-2.165589094,-0.311611652,-0.824986279,-0.527664244,-0.46818763,-0.012200329
1.647849984,,1.901529789,-1.664396111,0.205718219,-1.78724033,4.743515491,2.854566813,,-0.248747766,0.276794046,-0.067022182,-0.022674154,-0.012942963,-0.062749401,,-2.407704592,-0.410251319,-0.851888001,-0.634417117,0.134203628,0.022875618
1.655949824,,1.899492264,-1.662153546,0.205191284,-1.787503544,4.743742943,2.854088545,,-0.247469455,0.277036935,-0.063455671,-0.024663536,0.010594055,-0.067015789,,-2.351659298,-0.244357347,-0.771182835,-0.634417117,-0.448362112,-0.094552554
1.663909888,,1.897490978,-1.660007302,0.204652369,-1.787647549,4.74349165,2.853549957,,-0.252327055,0.277292609,-0.060950171,-0.019150792,-0.01423726,-0.069532476,,-2.035563946,-0.443878502,-0.600805223,-0.623741865,0.114378087,-0.19825536
1.672019968,,1.895524979,-1.657740895,0.204161763,-1.787779156,4.74362278,2.852999926,,-0.249438062,0.279913157,-0.057779945,-0.023345271,-0.004601942,-0.052059475,,-2.270954132,-0.434911251,-0.547001779,-0.68016839,-0.430061609,-0.259256989
1.679960064,,1.893583298,-1.655438248,0.203671157,-1.787958924,4.743479729,2.852688551,,-0.251342744,0.279913157,-0.054788683,-0.019558256,0.003235741,-0.047193881,,-2.396495581,-0.186070278,-0.618739724,-0.637467206,0.149454042,-0.362959802
1.687869952,,1.891557217,-1.653124158,0.203252092,-1.788126294,4.74362278,2.852233887,,-0.257274151,0.28524372,-0.051017646,-0.02677276,-0.043670516,-0.051915664,,-2.217150688,-0.42146039,-0.55821085,-0.642042339,-0.41328615,-0.248581707
1.69588992,,1.889483929,-1.650797669,0.202833012,-1.788329903,4.743515491,2.851826906,,-0.263064921,0.28497529,-0.047093213,-0.024567662,0.026509106,-0.051963601,,-2.385286331,-0.443878502,-0.511132777,-0.591715991,-0.015250412,-0.141828835
1.703909888,,1.887374401,-1.648519818,0.202461869,-1.788581196,4.743479729,2.851456404,,-0.258347929,0.284706831,-0.046696931,-0.030487869,-0.040123187,-0.049087387,,-2.398737192,-0.493198335,-0.327304333,-0.559690118,-0.173854694,-0.041176111
1.71193984,,1.885300636,-1.646241013,0.20207876,-1.788808648,4.743563175,2.851061821,,-0.262911528,0.285358787,-0.04136635,-0.027180223,0.038613174,-0.042232409,,-2.232843399,-0.69944489,-0.365415126,-0.404135913,-0.108277924,-0.038126029
1.720019968,,1.883167267,-1.644010369,0.201755553,-1.788964097,4.743431568,2.850750685,,-0.264611691,0.284310549,-0.038042724,-0.023441145,-0.040962081,-0.041609231,,-2.293372154,-0.271259069,-0.452845722,-0.443786979,-0.012200329,-0.065576769
1.727949824,,1.880997658,-1.641744439,0.201420367,-1.789168183,4.743587017,2.850403309,,-0.265979499,0.28615135,-0.035524439,-0.027827371,0.036024582,-0.0385173,,-2.387528181,-0.376624167,-0.567178071,-0.332458973,-0.259256989,-0.138778746
1.73584,,1.878816128,-1.639441792,0.20119305,-1.789407078,4.743371487,2.85010457,,-0.272882402,0.286240816,-0.032763273,-0.022530343,-0.021595575,-0.03712713,,-2.129719973,-0.42146039,-0.638916016,-0.29738304,0.132678583,-0.138778746
1.743949824,,1.876682758,-1.637163464,0.200893447,-1.789527241,4.743563175,2.849865198,,-0.266887099,0.287953764,-0.030909713,-0.015962988,0.028019119,-0.025406558,,-2.199216127,-0.291435361,-0.70168668,-0.294332951,-0.335509062,-0.233331308
1.751849984,,1.874537468,-1.634801213,0.200714052,-1.789623086,4.743335724,2.849614382,,-0.270670921,0.288541794,-0.026627351,-0.018144118,-0.029049762,-0.024112262,,-2.275437593,-0.569419861,-0.715137541,-0.367534935,0.161654368,-0.245531633
1.75993984,,1.872355461,-1.632487599,0.20048672,-1.789766614,4.743563175,2.849506378,,-0.266733706,0.291929334,-0.02561748,-0.013230585,0.022362564,-0.016178705,,-2.322515726,-0.533550918,-0.708412111,-0.379735261,-0.359909713,-0.274507403
1.767869952,,1.870150566,-1.630124871,0.200294971,-1.789970223,4.743311882,2.849327087,,-0.271731913,0.291290164,-0.021335116,-0.028186899,-0.025909895,-0.026676886,,-2.286646843,-0.394558668,-0.717379391,-0.376685172,0.179954857,-0.305008233
1.775909888,,1.867920876,-1.627858941,0.200091615,-1.790114228,4.743587017,2.849243164,,-0.274135143,0.29287529,-0.019085279,-0.013494237,0.012942963,-0.009946907,,-2.353901148,-0.567178071,-0.739797473,-0.391935587,-0.379735261,-0.2257061
1.783859968,,1.865799904,-1.625472371,0.19997178,-1.790257756,4.743335724,2.849159718,,-0.273201972,0.290574312,-0.015071361,-0.030080406,-0.021595575,-0.013709954,,-2.170072556,-0.271259069,-0.70168668,-0.460562438,0.21350576,-0.338559151
1.791820032,,1.863629818,-1.623122517,0.199852318,-1.790389363,4.743575096,2.848992348,,-0.27699858,0.291839838,-0.014381071,-0.020660805,-0.004577974,-0.014381071,,-2.324757576,-0.302644432,-0.719621181,-0.387360454,-0.445312023,-0.12657842
1.79988992,,1.861448288,-1.620688264,0.199780405,-1.790497128,4.743311882,2.848956347,,-0.27979809,0.295815408,-0.01256586,-0.007909589,0.003523362,-0.005081311,,-2.190248966,-0.607530653,-0.616497874,-0.561215162,0.250106752,-0.276032448
1.807849984,,1.859243393,-1.618314091,0.199648574,-1.790653054,4.743527412,2.848800421,,-0.274927706,0.297605067,-0.008756474,-0.027779434,-0.005201154,-0.023441145,,-2.392011881,-0.441636682,-0.629948735,-0.459037393,-0.414811194,-0.11285305
1.815909888,,1.857037544,-1.61595184,0.199624985,-1.790748898,4.743371487,2.848836422,,-0.280271083,0.299931586,-0.005790778,-0.010785803,0.004074637,-0.007789746,,-2.409946442,-0.715137541,-0.448362112,-0.501738548,0.160129324,-0.09912768
1.823909888,,1.854808331,-1.613553826,0.199565068,-1.79077274,4.743503571,2.848884344,,-0.283581913,0.296889216,-0.004972654,-0.005488775,-0.038373489,-0.005632586,,-2.367352009,-0.618739724,-0.443878502,-0.649667561,-0.324833781,-0.074727021
1.831869952,,1.852542877,-1.611251656,0.199577048,-1.790928189,4.743419647,2.848848343,,-0.281728357,0.295751512,-0.00290178,-0.014261228,0.040290967,0.005488775,,-2.499618769,-0.538034558,-0.230906487,-0.471237719,0.096077591,-0.186055019
1.839899904,,1.85022974,-1.608877484,0.199624985,-1.790952031,4.743431568,2.848800421,,-0.287621409,0.297183216,0.004716991,-0.008077368,-0.039356194,-0.001893508,,-2.268712282,-0.70168668,-0.390075028,-0.576465547,-0.228756174,-0.042701155
1.847859968,,1.847892284,-1.606575314,0.199648574,-1.791047875,4.743527412,2.848944426,,-0.291392446,0.297042608,0,-0.004673848,0.041777011,0.015891083,,-2.131961823,-0.334029764,-0.150201306,-0.703043997,-0.076252058,-0.073201977
1.855929856,,1.845615387,-1.604236905,0.199696511,-1.791239564,4.743359566,2.848980188,,-0.284259439,0.299484193,0.013422332,-0.012942963,-0.042088598,0.006471482,,-2.201457977,-0.457329363,-0.071737938,-0.44073689,-0.041176111,-0.08540231
1.863879936,,1.843289852,-1.601863209,0.199744448,-1.791215245,4.743515491,2.849028111,,-0.287442446,0.299023986,0.006008091,-0.004961469,0.032381378,0.010138655,,-2.230601549,-0.490956515,-0.002241811,-0.623741865,-0.251631796,0.016775453
1.871949824,,1.840964794,-1.599405114,0.199840322,-1.791239564,4.743311882,2.849219561,,-0.288132727,0.29989326,0.016566994,-0.011864383,-0.036288235,0.020636836,,-2.279921293,-0.410251319,0.168135792,-0.669493079,0.08540231,-0.219605923
1.879909888,,1.838627338,-1.597030942,0.199923843,-1.791347329,4.743598938,2.849231482,,-0.294306993,0.301235497,0.0132945,-0.014381071,0.040195093,0.007190535,,-2.51082778,-0.717379391,-0.011209053,-0.541389644,-0.31110841,-0.059476607
1.887810048,,1.836230278,-1.594524686,0.200091615,-1.791383092,4.743335724,2.849411011,,-0.292773008,0.304980963,0.019877834,-0.005177185,-0.031662323,0.04393417,,-2.228359699,-0.616497874,0.230906487,-0.605441332,0.169279575,-0.094552554
1.895960064,,1.833917141,-1.592090909,0.200211093,-1.791503255,4.743587017,2.849470615,,-0.290638238,0.296198905,0.017167803,-0.017257284,0.025909895,0.010881676,,-2.049014807,-0.367656916,0.121057771,-0.623741865,-0.425486475,-0.097602636
1.903919872,,1.831699848,-1.589680497,0.200366884,-1.791527096,4.743311882,2.849614382,,-0.293207645,0.301900208,0.023584954,-0.007621967,-0.021595575,0.042591937,,-2.398737192,-0.605288863,0.320578903,-0.474287808,0.2699323,0.080827184
1.91193984,,1.829386234,-1.587199036,0.200522304,-1.791527096,4.743610859,2.849757433,,-0.292721897,0.29957366,0.021846443,-0.003906858,0.016178705,0.010785803,,-2.403220892,-0.495440125,0.313853472,-0.550539851,-0.422436416,-0.108277924
1.919990016,,1.827025414,-1.584704701,0.200761989,-1.791539017,4.743323803,2.849877119,,-0.298499882,0.306936771,0.026755182,-0.002684467,0.00479369,0.039571911,,-2.398737192,-0.847404361,0.378865987,-0.58104068,0.263832122,0.111328006
1.928009984,,1.824652195,-1.582282845,0.200917408,-1.791515176,4.743575096,2.850092649,,-0.29746446,0.297336608,0.027905667,-0.002684467,-0.003834952,0.012942963,,-2.344933748,-0.782391906,0.515616417,-0.605441332,-0.434636742,0.009150247
1.935810048,,1.822267056,-1.579968754,0.20119305,-1.791503255,4.743371487,2.850260019,,-0.300749719,0.301452786,0.033172335,-0.002684467,0.003810984,0.048416272,,-2.286646843,-0.726346612,0.585112572,-0.608491421,0.231806263,0.129628494
1.943949824,,1.819834232,-1.577630822,0.201444343,-1.791550938,4.743587017,2.850583076,,-0.296147794,0.304380149,0.034143858,-0.002588593,-0.030559774,0.03465838,,-2.425638914,-0.851888001,0.672543168,-0.600866199,-0.344659299,0.208930641
1.95184,,1.817424774,-1.575280492,0.201767534,-1.791587178,4.743467808,2.850929976,,-0.30779326,0.294626594,0.03855405,-0.001965413,0.041489389,0.041345578,,-2.163347244,-0.354206055,0.728588402,-0.613066554,0.155554205,0.179954857
1.959929856,,1.814919949,-1.572966401,0.20207876,-1.791682545,4.743551254,2.851265192,,-0.304674149,0.300455719,0.040471528,-0.001965413,-0.03868508,0.043047339,,-2.235085011,-0.56269443,0.800326347,-0.585615814,-0.272982359,0.237906426
1.967929856,,1.812463284,-1.570592229,0.202437907,-1.791682545,4.743527412,2.851600409,,-0.300494045,0.300072223,0.043859068,-0.00649545,0.04319115,0.0474815,,-2.268712282,-0.609772444,0.728588402,-0.494113356,-0.01372537,0.192155182
1.97584,,1.810053349,-1.568170373,0.202785075,-1.791658703,4.743467808,2.851994753,,-0.303792119,0.301836282,0.045648713,-0.004625911,-0.038637143,0.050861053,,-2.078158379,-0.481989264,0.661334097,-0.451412201,-0.088452391,0.109802961
1.983879936,,1.807584763,-1.565808598,0.203180179,-1.791646783,4.743647099,2.852389336,,-0.293629497,0.304904252,0.046633016,-0.002924151,0.043646548,0.057068881,,-2.504102468,-0.652366877,0.589596152,-0.455987304,-0.239431471,0.007625206
1.991810048,,1.805212021,-1.563326661,0.20361124,-1.791670624,4.74345541,2.852844,,-0.30872643,0.30109486,0.050761983,-0.002157161,-0.032381378,0.053593457,,-2.248535872,-0.464054793,0.616497874,-0.442261934,0.117428169,-0.057951566
1.999869952,,1.802766323,-1.560892884,0.203982368,-1.791658703,4.743719101,2.853262663,,-0.306029171,0.300890327,0.051580105,-0.00170176,0.033483926,0.045707837,,-2.194732428,-0.609772444,0.609772444,-0.425486475,-0.349234432,0.007625206
2.007929856,,1.80038166,-1.558410947,0.204413056,-1.791670624,4.74345541,2.853633881,,-0.305862993,0.302782238,0.053139653,-0.00139017,-0.025909895,0.052994244,,-2.315790415,-0.816019058,0.677026808,-0.407186002,0.22723113,0.132678583
2.015849984,,1.797972202,-1.555929009,0.20484449,-1.791706387,4.743766785,2.854124069,,-0.305760741,0.303319126,0.056412145,-0.001198423,0.018503644,0.06603308,,-2.167830706,-0.638916016,0.531309128,-0.366009891,-0.474287808,0.251631796
2.023949824,,1.795539379,-1.553470914,0.205371052,-1.791622941,4.743527412,2.854626656,,-0.301900208,0.302871734,0.059812468,-0.001030643,-0.021595575,0.062030349,,-2.499618769,-0.847404361,0.405767709,-0.323308736,0.205880553,0.282132626
2.031869952,,1.793082237,-1.551025216,0.205873638,-1.791622941,4.743790627,2.8551054,,-0.307486445,0.304980963,0.060771208,-0.000910801,-0.004649879,0.062653527,,-2.37183547,-0.791359127,0.430427611,-0.280607581,-0.423961461,0.237906426
2.039820032,,1.790625572,-1.548675362,0.206376597,-1.791658703,4.743563175,2.855631828,,-0.305594534,0.295585334,0.06222849,0.000191748,-0.010761835,0.070706926,,-2.333724737,-0.773424625,0.457329363,-0.224181056,0.164704442,0.12657842
2.047909888,,1.788144588,-1.54630119,0.206915513,-1.791503255,4.743742943,2.856182098,,-0.310503274,0.303114623,0.063455671,0.009515475,-0.003427488,0.068142302,,-2.344933748,-1.024507403,0.589596152,-0.21198073,-0.388885498,0.009150247
2.056,,1.785639286,-1.543963734,0.207466036,-1.791490857,4.74362278,2.85673213,,-0.30627206,0.298333704,0.067469589,0.007190535,0.033148367,0.063923858,,-2.259745121,-0.654608667,0.69271946,-0.303483188,0.134203628,0.059476607
2.063849984,,1.783110619,-1.541541402,0.207992598,-1.791419331,4.743706703,2.857306242,,-0.310592771,0.300021082,0.068134315,0.003810984,-0.003523362,0.072504565,,-2.127478123,-0.672543168,0.739797473,-0.2257061,-0.332458973,0.2257061
2.071970048,,1.780641556,-1.539143864,0.208591431,-1.79140741,4.74362278,2.857916832,,-0.308061689,0.298039705,0.071048878,0.003259709,0.040962081,0.0770346,,-2.300097704,-0.665817738,0.717379391,-0.164704442,0.05337644,0.259256989
2.079849984,,1.77808857,-1.536721532,0.209177911,-1.791311089,4.74362278,2.858515263,,-0.309173822,0.298039705,0.072736256,0.016010925,-0.037366815,0.07408648,,-2.248535872,-0.623223305,0.786875486,-0.242481545,-0.190630153,0.244006589
2.087899904,,1.775608063,-1.534360234,0.209776372,-1.791275326,4.743731022,2.85913682,,-0.308023363,0.299343586,0.074398071,0.006471482,0.04302337,0.080342248,,-2.389770031,-0.905691445,0.777908266,-0.228756174,-0.150979072,0.115903132
2.095869952,,1.773103237,-1.531926457,0.2103872,-1.791275326,4.743587017,2.859782934,,-0.3105672,0.295751512,0.076647907,0.0044821,-0.035185687,0.078304932,,-2.154379845,-0.672543168,0.668059528,-0.122003295,-0.003050082,-0.007625206
2.103859968,,1.77066946,-1.529516522,0.210997641,-1.791131798,4.743826866,2.860369444,,-0.307320267,0.296326756,0.077593863,0.01749697,0.039260324,0.07408648,,-2.208183289,-0.641157806,0.636674225,-0.237906426,-0.298908085,0.114378087
2.111869952,,1.768296719,-1.527179066,0.211644039,-1.791107957,4.74362278,2.860967159,,-0.307857156,0.297183216,0.082221374,0.005632586,-0.025742115,0.092230596,,-2.324757576,-0.737555683,0.690477669,-0.134203628,0.100652717,0.321783692
2.119859968,,1.765828133,-1.524769131,0.212326393,-1.790952031,4.743838787,2.861709118,,-0.311525941,0.295189053,0.081965707,0.026197517,0.031973913,0.084464818,,-2.38080287,-0.618739724,0.717379391,-0.204355523,-0.362959802,0.265357167
2.12788992,,1.763334751,-1.522299115,0.212984771,-1.790916268,4.743598938,2.862367153,,-0.309084356,0.298333704,0.085506648,0.010785803,-0.016178705,0.090576775,,-2.389770031,-1.006572962,0.910175085,-0.2257061,0.189105108,0.187580064
2.135820032,,1.760853767,-1.519949261,0.213643163,-1.790856187,4.743850231,2.863108873,,-0.311142445,0.296032727,0.086695485,0.00510528,0.013446301,0.093476959,,-2.297855854,-0.961736739,0.939318597,-0.033550907,-0.425486475,0.007625206
2.143869952,,1.758373261,-1.517647568,0.214409396,-1.790616814,4.743635178,2.863850355,,-0.308892608,0.294779986,0.091476388,0.023704797,-0.016178705,0.086286426,,-2.324757576,-0.889998794,0.98415482,-0.239431471,0.233331308,0.131153539
2.151820032,,1.755928516,-1.51535732,0.215103731,-1.790628735,4.743910313,2.864592314,,-0.311040163,0.293591142,0.09171927,0.006471482,0.014381071,0.097599529,,-2.483926058,-1.013298392,1.089519978,-0.032025866,-0.448362112,0.274507403
2.159869952,,1.753351212,-1.513067547,0.215857625,-1.790425126,4.743682861,2.865334272,,-0.316473037,0.290459275,0.096819758,0.031830102,-0.01160073,0.094148077,,-2.230601549,-0.668059528,0.791359127,-0.096077591,0.19978039,0.224181056
2.167869952,,1.750858307,-1.510777775,0.21662423,-1.790413205,4.743910313,2.866099358,,-0.313251674,0.29199326,0.095873803,0.009635317,0.013518206,0.104262762,,-2.226117849,-0.773424625,0.791359127,0.036600988,-0.378210217,0.062526688
2.175879936,,1.748329639,-1.50844032,0.217426047,-1.790161912,4.743766785,2.86692524,,-0.312932074,0.290062994,0.099529788,0.037870154,0.003451457,0.091847107,,-2.145412683,-0.865338862,0.851888001,0.03965107,0.167754531,-0.051851399
2.183759872,,1.745789051,-1.506150548,0.218228251,-1.790005986,4.743957996,2.867631197,,-0.306220919,0.293284357,0.102674447,0.018671423,0.010594055,0.10198576,,-2.349417448,-0.647883236,0.84292078,0.071676932,-0.364484847,0.260782033
2.19184,,1.743272305,-1.503776852,0.219066024,-1.789802853,4.743862152,2.868480206,,-0.310081452,0.292108297,0.103019595,0.031758197,0.042975433,0.104310699,,-2.351659298,-0.856371641,0.715137541,0.102177761,0.150979072,0.265357167
2.19977984,,1.740815163,-1.501426522,0.21985586,-1.789599244,4.743970394,2.86931777,,-0.311960578,0.290868342,0.104591928,0.022074943,-0.026652917,0.11121361,,-2.203699827,-0.818260849,0.887757003,0.131153539,-0.362959802,0.141828835
2.207810048,,1.738358021,-1.499077145,0.220658422,-1.789431397,4.743957996,2.870203257,,-0.313111067,0.287033379,0.108746454,0.026700854,0.045108624,0.105988488,,-2.261986732,-0.777908266,0.764457405,0.129628494,0.057951566,-0.045751236
2.215810048,,1.735913277,-1.496691052,0.221508175,-1.789264027,4.744006157,2.871016741,,-0.309710741,0.288541794,0.108516358,0.018479675,-0.026557043,0.109535821,,-2.190248966,-1.060376406,0.813777208,0.128103465,-0.268407255,0.230281219
2.22384,,1.733468533,-1.494317834,0.222370297,-1.78904802,4.74404192,2.871890068,,-0.307486445,0.287480801,0.11171215,0.03017628,0.040219061,0.111740917,,-2.436848164,-0.952769458,0.827228069,0.094552554,-0.097602636,0.2409565
2.231879936,,1.731035233,-1.491967503,0.223256007,-1.788844887,4.743946075,2.872846842,,-0.309646815,0.286419779,0.115086913,0.021619543,-0.032381378,0.121711791,,-2.418913603,-1.037958264,0.930351377,0.032025866,-0.07930214,0.07930214
2.23984,,1.728554249,-1.489677731,0.224118114,-1.78862888,4.744113922,2.873780251,,-0.314951837,0.285550535,0.115508758,0.034107104,0.042208441,0.107618347,,-2.37856102,-1.12314713,0.813777208,-0.024400659,-0.257731974,-0.035075948
2.247869952,,1.7260499,-1.48743612,0.225051761,-1.788377587,4.743957996,2.874653578,,-0.311040163,0.280935794,0.117720246,0.028474519,-0.029625006,0.124707848,,-2.369593859,-0.919142306,0.914658725,-0.097602636,0.044226196,0.330933928
2.255859968,,1.723568916,-1.485194508,0.225949839,-1.788162057,4.744233608,2.875682354,,-0.311960578,0.28222689,0.120264098,0.033124398,0.025909895,0.116606511,,-2.257503271,-1.107454419,0.800326347,-0.140303791,-0.474287808,0.210455686
2.263879936,,1.721039772,-1.48298866,0.226955011,-1.787946526,4.743957996,2.876639605,,-0.308892608,0.277906179,0.123728335,0.029193573,-0.025909895,0.126817077,,-2.210425138,-0.98415482,0.83843714,-0.175379738,0.218080893,0.065576769
2.271909888,,1.718546867,-1.480806653,0.227924988,-1.787683312,4.744221687,2.87763238,,-0.309646815,0.278110713,0.124866039,0.031206923,0.015675366,0.1159354,,-2.324757576,-0.753248334,0.914658725,-0.207405597,-0.466662616,0.181479901
2.279919872,,1.716006279,-1.478600804,0.228918552,-1.787503544,4.744066238,2.878625155,,-0.309173822,0.279670268,0.127179787,0.024423851,0.004002731,0.127632007,,-2.208183289,-0.934835017,0.724104822,-0.178429812,0.187580064,0.247056678
2.287899904,,1.713465691,-1.476383034,0.229947701,-1.787300412,4.744233608,2.879654169,,-0.308777571,0.278404742,0.127141446,0.022770029,-0.003523362,0.127727881,,-2.387528181,-0.856371641,0.708412111,-0.161654368,-0.420911372,0.118953213
2.295879936,,1.710948944,-1.474141423,0.231001183,-1.787180726,4.744137764,2.880682945,,-0.307026267,0.278660387,0.130209401,0.019750003,0.042663842,0.11876367,,-2.127478123,-0.925867736,0.479747444,-0.073201977,0.010675289,0.021350577
2.303879936,,1.708528042,-1.471935574,0.232018724,-1.786965195,4.744149685,2.88168788,,-0.304213971,0.278149068,0.128202453,0.024112262,-0.03391536,0.13252157,,-2.24629426,-1.080552697,0.596321583,-0.059476607,-0.257731974,0.335509062
2.31184,,1.706166744,-1.469705884,0.233120143,-1.786749665,4.744221687,2.882800579,,-0.304929823,0.274326891,0.129301801,0.032549158,0.041177798,0.12418054,,-2.304581165,-0.813777208,0.901207864,-0.006100165,-0.143353865,0.201305434
2.319949824,,1.703733921,-1.467439953,0.234173641,-1.786474053,4.744137764,2.883805275,,-0.306489378,0.27550295,0.129825905,0.035976645,-0.02430401,0.134486973,,-2.347175598,-0.800326347,0.762215614,0.05337644,-0.144878909,0.045751236
2.327820032,,1.701313019,-1.465186421,0.235239103,-1.786150757,4.744305134,2.884798527,,-0.306029171,0.27641055,0.130516201,0.036599826,0.036168393,0.12434832,,-2.407704592,-1.107454419,0.800326347,0.068626851,-0.254681885,0.183004946
2.335919872,,1.698892593,-1.462860409,0.236328542,-1.785899464,4.744113922,2.885887146,,-0.305760741,0.273598254,0.132791609,0.032237567,-0.031949945,0.132976964,,-2.329241276,-1.091761708,0.685994029,0.094552554,-0.021350577,0.248581707
2.343830016,,1.696447372,-1.460702721,0.237417609,-1.785635773,4.744341373,2.886963844,,-0.30325523,0.271540165,0.131653905,0.032477252,0.025909895,0.14194116,,-2.351659298,-1.210577726,0.654608667,0.050326359,-0.402610868,0.061001647
2.351899904,,1.694086552,-1.458557431,0.238471106,-1.785324399,4.744137764,2.888064623,,-0.302360415,0.269303113,0.134632379,0.033196304,-0.021955101,0.121496074,,-2.434606314,-1.286799312,1.031232834,-0.009150247,0.12657842,0.0259257
2.359909888,,1.691641331,-1.456423108,0.239572525,-1.785096947,4.744437218,2.889141321,,-0.306220919,0.267078847,0.136422023,0.03803793,0.021595575,0.139807969,,-2.333724737,-0.928109586,0.952769458,-0.094552554,-0.405660957,0.306533277
2.367849984,,1.689160824,-1.454385583,0.240745857,-1.784809415,4.744197369,2.890253544,,-0.30539,0.267206669,0.137329638,0.036839508,-0.01687379,0.145272776,,-2.275437593,-1.042441964,0.939318597,-0.140303791,0.19978039,0.122003295
2.375909888,,1.686680317,-1.452251736,0.24187088,-1.784558121,4.744449139,2.891390324,,-0.30477643,0.266043395,0.139272675,0.033148367,-0.004146542,0.130268529,,-2.214908838,-1.040200114,0.744281113,-0.179954857,-0.442261934,0.015250412
2.383919872,,1.684210777,-1.450201337,0.242960319,-1.784246747,4.744317532,2.89246726,,-0.299445838,0.262310714,0.140141934,0.033531863,0.0354014,0.144673571,,-2.212666988,-0.876547933,0.69944489,-0.141828835,0.137253702,0.286707729
2.39179008,,1.681766033,-1.44815189,0.244061738,-1.784091298,4.744425297,2.893627405,,-0.298563808,0.26392141,0.139937401,0.026197517,-0.02521481,0.149371386,,-2.344933748,-1.058134556,0.934835017,-0.09912768,-0.285182714,0.11285305
2.399859968,,1.679345131,-1.446041886,0.24521111,-1.783755604,4.744389057,2.894812107,,-0.301363319,0.263870269,0.142583519,0.035329495,0.03202185,0.132665381,,-2.093851089,-1.082794547,0.896724224,-0.03965107,0.047276277,0.016775453
2.40788992,,1.67698431,-1.443919961,0.246312156,-1.783552472,4.744437218,2.89594841,,-0.298998415,0.263550699,0.144066364,0.033435989,-0.024519725,0.155099839,,-2.349417448,-0.860855222,1.033474684,0.004575124,-0.222656012,0.324833781
2.415929856,,1.674611092,-1.441798512,0.247461513,-1.783205334,4.744472981,2.897144794,,-0.299701512,0.262758136,0.145204067,0.040866207,0.035856802,0.154548571,,-2.156621695,-1.046925545,0.869822502,0.065576769,-0.080827184,0.122003295
2.423879936,,1.672250271,-1.439724271,0.248610511,-1.782882039,4.744377136,2.898376942,,-0.293386608,0.26087901,0.147939667,0.038589206,-0.033819485,0.141557664,,-2.230601549,-1.096245408,1.015540123,0.109802961,-0.123528339,0.12047825
2.43184,,1.669913292,-1.437554661,0.249771848,-1.782534901,4.744568825,2.899549484,,-0.293629497,0.259114921,0.150010541,0.037750311,0.032381378,0.154476672,,-2.37631917,-1.067101836,0.914658725,0.083877265,-0.207405597,0.324833781
2.439909888,,1.667564869,-1.435408894,0.250956804,-1.782283608,4.744437218,2.900769472,,-0.29378289,0.257913321,0.149678186,0.033124398,-0.026868634,0.1577124,,-2.306823015,-1.239721179,1.125388861,0.11285305,-0.057951566,0.09302751
2.447810048,,1.665215969,-1.433311288,0.252154082,-1.781983678,4.744664669,2.901977777,,-0.296275616,0.255778521,0.153768793,0.036623795,0.032381378,0.147453904,,-2.304581165,-1.356295347,0.939318597,0.030500824,-0.338559151,0.146403953
2.455909888,,1.662842751,-1.431249921,0.253327042,-1.78167278,4.744484901,2.903210402,,-0.291545838,0.254628032,0.155098245,0.038709048,-0.023489082,0.154956028,,-2.349417448,-1.161257863,0.97742939,-0.065576769,0.154029161,0.257731974
2.463820032,,1.660517693,-1.429247681,0.254535943,-1.781373326,4.744724274,2.904430628,,-0.29196769,0.251713455,0.158000022,0.041753042,0.015267903,0.162865624,,-2.23956871,-1.273348451,0.957253098,-0.12047825,-0.408711046,0.03965107
2.471919872,,1.658168793,-1.427209202,0.255792797,-1.781013791,4.744520664,2.905674934,,-0.288452297,0.250090003,0.159661844,0.041393515,0.004817659,0.156729698,,-2.248535872,-1.286799312,0.818260849,-0.192155182,0.254681885,0.263832122
2.479849984,,1.655843735,-1.42529184,0.257014066,-1.780750577,4.744736195,2.906990767,,-0.288835794,0.24657464,0.160633355,0.03604855,0.013182648,0.161331639,,-2.335966587,-1.022265553,0.811535418,-0.219605923,-0.364484847,0.164704442
2.487909888,,1.653554916,-1.423325841,0.258330822,-1.780439202,4.744664669,2.908247232,,-0.289091468,0.24717544,0.162346303,0.034610443,0.044797033,0.157233045,,-2.268712282,-1.201610446,0.894482434,-0.186055019,0.181479901,-0.070151895
2.495859968,,1.651206017,-1.421396081,0.259623647,-1.780211751,4.744700432,2.909550905,,-0.287864298,0.246881425,0.163650185,0.029169604,-0.03530553,0.165094689,,-2.418913603,-1.378713489,0.934835017,-0.135728672,-0.154029161,0.301958144
2.50388992,,1.648808956,-1.419453923,0.260928035,-1.779984299,4.744879723,2.910867214,,-0.288362831,0.244427055,0.163471222,0.031949945,0.050213903,0.16571787,,-2.122994661,-1.051409125,0.831711709,0.006100165,-0.094552554,0.132678583
2.511909888,,1.64659214,-1.417560403,0.262245178,-1.779636685,4.744748116,2.912182808,,-0.283505231,0.243954077,0.165248081,0.044916876,-0.027755465,0.150785521,,-2.223875999,-1.067101836,0.677026808,0.05337644,0.030500824,0.030500824
2.519859968,,1.644351006,-1.415642564,0.263597518,-1.779278104,4.744975567,2.913510799,,-0.282981098,0.242087737,0.163778022,0.04484497,0.032381378,0.166101366,,-2.311306715,-1.138839722,0.955011308,0.09302751,-0.248581707,0.2409565
2.527899904,,1.642121792,-1.413688008,0.264998198,-1.778894726,4.744724274,2.914850712,,-0.281945676,0.241563633,0.168009251,0.040626526,-0.01625061,0.171997607,,-2.196974278,-0.98639667,0.946044028,0.073201977,0.195205271,0.012200329
2.535899904,,1.639881134,-1.411722962,0.266351283,-1.778619591,4.745023251,2.916166782,,-0.280795187,0.242509589,0.165708274,0.03679157,0.028019119,0.165478185,,-2.457024336,-1.282315612,0.907933295,0.065576769,-0.314158469,0.34160924
2.543810048,,1.63765192,-1.409792725,0.267751575,-1.778296296,4.744855881,2.917494774,,-0.280168802,0.242087737,0.168916851,0.037534595,-0.018096181,0.166484863,,-2.315790415,-1.490803957,0.600805223,-0.010675289,0.277557492,0.242481545
2.551899904,,1.635410786,-1.407850567,0.269140244,-1.777936761,4.745023251,2.918870449,,-0.277765572,0.238444537,0.166066214,0.045036718,0.008868326,0.161691174,,-2.273195982,-1.3899225,0.757731974,-0.073201977,-0.236381382,0.035075948
2.559869952,,1.633217812,-1.405932728,0.270516545,-1.777637784,4.744915962,2.92018652,,-0.275298417,0.236015737,0.167242259,0.039859533,-0.010857708,0.171901733,,-2.311306715,-1.212819457,0.941560447,-0.160129324,0.263832122,0.298908085
2.567929856,,1.63101244,-1.404051129,0.271797746,-1.777314011,4.745094776,2.921609879,,-0.276052624,0.233829811,0.166564748,0.037079193,0.009155949,0.178253368,,-2.331482887,-1.309217334,1.015540123,-0.143353865,-0.208930641,0.067101814
2.575859968,,1.628795624,-1.402180974,0.273209989,-1.777050797,4.744987488,2.922938347,,-0.277164757,0.230979159,0.168149859,0.038469363,0.034274884,0.167036131,,-2.214908838,-1.271106601,0.800326347,-0.048801318,0.257731974,0.272982359
2.58388992,,1.62656641,-1.400311295,0.274562716,-1.77670366,4.745106697,2.924301863,,-0.274416387,0.229266211,0.169607148,0.038181741,0.011648667,0.171781883,,-2.273195982,-1.221786737,0.959494889,0.02745074,-0.181479901,0.193680227
2.591820032,,1.624385357,-1.398477379,0.275927424,-1.776367966,4.745071411,2.925749779,,-0.272831261,0.226978034,0.169888377,0.045755774,0.035832833,0.171662048,,-2.253019571,-1.403373361,1.046925545,0.065576769,0.234856337,0.016775453
2.599820032,,1.622228146,-1.396667306,0.277292132,-1.775961224,4.745142937,2.927125216,,-0.266733706,0.226313308,0.171997607,0.047193881,-0.026413232,0.176359862,,-2.273195982,-1.528914809,1.185917735,0.109802961,-0.138778746,0.315683514
2.607810048,,1.62001133,-1.394857232,0.278644472,-1.77561361,4.745202541,2.928489208,,-0.26485458,0.224434182,0.172457799,0.039811596,0.050741211,0.184581041,,-2.434606314,-1.145565152,0.97294575,0.138778746,0.102177761,0.061001647
2.615820032,,1.617841721,-1.393095318,0.280009538,-1.775386159,4.745166779,2.929865122,,-0.267769128,0.222555056,0.17399177,0.035856802,-0.031302799,0.169193298,,-2.259745121,-1.26213932,1.125388861,0.146403953,-0.001525041,0.247056678
2.623970048,,1.615745068,-1.391321484,0.281397849,-1.775062863,4.745346546,2.931288719,,-0.266656995,0.220893234,0.175909251,0.03777428,0.032381378,0.179044321,,-2.297855854,-1.358537197,0.946044028,0.071676932,-0.07930214,0.190630153
2.631820032,,1.613599777,-1.389595334,0.282798499,-1.774799649,4.745202541,2.932760477,,-0.265007973,0.218771234,0.178261355,0.036575858,-0.02274606,0.172069505,,-2.24629426,-1.203852296,1.013298392,0.03965107,0.12047825,-0.024400659
2.639820032,,1.61153841,-1.387905423,0.284210771,-1.774440591,4.745453835,2.934112072,,-0.262643069,0.215332553,0.179667503,0.044916876,0.021595575,0.182112291,,-2.060223818,-1.154532433,0.937076807,-0.054901481,-0.147928998,0.268407255
2.647830016,,1.609513283,-1.386143033,0.28558746,-1.774033372,4.745262623,2.935583591,,-0.256801158,0.21636799,0.182556495,0.047289755,-0.021595575,0.188008532,,-2.362868309,-1.300250173,1.033474684,-0.167754531,0.190630153,0.004575124
2.655830016,,1.607463837,-1.384453122,0.287023693,-1.773710076,4.745525837,2.936995506,,-0.257964432,0.216010064,0.182633206,0.040938113,0.018503644,0.188104406,,-2.400979042,-1.425791502,0.952769458,-0.175379738,-0.173854694,0.387360454
2.663960064,,1.60540247,-1.382774655,0.288424343,-1.773374859,4.745310307,2.938466787,,-0.258872032,0.214297116,0.184895828,0.035856802,-0.018503644,0.186810106,,-2.264228582,-1.333877325,0.990880251,-0.118953213,0.253156841,0.157079235
2.671869952,,1.603353977,-1.381060902,0.289872557,-1.773099248,4.745633602,2.939986229,,-0.257900536,0.214361042,0.186621547,0.037055224,0.018503644,0.17949973,,-2.331482887,-1.306975603,1.167983294,-0.059476607,-0.187580064,0.18452999
2.679899904,,1.601304054,-1.379370515,0.2913571,-1.772884194,4.745370388,2.94148159,,-0.255637914,0.211356997,0.18984291,0.041249704,-0.018503644,0.184077695,,-2.250777721,-1.432516932,0.919142306,0.051851399,0.2699323,0.138778746
2.687849984,,1.599243164,-1.377740685,0.292853266,-1.772428815,4.745657921,2.943025351,,-0.252902299,0.209350035,0.188679636,0.045683868,0.016178705,0.178061619,,-2.185765266,-1.457176805,0.791359127,0.11285305,-0.160129324,-0.015250412
2.69584,,1.597265244,-1.376051251,0.294409722,-1.772105996,4.745418072,2.944544315,,-0.249054566,0.206000835,0.187989354,0.04098605,-0.01176851,0.189830124,,-2.154379845,-1.248688459,0.791359127,0.12047825,0.333984017,0.301958144
2.703869952,,1.595228672,-1.374360863,0.295929462,-1.771782223,4.745705128,2.946040154,,-0.24593547,0.204019442,0.188091621,0.037199035,0.014381071,0.192922056,,-2.279921293,-1.322668195,1.044683695,0.089977428,-0.164704442,0.059476607
2.711830016,,1.593286991,-1.372670476,0.297497898,-1.771495167,4.745525837,2.947523594,,-0.245858774,0.204505205,0.188283369,0.039547943,-0.010570087,0.185156286,,-2.250777721,-1.607378125,0.963978529,0.035075948,0.347709388,0.306533277
2.71988992,,1.591345787,-1.371064488,0.299053997,-1.771099869,4.745812893,2.948982954,,-0.243941307,0.199852139,0.188845828,0.045540057,0.014381071,0.192610472,,-2.23732686,-1.506496668,0.753248334,-0.067101814,-0.158604279,0.109802961
2.727869952,,1.589344502,-1.369434182,0.300598085,-1.770788495,4.745597839,2.950514078,,-0.240962818,0.201040968,0.189945176,0.044269729,-0.011672636,0.177438438,,-2.452540636,-1.452693224,1.062618256,-0.134203628,0.375160128,0.12047825
2.73577984,,1.587415218,-1.367840115,0.302130193,-1.770405118,4.745825291,2.952021837,,-0.240080789,0.195927694,0.18832171,0.03743872,0.009515475,0.191172361,,-2.313548565,-1.470627666,1.076069117,-0.150979072,-0.12657842,0.21350576
2.74379008,,1.585449696,-1.36626989,0.303746194,-1.770093743,4.745621681,2.953553438,,-0.235568315,0.193371072,0.190009087,0.038900796,-0.01021056,0.179787353,,-2.170072556,-1.481836796,0.8339535,-0.100652717,0.372110039,-0.015250412
2.751769856,,1.583580017,-1.364723508,0.30524233,-1.76989061,4.745896816,2.955000639,,-0.233113959,0.190686598,0.187465236,0.031830102,0.00958738,0.190956652,,-2.335966587,-1.448209643,0.854129791,-0.015250412,-0.137253702,0.285182714
2.759899904,,1.58180666,-1.363213841,0.306762844,-1.769579236,4.745729446,2.956544399,,-0.232896641,0.186276406,0.187797606,0.040434778,-0.010761835,0.193257615,,-2.270954132,-1.201610446,0.937076807,0.045751236,0.384310365,-0.02745074
2.767869952,,1.579949379,-1.361727063,0.308270961,-1.769208256,4.745909214,2.958051443,,-0.231656671,0.18772091,0.18897365,0.043718453,0.012727248,0.199129894,,-2.174556255,-1.385438919,1.176950574,0.089977428,-0.103702798,0.402610868
2.77588992,,1.578127384,-1.360253159,0.309803069,-1.768812958,4.745825291,2.959583044,,-0.229777545,0.187209576,0.188411191,0.041369546,-0.009635317,0.20150277,,-2.474958897,-1.627554417,0.946044028,0.132678583,0.385835409,0.091502473
2.783830016,,1.576270103,-1.358754937,0.311299235,-1.768537347,4.74598074,2.961126089,,-0.229394048,0.185100347,0.190878347,0.035593148,0.010953582,0.194096521,,-2.340450287,-1.531156659,1.127630711,0.115903132,-0.067101814,0.364484847
2.791830016,,1.574448586,-1.357268635,0.312795758,-1.768262211,4.745884895,2.962693453,,-0.225801975,0.182633206,0.191658124,0.038733017,0.034442663,0.201047361,,-2.264228582,-1.40785706,1.154532433,0.128103465,0.366009891,0.129628494
2.79984,,1.572687149,-1.35590202,0.314279944,-1.767938916,4.746004581,2.964213133,,-0.222516701,0.180549547,0.193102613,0.037414752,-0.025454495,0.188919336,,-2.311306715,-1.354053617,1.11866343,0.035075948,-0.051851399,0.208930641
2.807820032,,1.570925713,-1.354476277,0.315835655,-1.767591302,4.746004581,2.965815544,,-0.220241293,0.179373488,0.19748725,0.044725128,0.040123187,0.196924791,,-2.326999426,-1.493045807,1.089519978,-0.076252058,0.244006589,0.160129324
2.815800064,,1.569151402,-1.353050057,0.3173801,-1.767292325,4.746004581,2.967395306,,-0.219832242,0.177519932,0.197551161,0.040314935,-0.022242723,0.19018966,,-2.268712282,-1.437000513,0.97967124,-0.141828835,0.062526688,0.083877265
2.823919872,,1.567390442,-1.351659123,0.318924189,-1.766945187,4.746136189,2.96897459,,-0.219704404,0.173915073,0.198893398,0.041249704,0.043502737,0.198027343,,-2.143170834,-1.306975603,0.883273363,-0.195205271,0.122003295,0.218080893
2.831859968,,1.56565237,-1.350257222,0.320492268,-1.766645734,4.746064186,2.970625401,,-0.217799708,0.173838377,0.199596465,0.034778222,-0.027755465,0.191987291,,-2.212666988,-1.39664793,1.055892825,-0.192155182,0.150979072,-0.054901481
2.839800064,,1.563927174,-1.348878686,0.322072297,-1.766370122,4.746208191,2.972132683,,-0.212558612,0.173838377,0.199596465,0.028594362,0.036911413,0.200831652,,-2.331482887,-1.652214408,1.042441964,-0.131153539,-0.018300494,0.298908085
2.847830016,,1.562249184,-1.347488705,0.323687941,-1.76614267,4.746028423,2.973819494,,-0.21060279,0.170028985,0.20208919,0.031206923,-0.025909895,0.200544029,,-2.192490816,-1.723952293,0.98191303,-0.065576769,0.301958144,-0.015250412
2.85577984,,1.56055975,-1.346134488,0.325303942,-1.76592714,4.746279716,2.97543478,,-0.205847442,0.168699548,0.200440153,0.038733017,0.027395939,0.197452098,,-2.131961823,-1.661181569,0.901207864,0.016775453,-0.143353865,0.312633455
2.863879936,,1.558917999,-1.344815556,0.326967865,-1.765651528,4.746100426,2.977026224,,-0.202920094,0.165439829,0.201833531,0.036863476,-0.018863171,0.20562534,,-2.37407732,-1.468385935,1.167983294,0.082352221,0.439211845,0.045751236
2.871909888,,1.557276249,-1.34352142,0.328619808,-1.76529247,4.746351719,2.978593349,,-0.201488376,0.162895977,0.201411679,0.041513357,0.016178705,0.2023177,,-2.37407732,-1.445967793,1.042441964,0.115903132,-0.230281219,0.411761105
2.879909888,,1.55564642,-1.342154805,0.330307335,-1.764993493,4.746160507,2.980196714,,-0.201296628,0.162563622,0.202408776,0.034802191,0.036264267,0.204546764,,-2.161105394,-1.591685534,0.719621181,0.129628494,0.442261934,0.150979072
2.887899904,,1.554088593,-1.340848271,0.331983268,-1.764670197,4.74636364,2.981763601,,-0.198714435,0.160032555,0.201232716,0.036432046,-0.003739078,0.196037963,,-2.24181056,-1.688083291,1.033474684,0.045751236,-0.140303791,0.314158469
2.895810048,,1.552471161,-1.339601819,0.333634853,-1.764430825,4.746315479,2.983390808,,-0.197295502,0.155315563,0.199788213,0.038709048,0.043502737,0.201862291,,-2.333724737,-1.53339839,0.961736739,0.018300494,0.254681885,0.147928998
2.90384,,1.550984859,-1.338319604,0.335274816,-1.764071767,4.74636364,2.985006094,,-0.193869606,0.156031415,0.200708613,0.039883502,-0.025118936,0.192610472,,-2.226117849,-1.54012382,0.847404361,-0.076252058,-0.021350577,0.190630153
2.911769856,,1.549450874,-1.337096993,0.336878806,-1.763759915,4.746399403,2.986572981,,-0.189012006,0.149831578,0.198215887,0.038109835,0.039955407,0.199225768,,-2.181281567,-1.580476403,0.966220319,-0.141828835,0.102177761,0.189105108
2.919949824,,1.547976971,-1.335898701,0.338482827,-1.763496701,4.746315479,2.988176346,,-0.186902776,0.148796141,0.198893398,0.03326821,-0.025094967,0.19560653,,-2.295614004,-1.688083291,1.102970839,-0.137253702,0.09302751,0.074727021
2.927830016,,1.546478748,-1.334724251,0.340026557,-1.763316933,4.746519566,2.989791632,,-0.185765073,0.147159889,0.199992746,0.030391995,0.032381378,0.2033723,,-2.360626459,-1.784481168,1.082794547,-0.076252058,-0.07930214,0.239431471
2.935810048,,1.545052528,-1.333561246,0.341618955,-1.76306564,4.746375561,2.991442442,,-0.18194291,0.14507623,0.20082365,0.029960563,-0.021595575,0.194959372,,-2.306823015,-1.656697989,1.098487139,-0.028975783,0.207405597,-0.044226196
2.943879936,,1.54355526,-1.332434956,0.343174666,-1.762814347,4.746603012,2.993009806,,-0.179552451,0.144206986,0.200631902,0.031158986,0.025909895,0.207183287,,-2.311306715,-1.457176805,1.020023823,0.033550907,-0.179954857,0.306533277
2.951759872,,1.542164803,-1.331272427,0.344754696,-1.762574498,4.746387482,2.994637012,,-0.181623325,0.140269756,0.203162983,0.036527921,-0.025909895,0.206344396,,-2.223875999,-1.461660504,1.181434155,0.061001647,0.362959802,-0.006100165
2.959970048,,1.540690899,-1.330205743,0.346334755,-1.762251202,4.746698856,2.996275663,,-0.178836599,0.140845001,0.204236761,0.035377432,0.014764566,0.206943601,,-2.279921293,-1.596169114,1.044683695,0.100652717,-0.272982359,0.29738304
2.96784,,1.53931284,-1.32912666,0.347950757,-1.761987988,4.746542931,2.997903109,,-0.174183518,0.138019919,0.207726568,0.032501221,0.004649879,0.208142027,,-2.214908838,-1.672390699,1.069343686,0.144878909,0.41328615,-0.012200329
2.975909888,,1.537910938,-1.328048054,0.349590331,-1.761712376,4.746770859,2.999590158,,-0.17161411,0.135514423,0.207522035,0.034059167,0.00958738,0.214613512,,-2.232843399,-1.627554417,1.082794547,0.137253702,-0.17080462,0.38278535
2.983769856,,1.536580563,-1.326993767,0.351254284,-1.761473004,4.746614933,3.001312971,,-0.166245177,0.132331416,0.208225116,0.028905952,0.033124398,0.212791905,,-2.210425138,-1.40113163,1.042441964,0.129628494,0.315683514,0.067101814
2.99188992,,1.535238266,-1.325938527,0.35290584,-1.761233632,4.746806622,3.002940178,,-0.163854718,0.130618468,0.210781753,0.030487869,0.011744541,0.211521581,,-2.161105394,-1.513222098,1.12314713,0.059476607,-0.152504116,0.375160128
2.999820032,,1.534004211,-1.324872319,0.354546189,-1.760969941,4.746675015,3.004686832,,-0.159546793,0.128688201,0.210129812,0.032069787,0.032836776,0.212743968,,-2.297855854,-1.549091101,0.950527668,0.010675289,0.250106752,0.050326359
3.007759872,,1.532721519,-1.323913399,0.356245697,-1.760694806,4.746830463,3.006337643,,-0.157667667,0.12797235,0.210487738,0.033244241,-0.02459163,0.211976975,,-2.38080287,-1.762063146,0.748764753,-0.077777103,-0.157079235,0.372110039
3.01588992,,1.531439781,-1.322894398,0.357993156,-1.760443036,4.746818066,3.008072376,,-0.158127859,0.125786424,0.208685309,0.034035198,0.035665054,0.212288573,,-2.273195982,-1.81810832,1.172466874,-0.146403953,0.196730316,0.114378087
3.023859968,,1.530193329,-1.321899716,0.359692663,-1.760167901,4.746842384,3.009675741,,-0.158063933,0.122744031,0.209273338,0.031973913,-0.025933864,0.201622605,,-2.082642078,-1.773272157,1.033474684,-0.173854694,-0.100652717,0.305008233
3.031810048,,1.528946877,-1.320940797,0.361404151,-1.759928528,4.746938229,3.01132679,,-0.151774615,0.121184483,0.209490642,0.028091025,0.040051281,0.212144762,,-2.24629426,-1.667907,0.773424625,-0.18452999,-0.004575124,0.111328006
3.039869952,,1.527712822,-1.319994275,0.363151997,-1.759808842,4.746842384,3.012965679,,-0.151288852,0.118090957,0.20786719,0.021763353,-0.023129554,0.197571933,,-2.347175598,-1.524431229,1.185917735,-0.118953213,0.041176111,0.233331308
3.047849984,,1.526502609,-1.319035355,0.364839137,-1.759581391,4.747069836,3.014616966,,-0.145485297,0.116582543,0.207777709,0.021883195,0.042831622,0.212791905,,-2.365110159,-1.587201834,1.051409125,-0.123528339,-0.108277924,0.144878909
3.055879936,,1.525328159,-1.318124596,0.366574973,-1.759449784,4.746926308,3.016292095,,-0.144552127,0.11553432,0.208851486,0.01795237,-0.021595575,0.195822239,,-2.248535872,-1.726194143,0.784633696,-0.036600988,0.114378087,0.161654368
3.063849984,,1.524189949,-1.31721336,0.368214935,-1.759258095,4.747141361,3.017906904,,-0.140154719,0.112555839,0.206473812,0.025142904,0.021595575,0.212288573,,-2.118510962,-1.699292421,0.869822502,-0.021350577,-0.303483188,0.163179412
3.071949824,,1.52306366,-1.316350762,0.369902462,-1.759090726,4.74696207,3.019509792,,-0.134798571,0.108580276,0.206422687,0.029984532,-0.014381071,0.196349546,,-2.203699827,-1.730677724,0.990880251,0.056426525,0.208930641,0.147928998
3.079859968,,1.522020817,-1.315475766,0.371506125,-1.758815114,4.747213364,3.021197081,,-0.134057134,0.107442573,0.206115887,0.032645032,0.018503644,0.209028855,,-2.286646843,-1.730677724,0.934835017,0.091502473,-0.332458973,0.195205271
3.087769856,,1.520954132,-1.314588849,0.373218,-1.758575741,4.747034073,3.02288413,,-0.131193712,0.102981247,0.205169931,0.029097699,-0.009395633,0.202653244,,-2.331482887,-1.605136395,1.141081572,0.123528339,0.221130967,0.146403953
3.09579008,,1.519936085,-1.313725773,0.374821991,-1.758384053,4.747261524,3.024582624,,-0.127652764,0.102469921,0.205847442,0.025238778,0.010953582,0.209628075,,-2.315790415,-1.649972558,1.1164217,0.115903132,-0.329408884,0.163179412
3.103800064,,1.519012928,-1.312898938,0.376473576,-1.758156125,4.747094154,3.026233673,,-0.12921232,0.098801151,0.210065886,0.020924458,-0.010570087,0.199801013,,-2.181281567,-1.750854015,1.138839722,0.152504116,0.236381382,0.105227843
3.11188992,,1.517970562,-1.312144105,0.37810117,-1.757928673,4.747285366,3.027944803,,-0.12554355,0.097829625,0.210053101,0.023776703,-0.026940539,0.209963635,,-2.188007116,-1.723952293,1.201610446,0.044226196,-0.320258647,0.19978039
3.119919872,,1.51697588,-1.311376874,0.37974152,-1.757869069,4.747249126,3.02959609,,-0.122667335,0.094506003,0.212878183,0.014405039,0.044509415,0.204067394,,-2.277679443,-1.853977323,0.98639667,0.122003295,0.108277924,0.073201977
3.128,,1.516029358,-1.310681645,0.381405085,-1.75767738,4.747237206,3.03122282,,-0.120967172,0.093176551,0.213888064,0.025861958,-0.037031256,0.211713329,,-2.318032026,-1.988485932,0.943802238,-0.03965107,-0.147928998,0.224181056
3.135859968,,1.515058994,-1.309878651,0.383080631,-1.757485692,4.74733305,3.032933712,,-0.116876557,0.090236425,0.21300602,0.016825853,0.04319115,0.200040683,,-2.315790415,-2.024354935,1.100728989,0.01372537,-0.111328006,-0.03965107
3.14384,,1.514123917,-1.309231583,0.384744197,-1.757282082,4.747213364,3.034632683,,-0.114115387,0.086439818,0.213402301,0.032261536,-0.025909895,0.212480322,,-2.333724737,-1.896571755,1.028990984,-0.138778746,0.10675288,0.2409565
3.151859968,,1.513237476,-1.308464352,0.386443704,-1.757150475,4.747488499,3.036343813,,-0.109590143,0.075395159,0.213440642,0.012631373,0.021595575,0.204067394,,-2.201457977,-1.784481168,0.925867736,-0.041176111,-0.332458973,-0.045751236
3.159879936,,1.512386322,-1.307793442,0.388143599,-1.756958787,4.747261524,3.038102627,,-0.104873158,0.082183026,0.212878183,0.02861833,-0.016178705,0.212408409,,-2.23732686,-1.712743282,1.11866343,-0.161654368,0.18452999,0.25620693
3.167849984,,1.511595249,-1.307206456,0.389891028,-1.756803338,4.747524738,3.039825439,,-0.102265388,0.080572344,0.21422042,0.014812503,0.018503644,0.202797055,,-2.273195982,-1.580476403,1.067101836,-0.10675288,-0.361434758,-0.03965107
3.175869952,,1.510732651,-1.30654699,0.39169842,-1.756695573,4.74733305,3.041452169,,-0.102533832,0.078233019,0.214118153,0.016298547,-0.025909895,0.21255222,,-2.268712282,-1.67687428,0.941560447,-0.035075948,0.234856337,0.340084195
3.183800064,,1.509930134,-1.305971924,0.393469453,-1.756563965,4.747572422,3.043139219,,-0.09797024,0.074295804,0.21060279,0.018503644,0.015891083,0.209891722,,-2.277679443,-1.708259583,0.824986279,-0.163179412,-0.405660957,0.050326359
3.191820032,,1.509198666,-1.305360619,0.395216912,-1.756515805,4.747441292,3.044826508,,-0.093981892,0.072429463,0.21179162,0.006735135,0.004146542,0.211905077,,-2.309064865,-1.755337715,0.993122101,0,0.233331308,0.291282862
3.19984,,1.508468151,-1.304761235,0.39694038,-1.756324116,4.747596741,3.04652524,,-0.090709396,0.07085713,0.21027042,0.026365295,-0.027851339,0.209340453,,-2.261986732,-1.849493742,0.921384156,-0.097602636,-0.29738304,0.004575124
3.207879936,,1.507761002,-1.304173772,0.398676217,-1.756276433,4.747632504,3.04817605,,-0.086618781,0.068389982,0.209631264,0.007190535,0.04796087,0.216459081,,-2.286646843,-1.836042881,0.824986279,-0.022875618,0.012200329,0.394985676
3.215820032,,1.507053852,-1.303658787,0.400351763,-1.756168667,4.747536659,3.04988718,,-0.086951144,0.066766515,0.208992109,0.028977858,-0.038637143,0.215476379,,-2.297855854,-1.930198908,1.026749253,0.089977428,-0.038126029,0.048801318
3.223960064,,1.506406784,-1.303107564,0.402015716,-1.756024663,4.747728348,3.051502466,,-0.083895966,0.063494019,0.20694679,0.01176851,0.025909895,0.211018234,,-2.201457977,-1.871911764,1.132114291,-0.077777103,-0.32788384,0.329408884
3.231800064,,1.505735397,-1.302663628,0.403667271,-1.756012742,4.747512817,3.053189516,,-0.080521211,0.060592242,0.208851486,0.005848302,-0.026461169,0.21763353,,-2.194732428,-1.833801031,0.9751876,0.154029161,0.190630153,0.018300494
3.239899904,,1.505088806,-1.302208726,0.405270934,-1.755761449,4.747787952,3.054852486,,-0.079000011,0.058904864,0.207470909,0.021595575,0.018503644,0.213702708,,-2.154379845,-1.667907,1.028990984,-0.03965107,-0.443786979,0.38278535
3.24779008,,1.504453659,-1.301729027,0.406946838,-1.755761449,4.747524738,3.056539297,,-0.074474767,0.055619586,0.20784162,0.006543387,-0.010953582,0.219479099,,-2.154379845,-1.589443684,1.167983294,0.157079235,0.250106752,0.057951566
3.255830016,,1.503854275,-1.301285569,0.408562452,-1.755617921,4.747764111,3.058190346,,-0.072953574,0.051401142,0.208046153,0.026029738,-0.027467845,0.211401731,,-2.163347244,-1.573750973,1.096245408,0.047276277,-0.335509062,0.312633455
3.263859968,,1.503303051,-1.300902669,0.410166115,-1.755522076,4.747692585,3.059901237,,-0.067559071,0.050851464,0.212379649,0.007621967,0.039236356,0.219814658,,-2.188007116,-1.627554417,1.129872561,0.134203628,0.048801318,0.03965107
3.271899904,,1.502776146,-1.300543133,0.41181767,-1.755413834,4.747656345,3.061564446,,-0.062790945,0.048946772,0.212302953,0.023944482,-0.035473306,0.217849255,,-2.261986732,-1.681357861,1.098487139,0.201305434,-0.115903132,0.404135913
3.279820032,,1.502284527,-1.300134961,0.413457632,-1.755270783,4.747823715,3.063347101,,-0.059377842,0.045278002,0.212788701,0.014381071,0.042280346,0.21844846,,-2.248535872,-1.694808722,1.089519978,0.048801318,-0.222656012,0.09302751
3.287820032,,1.501841068,-1.299775426,0.415121585,-1.755294625,4.747608662,3.06499815,,-0.056258745,0.045009553,0.215843886,0.005177185,-0.032381378,0.21514082,,-2.277679443,-1.81810832,1.111938,0.166229486,0.147928998,0.353809565
3.29584,,1.501386166,-1.299416367,0.416797131,-1.755246464,4.747907639,3.06673336,,-0.053382531,0.042900331,0.214399382,0.003595268,0.014548849,0.216914475,,-2.273195982,-1.795690298,0.963978529,0.244006589,-0.411761105,0.056426525
3.30377984,,1.500954628,-1.299104516,0.418496639,-1.75515062,4.747704506,3.068468094,,-0.051490624,0.039589487,0.215971723,0.009946907,0.006639261,0.213822544,,-2.255261421,-1.82035017,0.748764753,0.074727021,0.234856337,0.390410542
3.311859968,,1.500583172,-1.298804585,0.420244098,-1.755091015,4.747919559,3.070226669,,-0.046492402,0.038937546,0.214169294,0.004458132,-0.004314321,0.211281896,,-2.255261421,-1.865186334,1.129872561,0.147928998,-0.344659299,0.134203628
3.319909888,,1.500199318,-1.298528973,0.422003508,-1.755102936,4.747835636,3.07190156,,-0.044383179,0.034578484,0.212839842,0.002876214,0.031734228,0.204307079,,-2.217150688,-1.943649769,0.98191303,0.169279575,0.07930214,0.288232774
3.327810048,,1.499864101,-1.29824144,0.423738986,-1.755126778,4.747835636,3.073576689,,-0.040855024,0.033427998,0.212290168,0.002708435,-0.028858015,0.213942394,,-2.179039955,-1.981760502,0.800326347,0.18452999,-0.108277924,0.125053376
3.33584,,1.499540329,-1.297990147,0.425486058,-1.755114857,4.748003483,3.075215578,,-0.038004376,0.031037545,0.211216375,0.002708435,0.04319115,0.198123217,,-2.114027262,-2.019871235,1.152290583,0.178429812,-0.190630153,0.22723113
3.343769856,,1.499276638,-1.297738377,0.427269459,-1.755114857,4.747811794,3.076854706,,-0.035677839,0.028953888,0.211318642,0.002708435,-0.034730285,0.212791905,,-2.069191217,-2.057981968,1.076069117,0.195205271,0.102177761,0.164704442
