Junhao2000/UR5-final-year-project/Final report/Matlab_script/circle_movement_150mms.csv
Time,Position->,Joint 1,Joint 2,Joint 3,Joint 4,Joint 5,Joint 6,Velocity->,Joint 1,Joint 2,Joint 3,Joint 4,Joint 5,Joint 6,Current->,Joint 1,Joint 2,Joint 3,Joint 4,Joint 5,Joint 6
0,,1.951129436,-1.720362965,0.508521736,-1.786054913,4.748458385,3.156660557,,1.28E-05,-0.003796603,0,0,0,0,,-1.132114291,-1.766546726,-0.058287073,-0.2409565,0.065576769,-0.154029161
0.008119808,,1.951141834,-1.720399205,0.508509755,-1.78601915,4.748458385,3.156636715,,1.28E-05,-0.003004046,0,0,0,0,,-1.037958264,-1.795690298,-0.156926736,-0.254681885,0.064051732,-0.189105108
0.016009984,,1.951201439,-1.720387284,0.508497775,-1.786054913,4.748470306,3.156600714,,0.005893043,-0.002237055,-0.002019741,0,0,-0.003523362,,-1.129872561,-1.979518771,-0.28246814,-0.236381382,0.068626851,-0.228756174
0.024029952,,1.951225281,-1.720471207,0.508449852,-1.786042992,4.748494148,3.15651679,,0.004180098,-0.007810519,-0.00584191,0,0,-0.008628642,,-1.215061307,-1.802415729,-0.224181056,-0.244006589,0.065576769,-0.195205271
0.032,,1.95126152,-1.720446889,0.508413911,-1.786042992,4.748434067,3.156540871,,0.002428803,-0.003758253,-0.004857606,0,0,-0.00680704,,-0.930351377,-1.997453213,-0.28246814,-0.231806263,0.068626851,-0.169279575
0.040079872,,1.951345444,-1.720555131,0.508365989,-1.786091153,4.748470306,3.156456947,,0.012348546,-0.014917963,-0.012271847,0,0,-0.003691141,,-1.172466874,-2.098334789,-0.392316848,-0.196730316,0.061001647,-0.271457344
0.048039936,,1.951405048,-1.720674817,0.508282423,-1.785995309,4.748458385,3.156325579,,0.007337542,-0.012553076,-0.010763432,0,0,-0.023489082,,-0.961736739,-1.901055336,-0.304886222,-0.176904783,0.047276277,-0.074727021
0.056019968,,1.951488972,-1.720783059,0.508162618,-1.786054913,4.748482227,3.156289577,,0.016209064,-0.017781394,-0.014892397,0,0,-0.008077368,,-1.212819457,-2.049014807,-0.497681946,-0.146403953,0.042701155,-0.181479901
0.064039936,,1.951572895,-1.720890824,0.50804317,-1.786042992,4.748470306,3.156182051,,0.011185277,-0.015033012,-0.015109711,0,0,-0.032261536,,-0.957253098,-1.912264347,-0.41249314,-0.11285305,0.028975783,-0.262307078
0.072119808,,1.951668739,-1.721070592,0.507923305,-1.78601915,4.748458385,3.155978203,,0.015122495,-0.021220068,-0.019750003,0,0,-0.012559468,,-1.028990984,-1.999695063,-0.547001779,-0.086927347,0.032025866,-0.09302751
0.08,,1.951848984,-1.721214596,0.507779479,-1.786007229,4.748446465,3.155846834,,0.018292721,-0.019302592,-0.022127673,0,0,-0.039356194,,-1.049167395,-1.887604475,-0.547001779,-0.056426525,0.0259257,-0.161654368
0.08809984,,1.951981068,-1.721394364,0.507588506,-1.786031071,4.748470306,3.155631542,,0.020171847,-0.023086412,-0.024466993,0,0,-0.020876521,,-1.067101836,-1.95710063,-0.668059528,-0.001525041,0.016775453,-0.042701155
0.095990016,,1.952112675,-1.721610848,0.507385135,-1.785923306,4.748446465,3.155404091,,0.021220068,-0.024415862,-0.028570393,0,0,-0.035928708,,-0.993122101,-1.871911764,-0.683752239,0.042701155,0.01372537,0.028975783
0.104069888,,1.952328205,-1.721814458,0.507181764,-1.785851304,4.748458385,3.155188799,,0.021462949,-0.025924277,-0.029503565,0.00958738,0,-0.028210867,,-0.990880251,-1.910022616,-0.789117336,-0.071676932,0.001525041,-0.024400659
0.111990016,,1.952447891,-1.722041909,0.506942093,-1.785851304,4.748458385,3.154901505,,0.025349034,-0.028225247,-0.033095635,0.004625911,0,-0.031039143,,-1.002089262,-1.842768312,-0.84292078,-0.030500824,-0.007625206,0.030500824
0.120079872,,1.952663898,-1.722269837,0.50667882,-1.785863225,4.748446465,3.154662371,,0.023022495,-0.030206639,-0.035959069,0.002924151,0,-0.039667785,,-0.961736739,-1.845010042,-0.97967124,0.02745074,-0.006100165,-0.051851399
0.128,,1.952831745,-1.722545926,0.506367981,-1.785791222,4.748458385,3.154339075,,0.028007934,-0.032213598,-0.039755668,0.002372877,0,-0.041297641,,-0.925867736,-1.894329906,-0.999847531,0.073201977,-0.01372537,-0.09912768
0.136059904,,1.953107357,-1.722773377,0.506056368,-1.785671536,4.748446465,3.154016256,,0.027049195,-0.034003243,-0.041826542,0.01176851,0,-0.043646548,,-0.874306142,-1.851735473,-1.020023823,-0.042701155,-0.012200329,-0.160129324
0.14404992,,1.953310966,-1.723025624,0.50573355,-1.785707776,4.748458385,3.153717041,,0.031242076,-0.034910847,-0.045367483,0.00479369,0,-0.042472094,,-0.863097072,-1.831559181,-1.035716534,0.006100165,-0.021350577,-0.22723113
0.152069888,,1.953539371,-1.723325555,0.505374432,-1.785623852,4.748434067,3.153370142,,0.029861493,-0.036726058,-0.048742242,0.01222391,0,-0.041944791,,-0.84516257,-1.757579446,-0.959494889,0.076252058,-0.033550907,-0.286707729
0.160089856,,1.953803062,-1.723685567,0.504991651,-1.785516087,4.748434067,3.153035164,,0.033824276,-0.04020308,-0.052845638,0.012942963,0,-0.048631988,,-0.820502639,-1.773272157,-0.923625946,-0.102177761,-0.030500824,-0.253156841
0.168,,1.954102039,-1.724008862,0.504536629,-1.785528008,4.748410225,3.152616262,,0.035920717,-0.041545313,-0.053957775,0.004961469,0,-0.056229986,,-0.896724224,-1.699292421,-0.937076807,0.010675289,-0.061001647,-0.141828835
0.176089856,,1.954377651,-1.724368397,0.504129946,-1.785408322,4.748386383,3.152149677,,0.037045635,-0.044229779,-0.058572501,0.024351945,0,-0.058578894,,-0.930351377,-1.616345406,-0.905691445,-0.028975783,-0.071676932,0
0.184019968,,1.95465374,-1.72474033,0.503662884,-1.785348241,4.748362541,3.151719093,,0.037454698,-0.046415702,-0.06014483,0.008077368,0,-0.055007596,,-0.863097072,-1.510980368,-0.83619535,-0.109802961,-0.071676932,0.03965107
0.192089856,,1.955025196,-1.725076501,0.503183901,-1.785312478,4.74835062,3.151240349,,0.039269909,-0.047029294,-0.062535286,0.004745753,-0.001126517,-0.059226044,,-0.896724224,-1.636521697,-0.771182835,0.0259257,-0.071676932,-0.073201977
0.200059904,,1.955288887,-1.725460354,0.502681673,-1.785133187,4.74835062,3.150701761,,0.04149418,-0.049100168,-0.066766515,0.027276097,-0.001126517,-0.072456628,,-0.892240584,-1.68584156,-0.748764753,-0.175379738,-0.054901481,-0.169279575
0.208009984,,1.95562458,-1.725843732,0.502142787,-1.785073105,4.748374462,3.150151253,,0.043552272,-0.049355835,-0.068530597,0.008077368,-0.001126517,-0.061814636,,-0.907933295,-1.737403154,-0.800326347,-0.082352221,-0.062526688,-0.234856337
0.216079872,,1.955984116,-1.726263348,0.501556277,-1.784941498,4.748362541,3.149672747,,0.045073468,-0.052040298,-0.071381241,0.026173549,-0.001126517,-0.067207538,,-0.98415482,-1.750854015,-0.824986279,-0.123528339,-0.050326359,-0.291282862
0.224089856,,1.956356049,-1.726731126,0.500994146,-1.784821335,4.748362541,3.149086237,,0.047374442,-0.054123957,-0.075165063,0.008628642,-0.001126517,-0.075452685,,-0.999847531,-1.793448448,-0.795842767,-0.193680227,-0.073201977,-0.17080462
0.232069888,,1.956739426,-1.727175061,0.500407696,-1.784761731,4.748338699,3.148488283,,0.049483664,-0.055990301,-0.075395159,0.014261228,-0.001126517,-0.076459356,,-1.091761708,-1.824833751,-0.762215614,-0.097602636,-0.070151895,-0.001525041
0.239980032,,1.957111359,-1.72766668,0.499773651,-1.784594361,4.748362541,3.147913694,,0.046671368,-0.058457453,-0.07921733,0.016178705,-0.001126517,-0.075236969,,-1.017781973,-1.833801031,-0.674784958,-0.288232774,-0.065576769,-0.042701155
0.248089856,,1.95750618,-1.728086297,0.499115258,-1.784581963,4.748338699,3.147207737,,0.049931075,-0.060042568,-0.075395159,0.005392902,-0.001102549,-0.088563427,,-1.040200114,-1.898813486,-0.818260849,-0.123528339,-0.077777103,-0.154029161
0.256009984,,1.957901955,-1.728602235,0.498456895,-1.784438435,4.748338699,3.146585703,,0.051541757,-0.06222849,-0.075395159,0.028498488,-0.000958738,-0.077082537,,-1.026749253,-1.831559181,-0.795842767,-0.260782033,-0.07930214,-0.234856337
0.263959808,,1.958285809,-1.729117695,0.497762918,-1.784426514,4.748374462,3.145963669,,0.052474927,-0.064120397,-0.087845966,0.006471482,-0.000862864,-0.088131994,,-0.950527668,-1.81362474,-0.634432375,-0.176904783,-0.097602636,-0.2257061
0.271949824,,1.958669186,-1.729621236,0.497020662,-1.784306351,4.748302937,3.14519763,,0.054226223,-0.067009397,-0.090990625,0.026365295,-0.00076699,-0.090049468,,-0.959494889,-1.714985013,-0.802568197,-0.108277924,-0.125053376,0.024400659
0.280039936,,1.959124565,-1.730149094,0.496314704,-1.7841633,4.748230934,3.144503832,,0.054954864,-0.068095967,-0.075395159,0.01176851,-0.00076699,-0.087772466,,-0.865338862,-1.708259583,-0.878789723,-0.282132626,-0.118953213,-0.042701155
0.287990016,,1.959591866,-1.730713193,0.495584428,-1.784150902,4.748230934,3.143773794,,0.056987386,-0.069502115,-0.094122507,0.00479369,-0.008628642,-0.105389275,,-0.867580712,-1.777755737,-0.791359127,-0.073201977,0.007625206,-0.236381382
0.296089856,,1.960047722,-1.731264416,0.494830906,-1.783923451,4.748291016,3.142960548,,0.056923471,-0.07235276,-0.095963284,0.021044299,0.001605886,-0.087916277,,-0.881031573,-1.706017852,-0.659092307,-0.215030804,-0.07930214,-0.29738304
0.303959808,,1.960479259,-1.731864278,0.494041085,-1.783959214,4.748195171,3.142182589,,0.059838034,-0.073516034,-0.098200336,0.008077368,-0.001438107,-0.106180236,,-0.854129791,-1.739645004,-0.816019058,-0.115903132,-0.132678583,-0.167754531
0.312059904,,1.960970402,-1.73247606,0.493238866,-1.783827607,4.748158932,3.141381264,,0.062011175,-0.074934959,-0.102201469,0.028186899,-0.010785803,-0.104023077,,-0.98191303,-1.82035017,-0.811535418,0.054901481,0.074727021,-0.036600988
0.319969792,,1.961425781,-1.733087365,0.492401093,-1.783672635,4.748279095,3.140543699,,0.062522501,-0.078130759,-0.104796454,0.014381071,0.016178705,-0.112459973,,-0.955011308,-2.010904074,-0.809293628,-0.150979072,-0.268407255,-0.19978039
0.328019968,,1.961917877,-1.733662907,0.49155134,-1.783660714,4.748075008,3.139646053,,0.06504079,-0.076788522,-0.108260699,0.005824334,-0.010282465,-0.097911119,,-1.078310847,-2.037805796,-0.930351377,0.10675288,0.17080462,-0.250106752
0.335980032,,1.96245718,-1.734358613,0.490606099,-1.783372704,4.748291016,3.138820648,,0.065206967,-0.080610693,-0.111098558,0.021595575,-0.004577974,-0.116199046,,-1.105212569,-1.95710063,-0.901207864,-0.091502473,-0.375160128,-0.181479901
0.34409984,,1.962996483,-1.734969918,0.489708394,-1.783289258,4.748111248,3.137863398,,0.065616027,-0.081671692,-0.113399535,0.015076156,0.004577974,-0.11234013,,-1.11417985,-1.829317451,-0.744281113,0.154029161,0.176904783,-0.028975783
0.351969792,,1.963511944,-1.735653702,0.488810718,-1.783049885,4.748158932,3.136918068,,0.068326063,-0.085008107,-0.11625018,0.024711473,-0.042855591,-0.124492131,,-1.102970839,-1.849493742,-0.656850517,-0.006100165,-0.276032448,-0.244006589
0.360059904,,1.964039326,-1.736301247,0.487817526,-1.78289396,4.748207092,3.135996819,,0.06964273,-0.085749529,-0.11991895,0.018503644,0.041105893,-0.110590436,,-1.058134556,-1.667907,-0.647883236,0.175379738,0.010675289,-0.279082537
0.367969792,,1.964614391,-1.737033192,0.486824334,-1.782678429,4.748099327,3.135063648,,0.072557293,-0.086043544,-0.121823646,0.025909895,-0.041944791,-0.129189953,,-1.035716534,-1.564783812,-0.84516257,0.048801318,-0.111328006,-0.108277924
0.376029952,,1.965201855,-1.737704579,0.485794812,-1.782582585,4.748242855,3.133998871,,0.070793211,-0.088446781,-0.12585035,0.01315868,0.033771548,-0.12547484,,-0.98191303,-1.504254937,-0.961736739,0.195205271,-0.196730316,-0.088452391
0.384039936,,1.96581316,-1.738459889,0.484765649,-1.782390896,4.747943878,3.132921696,,0.072199367,-0.089328818,-0.128176883,0.025646243,-0.033483926,-0.125498801,,-0.957253098,-1.690325141,-0.887757003,0.02745074,0.135728672,-0.221130967
0.392059904,,1.966424465,-1.739131753,0.483664602,-1.782319371,4.748254776,3.13188076,,0.074538685,-0.088370077,-0.130912483,0.014668692,0.016178705,-0.136740014,,-0.997605681,-1.771030307,-0.829469919,0.176904783,-0.391935587,-0.187580064
0.39993984,,1.967023849,-1.739863221,0.4826231,-1.782103841,4.74796772,3.130779982,,0.073106967,-0.08883027,-0.131411031,0.024184167,-0.016178705,-0.126865014,,-1.006572962,-1.802415729,-0.809293628,-0.010675289,0.21350576,0.033550907
0.408,,1.967647076,-1.740582768,0.481486112,-1.781924073,4.748207092,3.129678965,,0.076583989,-0.090798885,-0.135987401,0.018959045,0.010689929,-0.144266099,,-1.102970839,-1.775514007,-0.950527668,0.064051732,-0.391935587,-0.22723113
0.416019968,,1.968234539,-1.741254632,0.480409026,-1.781720463,4.748027802,3.12850666,,0.074858263,-0.092793055,-0.137508601,0.025718147,-0.016538231,-0.139088914,,-1.087278128,-1.735161424,-1.145565152,-0.073201977,0.175379738,-0.279082537
0.424029952,,1.968870163,-1.742021863,0.479320318,-1.781576935,4.748099327,3.127358198,,0.075855352,-0.093636744,-0.143107623,0.023848608,-0.041824948,-0.129597411,,-1.174708724,-1.728435993,-1.089519978,-0.044226196,-0.398035735,0.036600988
0.431949824,,1.969492912,-1.742837731,0.478123397,-1.781337563,4.748075008,3.126173496,,0.075548552,-0.094595484,-0.146111667,0.026652917,0.041105893,-0.152079821,,-1.138839722,-1.578234673,-1.028990984,-0.158604279,0.05337644,-0.221130967
0.44,,1.970128536,-1.743569199,0.476938844,-1.781121556,4.747943878,3.124989033,,0.074666515,-0.096410692,-0.148872837,0.026748791,-0.044988781,-0.152942687,,-1.098487139,-1.647730708,-0.856371641,-0.166229486,-0.086927347,-0.236381382
0.448019968,,1.970727921,-1.744324986,0.475729913,-1.780930344,4.748158932,3.123732805,,0.074755996,-0.096589662,-0.155200511,0.020876521,0.035880771,-0.147022471,,-1.028990984,-1.739645004,-0.966220319,-0.207405597,-0.276032448,0.003050082
0.456019968,,1.971315384,-1.745104138,0.474568963,-1.780738656,4.747799873,3.122476339,,0.074346937,-0.097637877,-0.154970407,0.024903221,-0.032381378,-0.160324961,,-1.006572962,-1.853977323,-1.165741444,-0.179954857,0.208930641,-0.2699323
0.464029952,,1.971962452,-1.745896165,0.47331211,-1.780510728,4.748147011,3.121184349,,0.077312633,-0.097088203,-0.165043548,0.017880464,0.021595575,-0.166245177,,-0.988638461,-1.941407919,-1.078310847,-0.181479901,-0.552064896,-0.268407255
0.472009984,,1.972561836,-1.746723477,0.472043663,-1.780474965,4.747883797,3.11986804,,0.075165063,-0.10027121,-0.165669933,0.017664747,-0.013326459,-0.167275816,,-0.97742939,-1.840526462,-0.97967124,-0.143353865,0.19978039,-0.123528339
0.48004992,,1.973124981,-1.747538869,0.470738858,-1.780271355,4.747979641,3.118540049,,0.07617493,-0.099874936,-0.170732066,0.017808558,-0.049638662,-0.157928124,,-0.946044028,-1.748612285,-1.096245408,-0.117428169,-0.436161786,-0.259256989
0.487959808,,1.973760128,-1.748354737,0.469386518,-1.780139748,4.747943878,3.117187977,,0.076954708,-0.102265388,-0.173940644,0.019318571,0.042280346,-0.170823142,,-1.022265553,-1.654456139,-1.111938,-0.061001647,-0.007625206,-0.030500824
0.496039936,,1.97437191,-1.74914581,0.467974633,-1.779984299,4.747823715,3.115812063,,0.080521211,-0.101702929,-0.178517014,0.024615599,-0.040171124,-0.180506408,,-1.044683695,-1.571509242,-1.080552697,-0.030500824,-0.111328006,-0.265357167
0.503949824,,1.975018978,-1.749937836,0.466574341,-1.77978069,4.748003483,3.114448071,,0.078974448,-0.10135778,-0.182582065,0.027995151,0.035545211,-0.179403856,,-1.033474684,-1.479594946,-0.997605681,0.044226196,-0.271457344,-0.309583366
0.512059904,,1.975654602,-1.75074083,0.465150088,-1.779457394,4.747704506,3.113012314,,0.079089493,-0.100654706,-0.183796465,0.032884713,-0.019030949,-0.183310717,,-1.024507403,-1.553574681,-1.051409125,0.068626851,0.144878909,-0.09912768
0.519980032,,1.976277828,-1.75158054,0.463653952,-1.779241864,4.747979641,3.111528873,,0.079127841,-0.100360692,-0.191006184,0.028666267,0.014596786,-0.180003062,,-1.044683695,-1.735161424,-0.773424625,0.111328006,-0.523089111,-0.253156841
0.528039936,,1.976924896,-1.752347771,0.462133825,-1.779014889,4.747776031,3.110044956,,0.081019752,-0.100565225,-0.191491947,0.02583799,-0.016010925,-0.184005797,,-1.055892825,-1.802415729,-0.988638461,0.125053376,0.132678583,0.067101814
0.535959808,,1.977584362,-1.753175561,0.460578114,-1.778894726,4.747859955,3.108525276,,0.081403248,-0.100168951,-0.197436109,0.020852553,-0.046163235,-0.190740928,,-1.069343686,-1.708259583,-0.995363891,0.109802961,-0.472762764,-0.204355523
0.544029952,,1.978230953,-1.754026715,0.458998084,-1.778631512,4.747811794,3.106981993,,0.082157455,-0.101702929,-0.198637739,0.026005769,0.041489389,-0.201287046,,-0.921384156,-1.730677724,-1.040200114,0.071676932,0.059476607,-0.044226196
0.55188992,,1.978878498,-1.754806821,0.457346499,-1.778511826,4.747704506,3.10536623,,0.082259722,-0.102060854,-0.200708613,0.019270634,-0.051699948,-0.202653244,,-0.997605681,-1.663423419,-0.876547933,0.032025866,-0.192155182,-0.237906426
0.560019968,,1.979562283,-1.755622212,0.455694914,-1.778248135,4.747907639,3.103786945,,0.081275418,-0.10209921,-0.203623176,0.032309473,0.036288235,-0.208046153,,-0.959494889,-1.584960103,-1.094003558,0.007625206,-0.288232774,-0.076252058
0.56804992,,1.98019743,-1.756450001,0.454031348,-1.778068844,4.747584343,3.102076292,,0.083461337,-0.103390306,-0.20482479,0.024184167,-0.025909895,-0.215859875,,-1.011056542,-1.645488977,-1.145565152,-0.086927347,0.172329649,-0.301958144
0.575990016,,1.980844498,-1.757301633,0.452236354,-1.777817074,4.747871876,3.100413084,,0.084177196,-0.102572188,-0.209899709,0.033076461,0.011385014,-0.215260655,,-1.073827267,-1.755337715,-0.952769458,-0.10675288,-0.501738548,-0.228756174
0.584059904,,1.981515408,-1.758140866,0.450560808,-1.777637784,4.747608662,3.09865427,,0.084113285,-0.102342084,-0.209848583,0.024064325,-0.011984225,-0.217777342,,-1.161257863,-1.788964868,-0.872064292,-0.138778746,0.143353865,-0.231806263
0.592029952,,1.982187271,-1.758944337,0.44883731,-1.777421776,4.747764111,3.096931219,,0.081633344,-0.101498395,-0.216010064,0.027635625,-0.005153217,-0.221180871,,-1.181434155,-1.838284612,-1.208335876,-0.100652717,-0.477337897,-0.218080893
0.599969792,,1.982834816,-1.75978357,0.447137803,-1.777230088,4.747644424,3.095148563,,0.081147589,-0.101549529,-0.218029812,0.02274606,0.00371511,-0.223290086,,-1.165741444,-1.786723018,-1.100728989,-0.09912768,0.08540231,-0.301958144
0.608059904,,1.983481407,-1.760587517,0.445330441,-1.777038876,4.747608662,3.093365908,,0.079460204,-0.101754062,-0.220100686,0.025742115,-0.041872885,-0.226525828,,-1.132114291,-1.620828986,-1.053650975,-0.022875618,-0.291282862,-0.21350576
0.616039936,,1.984128952,-1.76137859,0.443654895,-1.776823346,4.747680187,3.091571331,,0.077363767,-0.100654706,-0.22310473,0.023608925,0.025142904,-0.22681345,,-1.076069117,-1.53339839,-1.345086336,0.006100165,-0.12047825,-0.251631796
0.623949824,,1.984728336,-1.762218301,0.441895455,-1.776572053,4.747536659,3.089788198,,0.074538685,-0.098634966,-0.229777545,0.03326821,-0.035641085,-0.234627157,,-0.968462169,-1.53564024,-1.275590181,0.054901481,-0.167754531,-0.077777103
0.63209984,,1.985327244,-1.762974087,0.440028548,-1.776356045,4.747680187,3.0879457,,0.074909396,-0.099389173,-0.235389352,0.027995151,0.034226947,-0.238174498,,-0.957253098,-1.481836796,-1.219544888,0.089977428,-0.178429812,-0.280607581
0.640019968,,1.985902786,-1.763801877,0.438197196,-1.776092831,4.747453213,3.0860672,,0.073017485,-0.096960373,-0.239761204,0.032597095,-0.032381378,-0.242249131,,-0.939318597,-1.569267392,-1.1164217,0.094552554,-0.015250412,-0.05337644
0.647929856,,1.986478806,-1.764605347,0.436258376,-1.775853459,4.747668266,3.084129572,,0.073081404,-0.097637877,-0.243890166,0.024327977,0.021595575,-0.237527341,,-0.892240584,-1.652214408,-1.185917735,0.175379738,-0.356859624,-0.239431471
0.656059904,,1.987065792,-1.765324895,0.434319556,-1.775661771,4.747393131,3.08220315,,0.073758908,-0.095873803,-0.24807027,0.024783378,-0.021595575,-0.244190574,,-0.952769458,-1.67911613,-1.12314713,0.128103465,0.070151895,-0.054901481
0.664,,1.987628937,-1.766104523,0.432272494,-1.77544624,4.747632504,3.080252886,,0.073209234,-0.094506003,-0.252275944,0.018743329,0.014381071,-0.246827111,,-1.020023823,-1.587201834,-0.948285878,0.19978039,-0.455987304,-0.254681885
0.672019968,,1.98825264,-1.76686031,0.430285752,-1.775290791,4.74733305,3.078243017,,0.073234804,-0.094672181,-0.252493232,0.02303368,-0.016178705,-0.259985775,,-1.098487139,-1.625312686,-1.172466874,0.105227843,0.105227843,-0.195205271
0.679980032,,1.988803864,-1.76756746,0.428215086,-1.775111024,4.747560501,3.07618475,,0.07222493,-0.093304381,-0.256596655,0.020325245,0.016178705,-0.261567712,,-1.037958264,-1.531156659,-1.210577726,0.128103465,-0.45446226,-0.155554205
0.687959808,,1.989378929,-1.768310849,0.426084906,-1.774931256,4.747261524,3.074090958,,0.071048878,-0.092447914,-0.26058498,0.019965719,-0.017520938,-0.252291918,,-1.011056542,-1.434758782,-0.968462169,-0.003050082,0.080827184,-0.262307078
0.696059904,,1.989906788,-1.769030873,0.423906386,-1.774715726,4.747465134,3.071973324,,0.070742086,-0.091271862,-0.264177054,0.030847397,-0.005273059,-0.267967284,,-0.946044028,-1.54460752,-1.210577726,0.030500824,-0.504788637,-0.080827184
0.703959808,,1.990445614,-1.769810502,0.421776205,-1.774524514,4.747201443,3.069819689,,0.06964273,-0.090747751,-0.264509439,0.025478464,-0.012247878,-0.263197571,,-0.84292078,-1.681357861,-1.107454419,-0.077777103,0.083877265,-0.228756174
0.712119808,,1.991009235,-1.770518128,0.419537753,-1.774297063,4.747357368,3.067618608,,0.069681078,-0.086989492,-0.267564595,0.031566449,0.009060075,-0.27283287,,-0.865338862,-1.690325141,-0.97967124,-0.117428169,-0.443786979,-0.2699323
0.719990016,,1.991560936,-1.771177594,0.417419553,-1.774033372,4.747153282,3.065404892,,0.067955352,-0.086478166,-0.267360061,0.026676886,-0.010761835,-0.274750352,,-0.937076807,-1.708259583,-1.331635475,-0.183004946,0.035075948,-0.103702798
0.728009984,,1.992052555,-1.771861855,0.415277004,-1.773830239,4.747285366,3.063179493,,0.067507938,-0.084560692,-0.273572683,0.026389264,-0.030823428,-0.269908726,,-0.995363891,-1.697050571,-1.12314713,-0.175379738,-0.455987304,-0.237906426
0.735990016,,1.992591858,-1.772532765,0.413170397,-1.773626153,4.747141361,3.06090641,,0.066613115,-0.083729789,-0.277088076,0.023752734,-0.012128036,-0.277003378,,-1.098487139,-1.627554417,-1.302491903,-0.149454042,0.007625206,-0.160129324
0.743949824,,1.993131161,-1.773240391,0.411015868,-1.773470704,4.747201443,3.058740854,,0.065871693,-0.080073796,-0.282111853,0.018455707,-0.031782165,-0.281701207,,-1.199368596,-1.481836796,-1.333877325,-0.131153539,-0.41328615,-0.219605923
0.752069888,,1.993646622,-1.773828332,0.408825755,-1.773327176,4.747069836,3.056491375,,0.063698553,-0.079639174,-0.285435468,0.01888714,-0.011696604,-0.279040694,,-1.250930309,-1.273348451,-1.367504478,-0.086927347,0.01372537,-0.263832122
0.760009984,,1.994113922,-1.774487797,0.406539738,-1.773135487,4.74712944,3.05419445,,0.059518456,-0.075292893,-0.292300045,0.020325245,-0.031422637,-0.289466977,,-1.244204879,-1.282315612,-1.322668195,-0.064051732,-0.352284521,-0.175379738
0.768059904,,1.994569302,-1.775051896,0.404217809,-1.772980038,4.747010231,3.051897287,,0.056565542,-0.071227841,-0.295662016,0.022722092,0.004506069,-0.293565571,,-1.228512168,-1.331635475,-1.329393625,0.004575124,0.01372537,-0.230281219
0.776,,1.995001316,-1.775626961,0.40188387,-1.77278835,4.747010231,3.049528122,,0.053855509,-0.070550337,-0.29989326,0.020756679,-0.0456599,-0.290353805,,-1.154532433,-1.385438919,-1.085036278,0.021350577,-0.298908085,-0.245531633
0.784,,1.995480537,-1.77619106,0.399490029,-1.772608582,4.746973991,3.047159672,,0.052283179,-0.065322019,-0.302258134,0.02924151,0.02583799,-0.299030393,,-1.163499713,-1.416824222,-1.190401435,0.158604279,-0.012200329,-0.143353865
0.792019968,,1.995840073,-1.7766946,0.396988332,-1.772381131,4.746926308,3.044802427,,0.048333179,-0.063494019,-0.305760741,0.02583799,-0.045348309,-0.305741549,,-1.129872561,-1.484078527,-1.194885015,0.097602636,-0.21198073,-0.111328006
0.79993984,,1.99622345,-1.777198617,0.394463032,-1.772201363,4.746854305,3.042325974,,0.046019424,-0.059838034,-0.305952489,0.021523669,-0.008293084,-0.300180882,,-1.132114291,-1.569267392,-1.125388861,0.141828835,-0.021350577,-0.236381382
0.808029952,,1.996583462,-1.777653996,0.391793907,-1.772022072,4.746830463,3.039920807,,0.041800976,-0.056463279,-0.309033215,0.021164142,-0.042280346,-0.314394176,,-1.044683695,-1.596169114,-1.306975603,0.12047825,-0.254681885,-0.305008233
0.816089856,,1.996931076,-1.77807409,0.389244646,-1.771914307,4.746770859,3.037384748,,0.040215865,-0.054443534,-0.309570104,0.012655342,0.020037625,-0.314322263,,-1.008814693,-1.506496668,-1.134356141,0.141828835,-0.001525041,-0.154029161
0.823980032,,1.997242451,-1.778505627,0.386694998,-1.771817986,4.746722698,3.034848213,,0.03625308,-0.050698068,-0.313136607,0.01871936,-0.044125918,-0.310966671,,-1.013298392,-1.479594946,-1.298008323,0.117428169,-0.17080462,-0.250106752
0.83193984,,1.997542381,-1.778901402,0.38422963,-1.771626774,4.746663094,3.03233552,,0.034489002,-0.047502272,-0.314120919,0.018503644,-0.008173241,-0.307730943,,-1.053650975,-1.405615211,-1.181434155,0.045751236,0.022875618,-0.301958144
0.840019968,,1.997794151,-1.779273335,0.381728292,-1.77153093,4.746650696,3.029787302,,0.032814406,-0.044408746,-0.31483677,0.013805828,-0.04098605,-0.319499463,,-1.11417985,-1.412340641,-1.437000513,0.080827184,-0.276032448,-0.163179412
0.847969792,,1.998057365,-1.779585187,0.379298121,-1.771363084,4.746519566,3.027286768,,0.027164243,-0.04027978,-0.319464296,0.020109531,-0.008796422,-0.319211841,,-1.091761708,-1.412340641,-1.432516932,-0.036600988,0.073201977,-0.08540231
0.856009984,,1.998309135,-1.77992088,0.376772821,-1.771255318,4.74657917,3.024702311,,0.028161332,-0.037914891,-0.323529333,0.014381071,-0.002972088,-0.32132104,,-1.147807002,-1.383197069,-1.345086336,-0.035075948,-0.358384669,-0.254681885
0.863959808,,1.99848938,-1.780196969,0.37422353,-1.771052186,4.746399403,3.022178173,,0.020977188,-0.034846932,-0.327658296,0.024040356,-0.011217235,-0.324964255,,-1.172466874,-1.286799312,-1.434758782,-0.059476607,0.146403953,-0.259256989
0.872009984,,1.998657227,-1.780520741,0.37163794,-1.770932023,4.746459484,3.019557714,,0.020389162,-0.030206639,-0.331685007,0.018359832,-0.035880771,-0.331363827,,-1.11417985,-1.277832031,-1.329393625,-0.157079235,-0.318733603,-0.18452999
0.879990016,,1.998788834,-1.780748669,0.368944854,-1.77086002,4.746339798,3.016937971,,0.015007446,-0.025949841,-0.334765762,0.007310377,-0.01145692,-0.335989743,,-1.138839722,-1.217303157,-1.25989747,-0.050326359,0.141828835,-0.169279575
0.88793984,,1.998932838,-1.780892674,0.366311699,-1.770704571,4.74636364,3.014305592,,0.014930747,-0.018625084,-0.335622221,0.020373182,-0.036503952,-0.330860496,,-1.154532433,-1.25541389,-1.327151895,-0.22723113,-0.288232774,-0.18452999
0.895949824,,1.999064446,-1.781036202,0.36357069,-1.77069265,4.746267796,3.011602163,,0.007989484,-0.016656475,-0.33647868,0.007621967,0.003810984,-0.328008235,,-1.228512168,-1.206094027,-1.190401435,-0.181479901,0.178429812,-0.274507403
0.90393984,,1.999112606,-1.781156365,0.360746145,-1.770633046,4.746243954,3.008909702,,0.007350325,-0.010763432,-0.339917362,0.004314321,-0.047505468,-0.339537084,,-1.129872561,-1.190401435,-1.354053617,-0.082352221,-0.135728672,-0.216555849
0.911959808,,1.999088764,-1.78121597,0.357957184,-1.770500962,4.746255875,3.006146193,,0.006276538,-0.006851781,-0.339508295,0.019678097,0.033459958,-0.334887207,,-1.354053617,-1.170225143,-1.143323421,-0.260782033,0.048801318,-0.047276277
0.920009984,,1.999088764,-1.781180207,0.355180234,-1.770500962,4.746064186,3.003382683,,-0.000677508,-0.002786732,-0.337987095,0.006159892,-0.030751523,-0.343180269,,-1.526672959,-1.087278128,-1.378713489,-0.230281219,0.094552554,-0.169279575
0.928029952,,1.999076843,-1.781132046,0.352487147,-1.77047712,4.746232033,3.000595331,,-0.000677508,0.010034791,-0.340070754,0.003499394,0.027419908,-0.339417219,,-1.67687428,-0.685994029,-1.102970839,-0.154029161,-0.03965107,-0.242481545
0.935969792,,1.999028683,-1.781072442,0.34979406,-1.770512883,4.745992661,2.997855425,,-0.010034791,0.007529289,-0.340633214,0.002444782,-0.032381378,-0.343827426,,-1.757579446,-0.84067893,-1.39664793,-0.154029161,0.161654368,-0.333984017
0.94393984,,1.998932838,-1.780988518,0.347136557,-1.770441357,4.746136189,2.995103598,,-0.008973788,0.018037058,-0.344097465,0.001869539,0.025909895,-0.348597139,,-1.903297186,-0.381107807,-1.365262628,-0.157079235,-0.204355523,-0.22723113
0.952059904,,1.998836994,-1.780844514,0.344467461,-1.77047712,4.745849133,2.99232769,,-0.020964405,0.019750003,-0.344877243,0.001510012,-0.025909895,-0.345744908,,-2.060223818,-0.55821085,-1.439242363,-0.164704442,0.298908085,-0.137253702
0.959959808,,1.998692989,-1.780664746,0.341714442,-1.77047712,4.746064186,2.989624262,,-0.017627995,0.02320146,-0.34958145,0.001270328,0.018503644,-0.346439987,,-1.970551491,-0.304886222,-1.371988058,-0.18452999,-0.233331308,-0.234856337
0.968039936,,1.99848938,-1.780484502,0.338937491,-1.770465199,4.745765209,2.986860275,,-0.025924277,0.029874276,-0.351741791,0.001102549,-0.016178705,-0.344186962,,-2.031080246,-0.378865987,-1.098487139,-0.216555849,0.233331308,-0.228756174
0.975949824,,1.998285294,-1.780280892,0.336124927,-1.770465199,4.745944977,2.984120846,,-0.025310684,0.034552917,-0.354157835,0.000958738,0.019126823,-0.351233691,,-2.022113085,-0.325062543,-1.311459184,-0.231806263,-0.157079235,-0.303483188
0.98404992,,1.998069763,-1.779945199,0.333240122,-1.77042896,4.745669365,2.981297255,,-0.030487869,0.038860846,-0.351268828,0.000862864,-0.018048244,-0.352168441,,-2.116269112,-0.221939251,-1.239721179,-0.288232774,0.253156841,-0.176904783
0.992019968,,1.997817993,-1.779585187,0.330367267,-1.77042896,4.745861053,2.978545427,,-0.034629617,0.046927031,-0.352074176,0.00076699,0.012942963,-0.350107163,,-2.10730195,-0.183828458,-1.497529507,-0.32788384,-0.260782033,-0.088452391
1.000059904,,1.997506619,-1.77920181,0.327410519,-1.770441357,4.7455616,2.975686073,,-0.039947417,0.051618453,-0.352138072,0.000695085,-0.028450551,-0.353918135,,-2.09160924,-0.170377597,-1.174708724,-0.372110039,0.2257061,-0.18452999
1.008039936,,1.997170925,-1.778781716,0.32449013,-1.770489041,4.745729446,2.972814798,,-0.044319261,0.059160527,-0.352534354,0.000647148,0.018503644,-0.349627793,,-2.069191217,-0.188312083,-1.374229908,-0.446837068,-0.28365767,-0.216555849
1.016069888,,1.996799469,-1.778205697,0.32171315,-1.770549122,4.745453835,2.969967365,,-0.048269264,0.064337716,-0.347306043,-0.000143811,-0.012799153,-0.341838032,,-2.120752811,-0.289193571,-1.132114291,-0.500213504,0.201305434,-0.329408884
1.023990016,,1.996343613,-1.777653996,0.318971753,-1.770656888,4.745633602,2.967155933,,-0.053906642,0.072033182,-0.342474014,-0.010785803,0.010809772,-0.3465119,,-2.149896383,-0.41473496,-1.338360906,-0.372110039,-0.291282862,-0.244006589
1.032009984,,1.995935917,-1.777078454,0.316398531,-1.770644967,4.745358467,2.964440346,,-0.055760201,0.075880915,-0.339290977,-0.004625911,-0.012942963,-0.337931186,,-2.257503271,-0.432669431,-1.329393625,-0.477337897,0.141828835,-0.103702798
1.039949824,,1.995456696,-1.77640659,0.313705444,-1.770740334,4.7455616,2.961784124,,-0.059838034,0.081467167,-0.340326428,-0.012152005,0.017712684,-0.343491882,,-2.38304472,-0.266775459,-1.349569917,-0.555114985,-0.193680227,-0.160129324
1.047969792,,1.994965076,-1.775723282,0.311047941,-1.770812337,4.745262623,2.959068537,,-0.066574767,0.085225418,-0.339354903,-0.01176851,-0.025909895,-0.335989743,,-2.448057175,-0.127783194,-1.291282892,-0.379735261,0.138778746,-0.233331308
1.056009984,,1.994401455,-1.775027577,0.308306932,-1.77089626,4.745453835,2.956400394,,-0.071253411,0.091271862,-0.337872058,-0.005656554,0.015148061,-0.336085618,,-2.465991497,-0.089672424,-1.179192305,-0.550539851,-0.228756174,-0.329408884
1.064,,1.99383831,-1.774236027,0.30566141,-1.771052186,4.745166779,2.953756094,,-0.076762959,0.09632121,-0.333679169,-0.023417177,-0.025094967,-0.339345336,,-2.414429903,0.017934484,-1.165741444,-0.372110039,0.122003295,-0.193680227
1.072,,1.9931674,-1.773576562,0.302980304,-1.771039788,4.745346546,2.95114851,,-0.083026715,0.103364743,-0.328859925,-0.007190535,0.020948427,-0.331699401,,-2.468233347,0.008967242,-1.145565152,-0.475812852,-0.263832122,-0.132678583
1.079929856,,1.992519856,-1.77267677,0.30029884,-1.771231476,4.745094776,2.948516369,,-0.088076063,0.10835018,-0.32335037,-0.033819485,-0.021595575,-0.321177244,,-2.414429903,-0.154684931,-1.165741444,-0.42701152,0.12657842,-0.242481545
1.088029952,,1.991800785,-1.771741215,0.297617733,-1.771375004,4.745274544,2.945944309,,-0.095758751,0.114690632,-0.323529333,-0.016178705,0.022961777,-0.317150533,,-2.259745121,-0.215213805,-1.176950574,-0.381260306,-0.289757818,-0.263832122
1.096019968,,1.991021156,-1.77079374,0.294972241,-1.771579091,4.744987488,2.943347931,,-0.099274129,0.120762639,-0.315680474,-0.032764871,-0.021595575,-0.319379598,,-2.149896383,-0.251082778,-1.109696269,-0.35533461,0.146403953,-0.207405597
1.103969792,,1.990218639,-1.769846265,0.292398632,-1.77173454,4.745178699,2.940787792,,-0.104949854,0.127256498,-0.313481778,-0.020636836,0.018503644,-0.315592587,,-2.152138233,-0.253324598,-1.26438117,-0.279082537,-0.276032448,-0.09302751
1.112019968,,1.989343166,-1.768719021,0.289920509,-1.771914307,4.744927883,2.938275576,,-0.108235128,0.134057134,-0.30779326,-0.02521481,-0.018503644,-0.309983969,,-2.266470432,-0.015692674,-1.017781973,-0.292807907,0.096077591,-0.231806263
1.119990016,,1.988528252,-1.767616097,0.287586212,-1.772057835,4.745142937,2.935787201,,-0.112491928,0.138288364,-0.305198282,-0.018192055,0.018839203,-0.310343504,,-2.338208437,-0.114332341,-1.351811767,-0.245531633,-0.201305434,-0.349234432
1.127990016,,1.987593174,-1.766512219,0.28524065,-1.772249047,4.744915962,2.933394194,,-0.115636587,0.143964097,-0.296774149,-0.022674154,-0.021595575,-0.306172997,,-2.304581165,-0.159168556,-1.306975603,-0.308058321,0.03965107,-0.175379738
1.135980032,,1.986682415,-1.765324895,0.282942325,-1.772441212,4.745023251,2.931001425,,-0.119982868,0.149396956,-0.303140163,-0.023393208,0.016993631,-0.301451206,,-2.161105394,-0.237631917,-1.365262628,-0.309583366,-0.12047825,-0.208930641
1.144029952,,1.985735416,-1.764125649,0.280620009,-1.77258474,4.744891644,2.928656578,,-0.121900342,0.153577045,-0.29805246,-0.026796728,-0.030703586,-0.291384459,,-2.24181056,-0.217455626,-1.365262628,-0.407186002,-0.144878909,-0.276032448
1.152009984,,1.984704494,-1.762866322,0.27822578,-1.772919957,4.744927883,2.92629981,,-0.127882868,0.157948896,-0.298589379,-0.034898065,0.025334653,-0.296465755,,-2.145412683,0.011209053,-1.295766473,-0.430061609,-0.128103465,-0.160129324
1.159980032,,1.983673573,-1.761618916,0.275867492,-1.773183171,4.744771957,2.924002647,,-0.129391283,0.161796629,-0.289462179,-0.029984532,-0.044773065,-0.293325901,,-2.273195982,-0.049319834,-1.028990984,-0.504788637,-0.082352221,-0.132678583
1.167909888,,1.98259449,-1.760288064,0.273593128,-1.773374859,4.744891644,2.921729803,,-0.134939179,0.167600185,-0.28772366,-0.031902008,0.024783378,-0.283978194,,-2.365110159,-0.116574146,-1.190401435,-0.518513978,-0.239431471,-0.276032448
1.176169984,,1.981503487,-1.758944337,0.271306753,-1.773602311,4.744700432,2.919420958,,-0.138441771,0.172739029,-0.281549394,-0.027084349,-0.035665054,-0.281868994,,-2.322515726,-0.27350089,-1.033474684,-0.600866199,-0.041176111,-0.094552554
1.184009984,,1.980389118,-1.757493321,0.268996805,-1.773854081,4.744879723,2.917207479,,-0.143184319,0.178133518,-0.277356505,-0.028067056,0.02861833,-0.280191183,,-2.297855854,-0.123299584,-1.237479448,-0.585615814,-0.306533277,-0.144878909
1.191980032,,1.97923851,-1.756042306,0.266722411,-1.774057213,4.744580746,2.915006161,,-0.147453904,0.182888865,-0.273201972,-0.032573126,-0.025909895,-0.274534643,,-2.268712282,0.04035259,-1.096245408,-0.617641687,0.059476607,-0.306533277
1.200059904,,1.978027821,-1.75454313,0.264447659,-1.774320904,4.744760036,2.912888765,,-0.152899534,0.192373976,-0.269009113,-0.035329495,0.018503644,-0.272209704,,-2.250777721,-0.152443111,-0.818260849,-0.527664244,-0.38278535,-0.166229486
1.208019968,,1.97676897,-1.752923791,0.262305111,-1.774608437,4.744497299,2.910699368,,-0.158741444,0.195774302,-0.263499558,-0.038469363,-0.021595575,-0.259506404,,-2.279921293,-0.27350089,-1.134356141,-0.484963089,0.059476607,-0.257731974
1.215980032,,1.975498199,-1.751340691,0.260150194,-1.774955098,4.744700432,2.908557892,,-0.161042422,0.200734168,-0.256826729,-0.039811596,0.021331921,-0.266097754,,-2.259745121,-0.369898736,-1.067101836,-0.375160128,-0.41328615,-0.291282862
1.223990016,,1.974143982,-1.749721352,0.258163065,-1.77527887,4.74446106,2.906536102,,-0.163215563,0.202715561,-0.250652462,-0.037510626,-0.021595575,-0.258547664,,-2.24181056,-0.188312083,-1.170225143,-0.280607581,0.074727021,-0.190630153
1.232079872,,1.972873211,-1.748030488,0.256199896,-1.775530163,4.744664669,2.904502153,,-0.167791933,0.205233857,-0.250294536,-0.032165661,0.018000307,-0.247258544,,-2.226117849,-0.172619417,-1.26438117,-0.257731974,-0.541389644,-0.257731974
1.239909888,,1.971495152,-1.746375863,0.254236728,-1.775781457,4.744425297,2.902516365,,-0.170732066,0.210053101,-0.245641455,-0.029936595,0.004913533,-0.240523398,,-2.205941677,-0.334029764,-1.111938,-0.291282862,0.057951566,-0.015250412
1.248,,1.970116138,-1.744720761,0.252357453,-1.776057069,4.744532585,2.900614262,,-0.174234658,0.213670745,-0.241180137,-0.035952676,-0.003355583,-0.237215757,,-2.257503271,-0.226422861,-1.232995749,-0.32788384,-0.486488134,-0.251631796
1.256009984,,1.968690395,-1.742994134,0.250489771,-1.776344124,4.744389057,2.89868784,,-0.177136436,0.220075116,-0.239684507,-0.039667785,0.028043088,-0.237455443,,-2.351659298,0.024659917,-1.185917735,-0.402610868,0.004575124,-0.12047825
1.264,,1.967227936,-1.741218869,0.248610511,-1.776715581,4.744425297,2.896797657,,-0.182479799,0.225086123,-0.237473011,-0.04501275,-0.041824948,-0.23469907,,-2.329241276,-0.14123407,-1.071585417,-0.457512349,-0.373635083,-0.216555849
1.271929856,,1.965729237,-1.73943216,0.246766806,-1.777026955,4.744413376,2.894991398,,-0.18837285,0.230033204,-0.233689189,-0.038661111,0.031135017,-0.237455443,,-2.199216127,-0.161410362,-1.141081572,-0.536814511,-0.10675288,-0.285182714
1.27993984,,1.964146614,-1.737561051,0.244911507,-1.777374093,4.744329453,2.893136978,,-0.191351324,0.234098256,-0.229777545,-0.040626526,-0.04319115,-0.22892268,,-2.387528181,0.038110778,-0.988638461,-0.565790296,-0.257731974,-0.25620693
1.287909888,,1.962636948,-1.735629861,0.243128091,-1.777697388,4.744425297,2.891378164,,-0.196183369,0.236923337,-0.225584656,-0.039092544,0.032285504,-0.227892026,,-2.300097704,-0.161410362,-1.085036278,-0.547489762,-0.2409565,-0.29738304
1.295969792,,1.961030483,-1.733759228,0.241356298,-1.778008763,4.744185448,2.889607906,,-0.198714435,0.241090655,-0.220420256,-0.038756985,-0.025909895,-0.222379282,,-2.210425138,-0.318337113,-0.966220319,-0.538339555,-0.007625206,-0.196730316
1.303919872,,1.959448338,-1.731828515,0.239608482,-1.778320138,4.744329453,2.887884855,,-0.201616213,0.245206833,-0.215255857,-0.044030044,0.025190841,-0.216986388,,-2.129719973,-0.047078021,-0.824986279,-0.459037393,-0.317208558,-0.276032448
1.311929856,,1.957853794,-1.729825322,0.237896606,-1.778703038,4.744102001,2.886234045,,-0.20477365,0.251713455,-0.208851486,-0.041944791,-0.025909895,-0.209771886,,-2.340450287,-0.062770694,-1.080552697,-0.370584995,-0.024400659,-0.260782033
1.319929856,,1.956260204,-1.727774922,0.23614879,-1.77902681,4.744329453,2.884595156,,-0.208225116,0.256532729,-0.205873013,-0.036336172,0.018503644,-0.206032798,,-2.403220892,-0.248840973,-0.988638461,-0.29738304,-0.408711046,-0.221130967
1.327949824,,1.954569817,-1.725675408,0.234461248,-1.779278104,4.744102001,2.882991791,,-0.213849708,0.257913321,-0.199340805,-0.035593148,-0.021595575,-0.200711802,,-2.24629426,-0.163652167,-0.894482434,-0.364484847,-0.003050082,-0.219605923
1.335959808,,1.952879906,-1.723625008,0.232808933,-1.77952892,4.744281292,2.881448984,,-0.219832242,0.263205528,-0.192373976,-0.040578589,0.024687504,-0.193665087,,-2.37407732,-0.190553904,-0.901207864,-0.474287808,-0.408711046,-0.158604279
1.343959808,,1.951081753,-1.721478287,0.23132439,-1.779960457,4.743970394,2.87985754,,-0.223245338,0.265928358,-0.186033517,-0.048631988,-0.025909895,-0.183286741,,-2.463749886,-0.392316848,-1.154532433,-0.561215162,0.059476607,-0.253156841
1.351959808,,1.949271679,-1.719307725,0.229792282,-1.780355279,4.744269371,2.878326178,,-0.229266211,0.267999232,-0.182722688,-0.043958139,0.014740597,-0.179403856,,-2.205941677,-0.316095293,-1.042441964,-0.565790296,-0.56731534,0.012200329
1.359949824,,1.947449684,-1.717149083,0.228415594,-1.780702416,4.743982315,2.876866817,,-0.227732241,0.269878358,-0.17584534,-0.034466632,-0.009946907,-0.173867136,,-2.158863544,-0.13899225,-0.952769458,-0.622216821,0.0259257,-0.224181056
1.36793984,,1.945651531,-1.71501476,0.226990968,-1.780930344,4.744125843,2.875431061,,-0.228818804,0.275170594,-0.174132392,-0.033819485,0.012535499,-0.176024303,,-2.351659298,-0.28022632,-1.013298392,-0.654242694,-0.498688459,-0.030500824
1.376,,1.943758011,-1.712724034,0.225662217,-1.781229798,4.743934155,2.874055386,,-0.233574152,0.276295513,-0.168354392,-0.040290967,-0.012535499,-0.176887169,,-2.394253731,-0.069496125,-1.172466874,-0.635942161,0.003050082,-0.263832122
1.384019968,,1.941852093,-1.710481469,0.224357426,-1.781552617,4.744125843,2.872751474,,-0.238917515,0.283083379,-0.167689666,-0.041992724,0.009779128,-0.160804331,,-2.284404993,-0.224181056,-1.064859986,-0.547489762,-0.497163415,-0.312633455
1.392029952,,1.939909935,-1.708178822,0.223052651,-1.781852547,4.743862152,2.871423244,,-0.245692596,0.285499394,-0.161809415,-0.042663842,-0.014716629,-0.162434191,,-2.257503271,-0.479747444,-0.999847531,-0.481913,0.012200329,-0.030500824
1.399919872,,1.937932491,-1.705888573,0.221819401,-1.782199685,4.744066238,2.870179176,,-0.243084833,0.288976431,-0.159866363,-0.045252435,0.008772453,-0.151432678,,-2.450299025,-0.150201306,-1.049167395,-0.401085824,-0.465137571,-0.257731974
1.408,,1.935906887,-1.703609769,0.220610484,-1.782606427,4.743790627,2.869018555,,-0.249131262,0.289756209,-0.15237543,-0.040362872,-0.012415658,-0.156945422,,-2.261986732,-0.262291849,-1.051409125,-0.31110841,0.028975783,-0.245531633
1.415949824,,1.933808804,-1.701342885,0.219401211,-1.782870118,4.743994236,2.867870092,,-0.251956344,0.293897957,-0.151493385,-0.033891391,0.009515475,-0.144841343,,-2.122994661,-0.163652167,-1.040200114,-0.42701152,-0.471237719,-0.10675288
1.424019968,,1.931771278,-1.699004475,0.218276188,-1.783253495,4.743754864,2.866673946,,-0.249271885,0.29562366,-0.145740956,-0.043958139,-0.012942963,-0.135973021,,-2.407704592,-0.06725432,-1.033474684,-0.433111697,0.042701155,-0.234856337
1.432009984,,1.929745674,-1.696654145,0.217114836,-1.78357679,4.743910313,2.865620852,,-0.257005692,0.299190164,-0.142570734,-0.041729074,-0.003355583,-0.142516404,,-2.24629426,-0.28246814,-0.923625946,-0.449887156,-0.535289466,-0.201305434
1.439990016,,1.92772007,-1.69420797,0.216025397,-1.783899609,4.743694782,2.864544392,,-0.264419943,0.303472549,-0.137240157,-0.038565237,-0.01749697,-0.131682664,,-2.212666988,-0.13450864,-0.990880251,-0.547489762,0.094552554,-0.038126029
1.447909888,,1.925622463,-1.691761319,0.214947939,-1.784210507,4.743838787,2.863443851,,-0.265826106,0.309966385,-0.135795653,-0.037175067,-0.003930826,-0.130028844,,-2.454782486,-0.257808208,-0.55372721,-0.610016465,-0.503263593,-0.219605923
1.455980032,,1.923500538,-1.689266984,0.213930398,-1.78449804,4.743682861,2.862546444,,-0.272550046,0.311589867,-0.127729475,-0.033603769,0.024903221,-0.124276415,,-2.199216127,-0.392316848,-0.759973764,-0.646617472,0.057951566,-0.254681885
1.463899904,,1.921295166,-1.686689202,0.212900892,-1.784761731,4.743731022,2.861493587,,-0.270670921,0.310899556,-0.12467429,-0.033531863,-0.043478768,-0.117373504,,-2.226117849,-0.244357347,-0.706170321,-0.629841983,-0.430061609,0.074727021
1.472009984,,1.919173718,-1.684146706,0.211943269,-1.784989182,4.743659019,2.86063242,,-0.271041632,0.314708948,-0.119561024,-0.033891391,0.003115899,-0.124540068,,-2.488409758,-0.430427611,-0.811535418,-0.606966376,0.019825535,-0.21198073
1.480029952,,1.917004108,-1.68159229,0.210985661,-1.785348241,4.743731022,2.859710932,,-0.275899231,0.31483677,-0.116441928,-0.042136535,-0.035689022,-0.104766101,,-2.351659298,-0.271259069,-0.800326347,-0.521564066,-0.356859624,-0.239431471
1.487980032,,1.914786816,-1.679049794,0.210063621,-1.785611931,4.743635178,2.858909607,,-0.283901513,0.320653111,-0.110203736,-0.035976645,0.022314629,-0.111429326,,-2.37183547,-0.289193571,-0.70168668,-0.430061609,-0.036600988,-0.19978039
1.496009984,,1.91244936,-1.676447694,0.209201872,-1.785923306,4.743635178,2.858024597,,-0.286573172,0.322238237,-0.104412958,-0.04081827,-0.038613174,-0.101482421,,-2.37631917,-0.470780224,-0.567178071,-0.387360454,-0.259256989,0.02745074
1.503969792,,1.910160065,-1.673893277,0.208327785,-1.786234681,4.74362278,2.857246876,,-0.285307646,0.320959926,-0.099721536,-0.033939328,0.034298852,-0.105173565,,-2.210425138,-0.298160791,-0.625465155,-0.391935587,-0.047276277,-0.143353865
1.511969792,,1.907858849,-1.671351258,0.20754993,-1.786497895,4.743587017,2.85639739,,-0.28772366,0.323848903,-0.09267801,-0.035377432,-0.0376065,-0.089330412,,-2.134203672,-0.490956515,-0.569419861,-0.408711046,-0.215030804,-0.190630153
1.52,,1.905617237,-1.668833081,0.206843615,-1.786725346,4.74362278,2.855775356,,-0.286023498,0.324360251,-0.089840144,-0.036432046,0.023776703,-0.088898987,,-2.461508036,-0.116574146,-0.789117336,-0.565790296,-0.068626851,-0.237906426
1.527929856,,1.903183937,-1.666206662,0.206148893,-1.787060563,4.743539333,2.855045319,,-0.296250045,0.330764621,-0.083026715,-0.037750311,-0.037462689,-0.085950866,,-2.309064865,-0.264533639,-0.887757003,-0.550539851,-0.163179412,0.004575124
1.535919872,,1.900774956,-1.663521115,0.205478534,-1.787336175,4.74362278,2.854399443,,-0.299343586,0.331979007,-0.079524122,-0.028977858,0.037462689,-0.074541882,,-2.365110159,-0.28022632,-0.896724224,-0.642042339,-0.135728672,0.001525041
1.543949824,,1.898377895,-1.660894696,0.204808533,-1.787587468,4.743479729,2.853777409,,-0.301363319,0.333129495,-0.075855352,-0.028881984,-0.038589206,-0.086118646,,-2.131961823,-0.28470993,-0.636674225,-0.661867857,-0.10675288,-0.173854694
1.551969792,,1.8960042,-1.658220593,0.2042097,-1.787719552,4.743575096,2.853155375,,-0.299445838,0.336171895,-0.070805997,-0.020660805,0.028977858,-0.067734845,,-2.219392538,-0.425944,-0.607530653,-0.657292724,-0.190630153,-0.2409565
1.559899904,,1.893679142,-1.655522172,0.203635201,-1.787970845,4.743407726,2.852664709,,-0.301337749,0.335622221,-0.065552115,-0.029361352,-0.032093756,-0.057308566,,-2.409946442,-0.150201306,-0.576145291,-0.646617472,0.042701155,-0.320258647
1.567949824,,1.891210079,-1.652752225,0.203120634,-1.788138215,4.743598938,2.852210045,,-0.308573037,0.342333376,-0.06065616,-0.025933864,0.021595575,-0.062533692,,-2.320273876,-0.399042279,-0.569419861,-0.657292724,-0.318733603,-0.230281219
1.575899904,,1.88874054,-1.649934594,0.202653244,-1.788389985,4.743407726,2.851671934,,-0.311513156,0.340633214,-0.056514408,-0.034730285,-0.032381378,-0.061766699,,-2.427880764,-0.329546154,-0.455087543,-0.559690118,0.068626851,-0.071676932
1.583990016,,1.886223793,-1.647188489,0.202174634,-1.78866512,4.743598938,2.851265192,,-0.313750207,0.344468176,-0.05301182,-0.028306741,0.025909895,-0.054192666,,-2.284404993,-0.627706945,-0.372140557,-0.518513978,-0.282132626,-0.047276277
1.592,,1.883742332,-1.644442383,0.201767534,-1.788892571,4.743419647,2.850846529,,-0.312663645,0.343892932,-0.046978164,-0.032333441,-0.032333441,-0.047409594,,-2.291130304,-0.576145291,-0.461812973,-0.407186002,0.103702798,-0.059476607
1.599949824,,1.881165504,-1.641720597,0.20137243,-1.789096181,4.74362278,2.850403309,,-0.315910578,0.344046324,-0.044178646,-0.027803402,0.021595575,-0.049974218,,-2.445815325,-0.479747444,-0.531309128,-0.408711046,-0.308058321,-0.132678583
1.608,,1.878600121,-1.638974015,0.201061219,-1.789395157,4.743371487,2.850068569,,-0.324679822,0.344941139,-0.039142076,-0.026988475,-0.025909895,-0.039835565,,-2.270954132,-0.41921857,-0.665817738,-0.295857996,0.138778746,-0.186055019
1.615949824,,1.87598753,-1.636228387,0.200714052,-1.789551083,4.743610859,2.849745512,,-0.323861688,0.342908621,-0.035626706,-0.018527612,0.015723303,-0.029984532,,-2.228359699,-0.244357347,-0.70392853,-0.347709388,-0.390410542,-0.216555849
1.624029952,,1.87335062,-1.633434598,0.200498343,-1.789707009,4.743323803,2.849530458,,-0.324909925,0.347382754,-0.031165376,-0.028138962,-0.018503644,-0.022218755,,-2.196974278,-0.484231085,-0.715137541,-0.330933928,0.166229486,-0.260782033
1.631919872,,1.870713711,-1.630724732,0.200235054,-1.789838616,4.74362278,2.84937501,,-0.322979659,0.349632591,-0.02557913,-0.016178705,0.024519725,-0.023752734,,-2.302339554,-0.27350089,-0.798084557,-0.394985676,-0.402610868,-0.272982359
1.639969792,,1.868076801,-1.627882783,0.200055674,-1.790042226,4.743395805,2.849183559,,-0.326443911,0.350668013,-0.021335116,-0.032716934,-0.012942963,-0.017233316,,-2.367352009,-0.378865987,-0.715137541,-0.431586653,0.123528339,-0.247056678
1.647990016,,1.865511894,-1.625088994,0.199864298,-1.790257756,4.743598938,2.849051714,,-0.332899392,0.349747628,-0.020120716,-0.023081617,0.016178705,-0.018144118,,-2.199216127,-0.221939251,-0.69271946,-0.419386327,-0.157079235,-0.276032448
1.655909888,,1.862910748,-1.622258965,0.199744448,-1.790389363,4.743431568,2.848896503,,-0.333218992,0.350233376,-0.014342721,-0.025718147,-0.022242723,-0.016178705,,-2.282163143,-0.318337113,-0.681510389,-0.507838726,-0.109802961,-0.137253702
1.664019968,,1.860249996,-1.619369332,0.199636593,-1.790581052,4.743527412,2.848860502,,-0.334075451,0.355065435,-0.011658254,-0.015459651,0.029169604,-0.006591324,,-2.279921293,-0.401284099,-0.641157806,-0.516988933,-0.08540231,-0.25620693
1.671929856,,1.857625008,-1.61645538,0.199589029,-1.790688817,4.74345541,2.848705053,,-0.332234681,0.358785331,-0.009817477,-0.021763353,-0.026964508,-0.018503644,,-2.457024336,-0.533550918,-0.517858267,-0.58104068,-0.105227843,-0.05337644
1.679980032,,1.854916096,-1.613625828,0.199517131,-1.790868107,4.743539333,2.848776579,,-0.340927243,0.359411716,-0.005816344,-0.015148061,0.035209656,-0.006519419,,-2.385286331,-0.641157806,-0.450603932,-0.545964718,-0.11285305,-0.05337644
1.68804992,,1.852231503,-1.610831563,0.199493155,-1.790868107,4.743443489,2.848824501,,-0.340927243,0.357532591,-0.003004046,-0.007550062,-0.029049762,0.010618024,,-2.421155453,-0.629948735,-0.210730195,-0.661867857,0.001525041,-0.208930641
1.69593984,,1.849462509,-1.607978169,0.199517131,-1.791047875,4.743610859,2.848716974,,-0.344506532,0.357532591,0.000575243,-0.023704797,0.021595575,-0.010570087,,-2.430122614,-0.744281113,-0.024659917,-0.613066554,-0.286707729,-0.019825535
1.703969792,,1.846669674,-1.605160538,0.199636593,-1.791168038,4.743419647,2.848860502,,-0.346692443,0.357813805,0.007874435,-0.008628642,-0.031734228,0.037246972,,-2.181281567,-0.466296583,-0.062770694,-0.576465547,-0.001525041,-0.247056678
1.712,,1.843913078,-1.602366273,0.199696511,-1.791168038,4.743647099,2.848908424,,-0.345426917,0.358785331,0.011581555,-0.005297028,0.030727554,0.007190535,,-2.277679443,-0.475263834,0.114332341,-0.709144175,-0.294332951,-0.054901481
1.719919872,,1.84112072,-1.599512879,0.199816361,-1.791323487,4.743383884,2.84901619,,-0.347165436,0.357034028,0.018420553,-0.012942963,-0.02413623,0.045228466,,-2.266470432,-0.28246814,0.080705181,-0.489538223,0.122003295,-0.042701155
1.72793984,,1.838256359,-1.596610848,0.199947804,-1.791347329,4.74362278,2.849171638,,-0.350821406,0.36113742,0.017730262,-0.004961469,0.016178705,0.01176851,,-2.450299025,-0.567178071,0.136750445,-0.660342813,-0.350759476,-0.146403953
1.735929856,,1.835415363,-1.593685452,0.200115591,-1.791503255,4.743407726,2.849267244,,-0.35294342,0.359156042,0.023738353,-0.023776703,-0.025909895,0.049590725,,-2.08936739,-0.392316848,0.192795709,-0.61154151,0.147928998,0.030500824
1.743980032,,1.83264637,-1.590736214,0.200294971,-1.791527096,4.74362278,2.849494457,,-0.351652324,0.36113742,0.022996929,-0.007621967,0.026628949,0.012942963,,-2.223875999,-0.506649196,0.233148292,-0.510888815,-0.387360454,-0.147928998
1.75193984,,1.829961777,-1.587786023,0.200522304,-1.791515176,4.743443489,2.849638224,,-0.351268828,0.357992768,0.029120069,-0.003906858,-0.010018812,0.046067361,,-2.396495581,-0.367656916,0.271259069,-0.588665903,0.157079235,-0.01372537
1.759919872,,1.827157497,-1.584836785,0.200738013,-1.791478936,4.743635178,2.849841356,,-0.356036961,0.361763805,0.030436736,-0.00263653,0.018503644,0.018144118,,-2.566873074,-0.625465155,0.383349597,-0.61154151,-0.407186002,0.021350577
1.767990016,,1.824316502,-1.581922833,0.200977325,-1.791562859,4.743407726,2.85008049,,-0.35780102,0.36233905,0.035243209,-0.002037318,-0.010114687,0.043622579,,-2.37407732,-0.668059528,0.517858267,-0.629841983,0.18452999,-0.01372537
1.775980032,,1.821392059,-1.57908136,0.201288924,-1.791550938,4.743598938,2.850319862,,-0.358798116,0.364512205,0.037940457,-0.002037318,-0.003571299,0.040602557,,-2.277679443,-0.784633696,0.685994029,-0.619166732,-0.402610868,0.208930641
1.78393984,,1.818515778,-1.576287572,0.201612115,-1.791587178,4.743431568,2.850750685,,-0.356612206,0.361303627,0.042312305,-0.005201154,0.004865596,0.048224524,,-2.425638914,-0.674784958,0.773424625,-0.56731534,0.222656012,0.169279575
1.791969792,,1.815639496,-1.573469941,0.201959282,-1.791599099,4.743563175,2.851097822,,-0.36452499,0.359066546,0.047732368,-0.005201154,-0.004122573,0.050573431,,-2.358384609,-0.535792708,0.887757003,-0.523089111,-0.378210217,0.230281219
1.799959808,,1.812654972,-1.570592229,0.202413931,-1.79161102,4.743479729,2.851492405,,-0.363681287,0.361175776,0.051528972,-0.003235741,0.038756985,0.054000918,,-2.261986732,-0.663575947,0.766699195,-0.518513978,0.164704442,0.208930641
1.807919872,,1.809765816,-1.567774598,0.202821031,-1.791599099,4.743515491,2.851982594,,-0.364192605,0.362057835,0.054072823,-0.002300971,-0.03743872,0.060544308,,-2.138687372,-0.468538404,0.715137541,-0.497163415,-0.333984017,0.094552554
1.816009984,,1.806769848,-1.564885441,0.203300029,-1.791634862,4.743503571,2.85248518,,-0.35929665,0.363042116,0.056885123,-0.001797634,0.032692965,0.067734845,,-2.445815325,-0.634432375,0.634432375,-0.480387986,0.09912768,-0.006100165
1.823969792,,1.803868771,-1.561960045,0.203766659,-1.791622941,4.743515491,2.853047848,,-0.368551672,0.359245539,0.061474282,-0.001462076,-0.037342846,0.060760021,,-2.154379845,-0.443878502,0.665817738,-0.451412201,-0.31110841,-0.071676932
1.831980032,,1.801016808,-1.559058015,0.204341158,-1.791634862,4.743551254,2.853502512,,-0.366276264,0.362236798,0.064708427,-0.001222391,0.038661111,0.059729379,,-2.282163143,-0.681510389,0.650125086,-0.401085824,0.015250412,0.09912768
1.84,,1.798176289,-1.556072537,0.204892427,-1.791634862,4.743503571,2.854028702,,-0.365138561,0.361597627,0.0676869,-0.00107858,-0.03679157,0.077825561,,-2.284404993,-0.430427611,0.587354362,-0.361434758,-0.216555849,0.253156841
1.847929856,,1.795263767,-1.553147618,0.205478534,-1.791550938,4.743587017,2.854626656,,-0.365061879,0.364154249,0.070588686,-0.00093477,0.040099218,0.075932056,,-2.448057175,-0.726346612,0.394558668,-0.303483188,-0.006100165,0.266882211
1.855990016,,1.792291164,-1.550209824,0.206065387,-1.79157478,4.743527412,2.855260849,,-0.369791657,0.361418664,0.07359273,-0.000838896,-0.023920514,0.077490002,,-2.396495581,-0.650125086,0.448362112,-0.250106752,-0.12657842,0.201305434
1.863909888,,1.789366722,-1.547332589,0.206664219,-1.791539017,4.743647099,2.855882883,,-0.368807346,0.362875938,0.074717648,0.000191748,0.031302799,0.088299774,,-2.394253731,-0.955011308,0.569419861,-0.19978039,-0.065576769,0.041176111
1.872,,1.786334515,-1.544479195,0.207310244,-1.791383092,4.743539333,2.856576681,,-0.371121079,0.35993582,0.079268456,0.012942963,-0.031782165,0.078137152,,-2.326999426,-0.777908266,0.771182835,-0.312633455,-0.132678583,0.009150247
1.879899904,,1.783398151,-1.541601483,0.207920685,-1.791383092,4.743694782,2.857222795,,-0.368040353,0.358516872,0.083052278,0.004961469,0.039284293,0.084704503,,-2.277679443,-0.746522903,0.766699195,-0.250106752,-0.163179412,0.218080893
1.887980032,,1.780330181,-1.53876001,0.208639368,-1.79140741,4.743515491,2.857952833,,-0.371900856,0.35473308,0.085046455,0.004242416,-0.031590417,0.091823138,,-2.275437593,-0.677026808,0.831711709,-0.160129324,-0.010675289,0.245531633
1.89588992,,1.777357578,-1.535870854,0.209381267,-1.791227643,4.743790627,2.858646393,,-0.370545864,0.35505265,0.088638522,0.02135589,0.032381378,0.091367736,,-2.400979042,-0.69496125,0.813777208,-0.175379738,-0.285182714,0.201305434
1.903990016,,1.77431345,-1.533065144,0.210111558,-1.791215245,4.743610859,2.859376192,,-0.370021731,0.355794072,0.092320077,0.010785803,-0.022314629,0.098486364,,-2.297855854,-0.84292078,0.759973764,-0.324833781,0.103702798,0.021350577
1.911949824,,1.771365166,-1.530236069,0.21085383,-1.791191403,4.743850231,2.860201597,,-0.371121079,0.35411948,0.093138203,0.004625911,0.032261536,0.089258514,,-2.179039955,-0.513374627,0.659092307,-0.132678583,-0.35533461,0.032025866
1.919990016,,1.768452644,-1.52739412,0.211596102,-1.791107957,4.743575096,2.860883951,,-0.371121079,0.35323742,0.075395159,0.021715416,-0.016178705,0.107618347,,-2.199216127,-0.650125086,0.685994029,-0.070151895,0.189105108,0.308058321
1.92788992,,1.76550436,-1.524516884,0.212422267,-1.790880028,4.743874073,2.861792564,,-0.370545864,0.352636635,0.099274129,0.014381071,0.013038837,0.101146862,,-2.448057175,-0.432669431,0.813777208,-0.279082537,-0.405660957,0.205880553
1.935929856,,1.762531757,-1.521639649,0.213224083,-1.790892426,4.743659019,2.862582445,,-0.370558619,0.357034028,0.104208432,0.005704491,-0.018503644,0.113059185,,-2.490651608,-0.912416875,0.932593167,-0.05337644,0.215030804,0.122003295
1.943980032,,1.759559631,-1.518798653,0.214085832,-1.790676896,4.743946075,2.863479614,,-0.376119316,0.356126428,0.106573321,0.024615599,0.01423726,0.104071014,,-2.23956871,-0.777908266,0.98191303,-0.19825536,-0.471237719,0.016775453
1.952019968,,1.756623268,-1.515957181,0.214959919,-1.790676896,4.743766785,2.864293098,,-0.369778872,0.35596025,0.110676713,0.00680704,0.004002731,0.114281572,,-2.389770031,-1.020023823,1.143323421,-0.006100165,0.19978039,0.239431471
1.959990016,,1.753638744,-1.513199631,0.215797693,-1.790413205,4.743922234,2.865190506,,-0.375275612,0.350936472,0.112837076,0.032381378,-0.003379551,0.113562517,,-2.407704592,-0.811535418,0.952769458,-0.152504116,-0.399560779,0.218080893
1.967909888,,1.7506423,-1.510406319,0.216683775,-1.790377442,4.743826866,2.866159201,,-0.375965923,0.349632591,0.11655698,0.010354371,0.034131072,0.125187218,,-2.360626459,-0.943802238,0.858613431,0.071676932,0.09912768,0.042701155
1.975929856,,1.747526646,-1.50764877,0.217653379,-1.790126149,4.743886471,2.867152452,,-0.375850856,0.348712176,0.118909083,0.035808865,-0.02135589,0.107882001,,-2.161105394,-0.885515153,1.031232834,-0.03965107,-0.257731974,0.004575124
1.983869952,,1.744506359,-1.504867856,0.218599379,-1.789958302,4.743922234,2.868049383,,-0.369791657,0.347855717,0.124405846,0.023608925,0.029625006,0.130460277,,-2.38080287,-0.775666475,0.831711709,0.166229486,0.038126029,0.308058321
1.991990016,,1.741546154,-1.50215799,0.219592571,-1.789646928,4.743970394,2.869054556,,-0.375850856,0.346794724,0.123511024,0.033531863,-0.02090049,0.127560094,,-2.199216127,-0.820502639,0.952769458,0.077777103,-0.31110841,0.179954857
1.999980032,,1.738574028,-1.499304597,0.220598504,-1.78951532,4.743946075,2.870083809,,-0.375390679,0.343317688,0.130784646,0.028762141,0.041729074,0.129597411,,-2.295614004,-0.607530653,0.822744489,0.167754531,-0.057951566,-0.05337644
2.00793984,,1.735637665,-1.496486966,0.221592069,-1.789287869,4.743946075,2.871064186,,-0.37210539,0.342640191,0.131653905,0.029025793,-0.032860745,0.131155357,,-2.145412683,-0.8339535,0.793600917,0.137253702,-0.173854694,0.25620693
2.015919872,,1.732700825,-1.493670289,0.222597614,-1.789012257,4.74404192,2.872129202,,-0.36818096,0.344621569,0.134632379,0.031902008,0.038109835,0.136883825,,-2.465991497,-0.663575947,0.901207864,0.088452391,-0.202830479,0.215030804
2.023909888,,1.729800701,-1.490912739,0.2236747,-1.788772885,4.743922234,2.873289585,,-0.375275612,0.345362991,0.137879312,0.032525189,-0.02459163,0.144026414,,-2.400979042,-1.022265553,0.901207864,0.022875618,-0.062526688,-0.0259257
2.032019968,,1.726792336,-1.488095586,0.22475253,-1.788509194,4.744137764,2.874366522,,-0.372680634,0.341195673,0.138761342,0.037223004,0.032309473,0.138705418,,-2.392011881,-0.856371641,0.896724224,-0.041176111,-0.335509062,0.262307078
2.039959808,,1.723796844,-1.485326115,0.225853592,-1.788222138,4.743922234,2.875550747,,-0.372552812,0.340633214,0.144385949,0.035545211,-0.021595575,0.141485766,,-2.344933748,-1.156774282,0.856371641,-0.135728672,0.071676932,0.271457344
2.047990016,,1.720788479,-1.48266441,0.226978973,-1.787982766,4.744185448,2.876746893,,-0.371900856,0.337833703,0.145178497,0.03803793,0.018503644,0.149898693,,-2.275437593,-1.051409125,0.961736739,-0.179954857,-0.411761105,0.036600988
2.055919872,,1.717780113,-1.480003182,0.228152305,-1.787671391,4.743970394,2.877871275,,-0.372309923,0.334382266,0.150176719,0.033843454,-0.021859227,0.147214219,,-2.302339554,-0.885515153,1.053650975,-0.175379738,0.144878909,0.308058321
2.06393984,,1.714735985,-1.477402035,0.229349241,-1.787372414,4.744221687,2.879092216,,-0.370558619,0.335660577,0.151710704,0.031782165,0.016178705,0.146471202,,-2.432364464,-0.961736739,0.795842767,-0.21350576,-0.41328615,0.196730316
2.071969792,,1.711715698,-1.47474033,0.230606452,-1.787252251,4.743982315,2.880335808,,-0.369791657,0.332132429,0.154037237,0.020229373,-0.013110743,0.151888072,,-2.232843399,-0.869822502,0.710653961,-0.065576769,0.187580064,0.010675289
2.079919872,,1.708767414,-1.472114865,0.231862932,-1.7870248,4.744221687,2.88150835,,-0.368423849,0.331339866,0.153640956,0.035497274,0.012128036,0.152223632,,-2.163347244,-1.028990984,0.625465155,-0.089977428,-0.402610868,0.359909713
2.087919872,,1.705903053,-1.469466035,0.233132124,-1.786785428,4.744066238,2.882824421,,-0.365483701,0.32671234,0.157527044,0.035281561,-0.008916263,0.1491317,,-2.232843399,-0.755490184,0.937076807,0.073201977,0.128103465,0.205880553
2.09593984,,1.703026772,-1.466792409,0.234413311,-1.786354367,4.744281292,2.884080648,,-0.367030472,0.328514785,0.15753983,0.045851648,0.011313109,0.155507311,,-2.481684208,-0.735313833,0.786875486,0.032025866,-0.388885498,0.006100165
2.103879936,,1.700090885,-1.464107339,0.235789627,-1.786031071,4.744185448,2.885264874,,-0.366186798,0.328156859,0.159048244,0.039931439,0.032788839,0.15948607,,-2.394253731,-0.84292078,0.791359127,0.096077591,0.117428169,0.305008233
2.111990016,,1.697154522,-1.461374108,0.237094417,-1.785755459,4.744281292,2.886593103,,-0.368960738,0.32671234,0.159981415,0.036479983,-0.025742115,0.165933579,,-2.226117849,-0.9751876,0.618739724,0.097602636,-0.349234432,0.123528339
2.11993984,,1.694290161,-1.458772961,0.238375232,-1.785396401,4.744281292,2.8879807,,-0.362287909,0.326188236,0.16123417,0.044605289,0.041777011,0.151432678,,-2.333724737,-1.291282892,0.970703959,0.01372537,-0.033550907,-0.028975783
2.127990016,,1.691390038,-1.456147496,0.239656419,-1.785049264,4.74425745,2.889201164,,-0.365918338,0.32335037,0.163305044,0.046139266,-0.026652917,0.166964233,,-2.425638914,-0.968462169,1.026749253,-0.09912768,-0.128103465,0.291282862
2.135980032,,1.688429356,-1.453641717,0.241009131,-1.784725491,4.744425297,2.890552759,,-0.36572659,0.323874474,0.164954066,0.042639874,0.040650491,0.174634129,,-2.38304472,-1.201610446,0.988638461,-0.154029161,-0.2409565,0.041176111
2.143990016,,1.68545723,-1.451100651,0.242385447,-1.784378354,4.744269371,2.89186883,,-0.362837583,0.319323689,0.168009251,0.037223004,-0.033388052,0.163488805,,-2.161105394,-1.055892825,0.83843714,-0.167754531,0.047276277,0.233331308
2.151929856,,1.682509422,-1.448606793,0.243714571,-1.784066979,4.744580746,2.893220901,,-0.357430309,0.316166222,0.168290481,0.0376065,0.025909895,0.175329223,,-2.425638914,-1.073827267,0.914658725,-0.111328006,-0.483438045,0.173854694
2.160019968,,1.679596901,-1.446090047,0.245043322,-1.783791367,4.744293213,2.894608259,,-0.361968338,0.314440489,0.170795977,0.035473306,-0.021595575,0.163488805,,-2.24405241,-1.165741444,1.064859986,-0.048801318,0.251631796,-0.035075948
2.167959808,,1.676756859,-1.443644826,0.246383682,-1.783456628,4.744592667,2.895972252,,-0.360677242,0.312855393,0.172457799,0.043478768,0.01749697,0.182567686,,-2.264228582,-0.865338862,1.071585417,0.033550907,-0.420911372,0.332458973
2.175919872,,1.67391634,-1.441174809,0.247784719,-1.78310949,4.744449139,2.89744401,,-0.357928872,0.31206283,0.177954555,0.04731372,0.043646548,0.186210901,,-2.114027262,-0.948285878,0.941560447,0.088452391,0.201305434,0.077777103
2.183959808,,1.671087742,-1.438633744,0.249196976,-1.78272659,4.744544506,2.898831606,,-0.352138072,0.308573037,0.177123651,0.04688229,-0.026652917,0.180434495,,-2.309064865,-0.827228069,1.105212569,0.102177761,-0.205880553,0.35533461
2.191969792,,1.668283463,-1.436116521,0.250573665,-1.782367531,4.744652748,2.900291204,,-0.352265924,0.307307482,0.182057962,0.041417483,0.046307046,0.185443908,,-2.37631917,-0.932593167,1.046925545,0.096077591,-0.134203628,0.18452999
2.199949824,,1.665407181,-1.43363506,0.252010286,-1.782019917,4.744497299,2.901774645,,-0.354694724,0.308227867,0.185113132,0.042999402,-0.033412021,0.17489779,,-2.291130304,-1.179192305,1.031232834,0.054901481,0.045751236,0.10675288
2.208,,1.662602901,-1.431093995,0.253494442,-1.781648461,4.744820118,2.903246403,,-0.348712176,0.306796163,0.187989354,0.047745153,0.025909895,0.185995176,,-2.37183547,-1.055892825,0.955011308,-0.059476607,-0.359909713,0.231806263
2.215899904,,1.65981102,-1.428588216,0.254943043,-1.781277482,4.744592667,2.904705763,,-0.34987545,0.304980963,0.191312969,0.048775796,-0.014381071,0.18820028,,-2.24629426,-1.26438117,0.930351377,-0.135728672,0.19825536,0.028975783
2.224,,1.657006264,-1.426203076,0.256439567,-1.780882184,4.744855881,2.906260729,,-0.346232265,0.302539378,0.190545991,0.048032776,0.014812503,0.192514598,,-2.37183547,-1.201610446,0.957253098,-0.221130967,-0.353809565,0.298908085
2.23193984,,1.654238224,-1.42381746,0.257923752,-1.780486886,4.744616508,2.907780409,,-0.346602976,0.298333704,0.193767339,0.041513357,-0.018503644,0.199681163,,-2.24181056,-1.309217334,0.988638461,-0.187580064,0.2699323,0.022875618
2.239980032,,1.651445866,-1.421455685,0.259503782,-1.780127827,4.744915962,2.909311533,,-0.344711065,0.298154742,0.194879487,0.039308261,0.016514262,0.193257615,,-2.517553329,-1.587201834,1.089519978,-0.161654368,-0.359909713,0.321783692
2.248019968,,1.648641586,-1.41916639,0.261083841,-1.779960457,4.744771957,2.910890818,,-0.344711065,0.293655068,0.198126405,0.042591937,0.044125918,0.201167211,,-2.199216127,-1.232995749,0.939318597,0.022875618,0.237906426,0.111328006
2.25593984,,1.64587307,-1.416840855,0.262640297,-1.779505078,4.744855881,2.912482023,,-0.340032429,0.291008949,0.197947443,0.052083444,-0.024951158,0.186666295,,-2.266470432,-1.203852296,0.791359127,0.08540231,-0.141828835,0.178429812
2.263969792,,1.643248558,-1.414623562,0.264340162,-1.779062573,4.744927883,2.914049387,,-0.340032429,0.286343098,0.201092109,0.050693274,0.041872885,0.201239109,,-2.147654533,-1.017781973,1.176950574,0.108277924,-0.048801318,0.146403953
2.271909888,,1.640575886,-1.412345711,0.266003728,-1.778667275,4.744867802,2.915652275,,-0.337271243,0.285627216,0.20175682,0.043406863,-0.035641085,0.185635656,,-2.434606314,-0.885515153,0.959494889,0.038126029,0.033550907,0.080827184
2.279980032,,1.637843609,-1.410020653,0.2676557,-1.77834398,4.745047092,2.917279482,,-0.335826755,0.287544698,0.20267722,0.045707837,0.025909895,0.20020847,,-2.340450287,-1.226270318,0.70392853,0.009150247,-0.247056678,0.228756174
2.287899904,,1.635159016,-1.407742802,0.269379556,-1.777936761,4.744867802,2.91888237,,-0.337347955,0.283786446,0.201948568,0.051244549,-0.021595575,0.197140515,,-2.149896383,-1.091761708,0.831711709,-0.047276277,0.132678583,0.036600988
2.295969792,,1.63248682,-1.405417744,0.270995528,-1.77755386,4.745142937,2.920533657,,-0.328949392,0.283786446,0.202549383,0.049638662,0.018503644,0.20562534,,-2.264228582,-1.096245408,0.941560447,-0.144878909,-0.231806263,0.21350576
2.303909888,,1.629862309,-1.403127972,0.27263552,-1.777110879,4.744939804,2.922196388,,-0.330841303,0.280309439,0.202485472,0.04549212,-0.014381071,0.198746398,,-2.340450287,-1.302491903,0.856371641,-0.089977428,0.233331308,-0.012200329
2.31193984,,1.627225399,-1.400826756,0.274227917,-1.776799027,4.745214462,2.923823357,,-0.329908133,0.279670268,0.201488376,0.046594668,0.02924151,0.211353794,,-2.286646843,-1.210577726,0.928109586,0.006100165,-0.282132626,0.350759476
2.319969792,,1.624577045,-1.398597542,0.275903463,-1.776392285,4.744987488,2.925474405,,-0.327274799,0.275912017,0.202217028,0.053473614,-0.014213291,0.209843785,,-2.24181056,-1.463902235,1.163499713,0.097602636,0.32788384,0.032025866
2.32788992,,1.621952534,-1.396367375,0.277471513,-1.775936906,4.745250702,2.927161217,,-0.320346326,0.27395618,0.204696953,0.055510931,-0.0044821,0.210778549,,-2.302339554,-1.629796267,1.309217334,0.125053376,-0.312633455,0.285182714
2.335969792,,1.619339943,-1.394185845,0.279123455,-1.775482003,4.745118618,2.928776503,,-0.317137748,0.267436773,0.208365723,0.044557352,0.036264267,0.215068907,,-2.542213202,-1.320426464,1.154532433,0.138778746,0.300433099,-0.022875618
2.34388992,,1.616811275,-1.392076794,0.280751437,-1.775194947,4.745250702,2.930463314,,-0.320448607,0.266618639,0.208992109,0.045348309,-0.003978763,0.215524316,,-2.24629426,-1.367504478,1.188159585,0.123528339,-0.141828835,0.376685172
2.352009984,,1.614258766,-1.390038792,0.282403409,-1.774835412,4.745298386,2.932198048,,-0.317674637,0.263205528,0.214003101,0.045731805,0.050765179,0.221804038,,-2.342692137,-1.365262628,1.208335876,0.044226196,0.196730316,0.012200329
2.359859968,,1.611718178,-1.38803703,0.284114897,-1.774464432,4.745310307,2.9338727,,-0.317291141,0.256110877,0.215562657,0.049255166,-0.026269423,0.216195419,,-2.08936739,-1.073827267,1.051409125,-0.045751236,-0.062526688,0.315683514
2.367969792,,1.609285355,-1.386011426,0.285803169,-1.773997609,4.74539423,2.935619593,,-0.309838563,0.25663498,0.219167516,0.05510347,0.040890176,0.222523093,,-2.347175598,-1.163499713,1.076069117,-0.154029161,0.09912768,-0.006100165
2.37604992,,1.60682869,-1.384021584,0.287526667,-1.773626153,4.745346546,2.937390089,,-0.308330148,0.256750047,0.221366212,0.044916876,-0.022410501,0.225135654,,-2.315790415,-1.235237598,1.026749253,-0.154029161,0.062526688,0.384310365
2.383980032,,1.604336262,-1.381972138,0.289262503,-1.773255173,4.7455616,2.939148903,,-0.309250534,0.255778521,0.224434182,0.044509415,0.032381378,0.224919945,,-2.277679443,-1.076069117,1.053650975,-0.076252058,-0.03965107,0.071676932
2.391949824,,1.601915836,-1.379898373,0.291021943,-1.772872273,4.74539423,2.940907478,,-0.30539,0.255356669,0.224331915,0.0474815,-0.027156254,0.224776134,,-2.248535872,-1.318184614,1.062618256,0.038126029,0.224181056,0.274507403
2.399990016,,1.599446774,-1.377848927,0.292793334,-1.772476975,4.745681286,2.942785978,,-0.30322966,0.254717529,0.227617189,0.052778527,0.025909895,0.220773399,,-2.268712282,-1.481836796,0.858613431,0.111328006,-0.172329649,0.004575124
2.40788992,,1.597002029,-1.375835244,0.294649035,-1.772069756,4.745453835,2.944520473,,-0.299778193,0.248274803,0.225495175,0.049231198,-0.025909895,0.225926623,,-2.201457977,-1.333877325,0.932593167,0.12047825,0.36905998,0.34160924
2.415959808,,1.59465313,-1.373809163,0.296468019,-1.771650616,4.745765209,2.946387053,,-0.294792771,0.247367188,0.224702626,0.045611963,0.012152005,0.222451195,,-2.392011881,-1.448209643,1.060376406,0.08540231,-0.17080462,0.019825535
2.42393984,,1.592316151,-1.3718074,0.298347652,-1.771267239,4.7455616,2.948133707,,-0.294319779,0.244145826,0.227489352,0.052323129,-0.010258497,0.223697558,,-2.156621695,-1.690325141,0.934835017,0.024400659,0.393460631,0.260782033
2.431879936,,1.58995533,-1.369854275,0.300167382,-1.770836178,4.745800972,2.950012207,,-0.289756209,0.240988389,0.226057634,0.052706622,0.009419601,0.218328625,,-2.445815325,-1.448209643,1.031232834,-0.135728672,-0.09912768,-0.045751236
2.439899904,,1.587558746,-1.367912118,0.302082241,-1.770441357,4.745669365,2.951770544,,-0.286023498,0.2367955,0.226402789,0.049398977,-0.01176851,0.22892268,,-2.342692137,-1.560300112,1.134356141,-0.144878909,0.387360454,0.265357167
2.447980032,,1.585258007,-1.3660062,0.303949922,-1.770081822,4.745861053,2.953601122,,-0.282482564,0.233829811,0.227578834,0.043119244,0.010905645,0.216123521,,-2.181281567,-1.634279847,0.928109586,-0.073201977,-0.103702798,-0.006100165
2.455909888,,1.583040714,-1.364196603,0.305804849,-1.769723241,4.745741367,2.955359697,,-0.278008461,0.226901323,0.228818804,0.044629257,0.035473306,0.232302219,,-2.387528181,-1.365262628,0.889998794,0.024400659,0.393460631,0.21198073
2.46388992,,1.580823898,-1.362434689,0.307636559,-1.769339863,4.745921135,2.957214355,,-0.279516876,0.221736923,0.227911204,0.050525494,-0.004697816,0.219670847,,-2.203699827,-1.271106601,1.060376406,0.089977428,-0.09302751,0.105227843
2.471959808,,1.578667164,-1.360660855,0.309444308,-1.768908803,4.745896816,2.959008694,,-0.277522683,0.22245279,0.226862982,0.051364388,0.046474826,0.233452708,,-2.37856102,-1.445967793,0.97294575,0.12047825,0.245531633,0.164704442
2.479929856,,1.576426029,-1.358934704,0.311275274,-1.768513505,4.745944977,2.960851192,,-0.27366218,0.220420256,0.229521886,0.044054013,-0.036527921,0.231487304,,-2.329241276,-1.510980368,1.179192305,0.132678583,0.070151895,0.321783692
2.487980032,,1.574256897,-1.357172791,0.313071042,-1.768214528,4.746040344,2.962741375,,-0.271859765,0.217083856,0.228563145,0.044077981,0.04319115,0.240978807,,-2.196974278,-1.302491903,1.25317204,0.123528339,-0.01372537,0.138778746
2.495879936,,1.572111607,-1.355458562,0.314878404,-1.767854993,4.745884895,2.964595795,,-0.265353113,0.217390642,0.232896641,0.0465707,-0.021595575,0.23834227,,-2.219392538,-1.358537197,1.210577726,0.016775453,0.285182714,0.379735261
2.503949824,,1.570026875,-1.353709046,0.316661805,-1.767423932,4.746160507,2.966474056,,-0.262758136,0.21422042,0.235747293,0.052107412,0.033771548,0.241362303,,-2.309064865,-1.470627666,1.179192305,-0.094552554,-0.150979072,0.09912768
2.511969792,,1.567905426,-1.352043454,0.31855306,-1.767028634,4.745944977,2.968304634,,-0.26240021,0.211855531,0.239633366,0.0496866,-0.012008194,0.236976072,,-2.201457977,-1.419066072,0.98639667,-0.164704442,0.459037393,0.314158469
2.519919872,,1.565820217,-1.350401227,0.320420355,-1.766621415,4.746243954,2.970338106,,-0.258999884,0.209746316,0.237971559,0.043167181,0.025909895,0.23963657,,-2.24181056,-1.457176805,1.089519978,-0.192155182,-0.18452999,-0.030500824
2.527929856,,1.563795567,-1.348651234,0.322335601,-1.76634628,4.746040344,2.972192764,,-0.255637914,0.207381427,0.239965737,0.033987261,0.028354676,0.238941491,,-2.324757576,-1.688083291,1.089519978,-0.09302751,0.459037393,0.309583366
2.535899904,,1.561758041,-1.346997086,0.324358672,-1.76609451,4.746232033,2.974178791,,-0.25233984,0.204415724,0.242611855,0.038972702,-0.004218447,0.229881406,,-2.212666988,-1.806899309,0.959494889,-0.030500824,-0.163179412,-0.016775453
2.543909888,,1.559768677,-1.345438782,0.326297492,-1.76571161,4.746148109,2.976080894,,-0.24505344,0.199660391,0.241371885,0.046834353,0.036503952,0.2417458,,-2.277679443,-1.551332951,1.194885015,0.071676932,0.338559151,0.215030804
2.551929856,,1.557719231,-1.343820874,0.328332573,-1.765352551,4.746232033,2.978018999,,-0.241742596,0.195390806,0.241282403,0.046858322,-0.033364084,0.226645663,,-2.38304472,-1.526672959,1.1164217,0.125053376,-0.02745074,0.155554205
2.559919872,,1.555802345,-1.342274491,0.330319315,-1.764993493,4.746315479,2.979897499,,-0.241167352,0.193371072,0.243468329,0.043574642,0.04319115,0.241098642,,-2.201457977,-1.526672959,0.791359127,0.12047825,0.064051732,0.169279575
2.56793984,,1.553884983,-1.340680424,0.332330436,-1.764670197,4.746267796,2.981823444,,-0.237830937,0.189139828,0.242087737,0.042879559,-0.029121667,0.239708483,,-2.23956871,-1.623070836,1.078310847,0.051851399,0.201305434,0.324833781
2.575929856,,1.552027225,-1.3391946,0.334329188,-1.764274899,4.746495247,2.983761549,,-0.234315574,0.186365888,0.240246966,0.048464209,0.032381378,0.247953624,,-2.302339554,-1.450451374,1.026749253,-0.018300494,-0.150979072,0.089977428
2.583899904,,1.550205708,-1.337696377,0.336268365,-1.763939683,4.746315479,2.985664129,,-0.229918152,0.183949873,0.240911692,0.046067361,-0.029313415,0.246467575,,-2.161105394,-1.551332951,0.901207864,-0.088452391,0.295857996,0.472762764
2.591849984,,1.548420429,-1.336233918,0.338207185,-1.763532464,4.746603012,2.987590313,,-0.225252301,0.179373488,0.239786774,0.043071307,0.035808865,0.245532811,,-2.219392538,-1.649972558,1.107454419,-0.131153539,-0.285182714,0.062526688
2.599909888,,1.546670437,-1.334843938,0.34008646,-1.763221089,4.74636364,2.989516735,,-0.220100686,0.177852288,0.242509589,0.036312204,-0.012871058,0.244166613,,-2.488409758,-1.741886854,1.179192305,-0.09302751,0.414811194,0.276032448
2.607849984,,1.544885159,-1.333417241,0.341977745,-1.762969796,4.746698856,2.991478443,,-0.220177382,0.17495051,0.241844863,0.034059167,0.016178705,0.233620495,,-2.365110159,-1.672390699,1.154532433,-0.006100165,-0.285182714,-0.0259257
2.61588992,,1.543147564,-1.332063023,0.343904942,-1.762682263,4.746471405,2.993380785,,-0.216163471,0.170092911,0.242509589,0.039020639,-0.012247878,0.246299803,,-2.282163143,-1.53564024,1.076069117,0.050326359,0.394985676,0.228756174
2.623929856,,1.54142189,-1.330708806,0.345796198,-1.762335126,4.746686935,2.995354891,,-0.215166375,0.168558925,0.242611855,0.045036718,-0.0040267,0.237527341,,-2.369593859,-1.582718253,1.12314713,0.086927347,-0.250106752,0.154029161
2.631859968,,1.539732456,-1.329390351,0.347711056,-1.762047593,4.746603012,2.997292995,,-0.210756183,0.164647281,0.246382892,0.040578589,0.035976645,0.255383849,,-2.255261421,-1.647730708,1.244204879,0.157079235,0.265357167,0.114378087
2.639919872,,1.538030624,-1.328108136,0.349638283,-1.761736695,4.746686935,2.999290943,,-0.206473812,0.1621162,0.24717544,0.038013961,-0.036144424,0.252387792,,-2.223875999,-1.634279847,1.167983294,0.144878909,-0.123528339,0.405660957
2.647859968,,1.536437035,-1.326873604,0.35156548,-1.761436764,4.746758938,3.001360416,,-0.20267722,0.157169119,0.250588536,0.035017908,0.04319115,0.251309216,,-2.156621695,-1.367504478,1.194885015,0.135728672,0.02745074,0.08540231
2.655899904,,1.534819126,-1.325650994,0.353612155,-1.761161629,4.746686935,3.003310919,,-0.196681902,0.154740319,0.251202136,0.035952676,-0.033052493,0.250494272,,-2.185765266,-1.459418654,1.096245408,0.051851399,0.09912768,0.291282862
2.663980032,,1.533261299,-1.324452702,0.355587304,-1.760826413,4.746914387,3.00539279,,-0.190878347,0.153807148,0.252748907,0.040842239,0.035113782,0.237623215,,-2.291130304,-1.549091101,0.878789723,-0.024400659,-0.192155182,0.035075948
2.671929856,,1.531751156,-1.323205773,0.357693911,-1.760526959,4.746710777,3.00740242,,-0.18984291,0.151710704,0.252544373,0.042232409,-0.021595575,0.246731237,,-2.264228582,-1.766546726,1.089519978,-0.111328006,0.265357167,0.178429812
2.679959808,,1.530217648,-1.322055165,0.359764189,-1.760167901,4.747010231,3.009436369,,-0.188155532,0.148054719,0.249271885,0.039068576,0.029744847,0.242416918,,-2.170072556,-1.719468713,1.035716534,-0.173854694,-0.298908085,0.221130967
2.687879936,,1.528743744,-1.320844952,0.361847192,-1.759940926,4.74678278,3.011362791,,-0.183796465,0.145587564,0.251611203,0.031422637,-0.011792478,0.255743384,,-2.230601549,-1.667907,0.827228069,-0.175379738,0.350759476,0.108277924
2.695949824,,1.527257442,-1.319670502,0.363893896,-1.759689156,4.747034073,3.013312578,,-0.180076569,0.142263934,0.249770433,0.028067056,0.009036106,0.247354418,,-2.313548565,-1.506496668,1.188159585,-0.123528339,-0.245531633,0.346184343
2.703899904,,1.525855541,-1.31859142,0.36592859,-1.759497468,4.746854305,3.015346766,,-0.171230614,0.139132068,0.249054566,0.023465114,-0.010498181,0.250590146,,-2.311306715,-1.665665269,0.98415482,-0.071676932,0.309583366,-0.009150247
2.711969792,,1.524465561,-1.317525212,0.367903739,-1.759305779,4.747081757,3.017297268,,-0.171805859,0.135821223,0.248607159,0.03017628,0.01006675,0.251117468,,-2.10730195,-1.663423419,0.955011308,0,-0.244006589,0.289757818
2.719949824,,1.523135662,-1.316422764,0.369938433,-1.759042565,4.74695015,3.019258976,,-0.16307494,0.131155357,0.24867107,0.03079946,0.03803793,0.238893554,,-2.158863544,-1.712743282,1.051409125,0.059476607,0.280607581,0.03965107
2.727919872,,1.521829128,-1.31535608,0.371913195,-1.758778874,4.747153282,3.021280766,,-0.158626407,0.129710868,0.248850033,0.037151098,0.009036106,0.254281282,,-2.288888454,-1.732919574,0.97742939,0.115903132,-0.210455686,0.195205271
2.735859968,,1.520594597,-1.314373318,0.373852402,-1.758479897,4.747045994,3.023326874,,-0.155520082,0.123702772,0.249399722,0.032812808,0.03235741,0.250590146,,-2.313548565,-1.598410964,1.111938,0.129628494,0.186055019,0.324833781
2.743929856,,1.519360542,-1.313378636,0.375779241,-1.758216206,4.747141361,3.025276899,,-0.1542162,0.123664424,0.249348581,0.029433258,-0.028858015,0.259194821,,-2.205941677,-1.692566991,1.322668195,0.140303791,-0.161654368,0.074727021
2.751849984,,1.51819849,-1.312335793,0.377730429,-1.758012597,4.747213364,3.027310848,,-0.151097104,0.11811652,0.250741959,0.02475941,0.04319115,0.25775671,,-2.149896383,-1.739645004,1.199368596,0.086927347,-0.024400659,0.370584995
2.759869952,,1.516999722,-1.311376874,0.379657626,-1.757820908,4.747105598,3.029308796,,-0.147466689,0.116314098,0.253209114,0.023560988,-0.036360141,0.250062853,,-2.208183289,-1.936924338,1.134356141,0.067101814,0.018300494,0.067101814
2.767949824,,1.515873432,-1.310430352,0.381668359,-1.757605855,4.747357368,3.031330347,,-0.142315075,0.112006165,0.253963321,0.029457226,0.039260324,0.255024314,,-2.338208437,-2.046772957,1.002089262,0.02745074,-0.22723113,0.21198073
2.77588992,,1.514771461,-1.309543435,0.383679092,-1.757354085,4.74716568,3.033412218,,-0.137189016,0.105678499,0.256494373,0.02538259,-0.021595575,0.242416918,,-2.264228582,-2.010904074,1.230754018,-0.044226196,0.19825536,0.144878909
2.783919872,,1.513704777,-1.308728043,0.385677844,-1.757126633,4.747405052,3.0353508,,-0.132817179,0.10409338,0.255139351,0.028114993,0.018503644,0.26034531,,-2.279921293,-1.916748047,1.098487139,-0.09912768,-0.337034106,0.114378087
2.791949824,,1.512589931,-1.307901208,0.387772441,-1.756995026,4.747201443,3.037420511,,-0.130081579,0.098200336,0.25719744,0.020996362,-0.010138655,0.249104112,,-2.176798105,-1.771030307,0.988638461,-0.102177761,0.236381382,0.317208558
2.799919872,,1.511631489,-1.307122533,0.389843106,-1.756791417,4.747416973,3.039514065,,-0.122744031,0.096001633,0.255139351,0.023177492,0.013254553,0.252915084,,-2.192490816,-1.67911613,1.163499713,-0.102177761,-0.32788384,-0.012200329
2.807849984,,1.510600567,-1.306379143,0.391985655,-1.756671731,4.747309208,3.041512012,,-0.118730113,0.093636744,0.257376403,0.017401095,-0.009635317,0.25492844,,-2.270954132,-1.777755737,0.932593167,-0.09302751,0.21350576,0.340084195
2.815879936,,1.509654522,-1.305648152,0.394079894,-1.756491963,4.747536659,3.043545961,,-0.117042735,0.088485129,0.253976077,0.018431738,-0.004865596,0.245892331,,-2.210425138,-1.735161424,1.062618256,-0.032025866,-0.344659299,0.135728672
2.823959808,,1.508743763,-1.304952923,0.396186501,-1.756359879,4.747488499,3.04557991,,-0.11077898,0.085008107,0.254397929,0.018503644,0.045276403,0.258188158,,-2.208183289,-1.777755737,1.004331112,-0.064051732,0.094552554,0.17080462
2.831859968,,1.507868767,-1.304270093,0.398221195,-1.756312672,4.747477055,3.047565937,,-0.107327528,0.083461337,0.25263387,0.012559468,-0.033388052,0.253538281,,-2.073674679,-1.874153614,0.887757003,0.054901481,-0.144878909,0.36905998
2.839949824,,1.507053852,-1.303634946,0.400304198,-1.756072823,4.747644424,3.049612045,,-0.102188691,0.078514248,0.250856996,0.023608925,0.042496063,0.258547664,,-2.259745121,-1.869670033,1.071585417,-0.042701155,-0.210455686,0.082352221
2.847949824,,1.506227016,-1.303011719,0.40229097,-1.75603706,4.747465134,3.051573992,,-0.098634966,0.075574122,0.252186447,0.010905645,-0.021595575,0.252196044,,-2.084883928,-1.81362474,1.085036278,0.122003295,0.076252058,0.324833781
2.85593984,,1.505435944,-1.302412335,0.404289335,-1.755844895,4.747728348,3.053620338,,-0.095720403,0.07144516,0.249131262,0.027491814,0.025909895,0.246779174,,-2.140928984,-1.791206598,1.105212569,0.036600988,-0.352284521,-0.038126029
2.863899904,,1.50471735,-1.301825349,0.406276464,-1.755677525,4.74750042,3.055618286,,-0.090594351,0.069898389,0.249962181,0.013590111,-0.014381071,0.25492844,,-2.131961823,-1.652214408,1.091761708,0.111328006,0.193680227,0.231806263
2.871899904,,1.50399828,-1.301321332,0.408167362,-1.755545918,4.747740269,3.057568073,,-0.086107455,0.064158745,0.247469455,0.01917476,0.014500912,0.244933605,,-2.140928984,-1.632038116,1.134356141,0.150979072,-0.391935587,0.181479901
2.879869952,,1.50329113,-1.300842587,0.410106182,-1.755401913,4.747608662,3.059625864,,-0.0813649,0.060170397,0.250741959,0.018503644,0.005776396,0.26269421,,-2.174556255,-1.652214408,1.188159585,0.12047825,0.245531633,0.10675288
2.887869952,,1.502716064,-1.300362889,0.412056983,-1.755354706,4.74775219,3.061564446,,-0.074423634,0.056923471,0.254679173,0.010785803,-0.003595268,0.25893116,,-2.264228582,-1.706017852,1.172466874,0.18452999,-0.338559151,0.42701152
2.895849984,,1.502104759,-1.299931351,0.414020151,-1.755234543,4.74775219,3.063718081,,-0.071278974,0.055363923,0.25388661,0.014381071,0.047337689,0.255120188,,-2.279921293,-1.81362474,1.369746208,0.222656012,0.080827184,0.064051732
2.90393984,,1.501553535,-1.299512211,0.415983319,-1.755174939,4.747692585,3.06576395,,-0.066855997,0.050761983,0.254372358,0.009946907,-0.03513775,0.254281282,,-2.214908838,-1.869670033,1.219544888,0.123528339,-0.11285305,0.21350576
2.911859968,,1.501050472,-1.299116437,0.418029994,-1.75515062,4.747871876,3.0678339,,-0.060911823,0.048870072,0.262246817,0.004458132,0.032381378,0.243375644,,-2.318032026,-1.858460903,0.775666475,0.181479901,-0.155554205,0.17080462
2.919899904,,1.500558853,-1.29874498,0.420148224,-1.755079095,4.747740269,3.069915533,,-0.057882208,0.045444183,0.253822684,0.003787015,-0.026892602,0.253921777,,-2.183523417,-1.95710063,1.219544888,0.248581707,-0.007625206,0.154029161
2.927949824,,1.500115871,-1.298409287,0.422218859,-1.755019013,4.747991562,3.071985483,,-0.052334312,0.041941591,0.255139351,0.008436895,0.025909895,0.24656345,,-2.105060101,-1.952617049,0.990880251,0.160129324,-0.288232774,0.315683514
2.935949824,,1.499720097,-1.298074071,0.424325466,-1.755054776,4.747776031,3.073983431,,-0.047642887,0.037275735,0.253822684,0.004625911,-0.02492719,0.256678134,,-2.100576401,-2.033322096,0.874306142,0.129628494,0.210455686,0.033550907
2.943990016,,1.49933672,-1.29777414,0.426395744,-1.755042855,4.748027802,3.075921774,,-0.043718453,0.03617638,0.251649559,0.002924151,0.018503644,0.250853807,,-2.145412683,-2.08712554,1.064859986,0.161654368,-0.367534935,0.353809565
2.95188992,,1.499025345,-1.29755861,0.428442419,-1.755030934,4.747835636,3.077979803,,-0.037876543,0.032136898,0.251176566,0.002157161,0.032477252,0.242177233,,-2.066949368,-2.114027262,0.872064292,0.146403953,0.279082537,-0.015250412
2.959869952,,1.498761654,-1.29730684,0.430501074,-1.755030934,4.748003483,3.079953671,,-0.03402881,0.027292075,0.249169618,0.00170176,0.009994844,0.251740634,,-2.082642078,-2.071433067,0.97294575,0.150979072,-0.231806263,0.228756174
2.967929856,,1.498497963,-1.29710323,0.432499826,-1.755042855,4.747991562,3.081904173,,-0.02715146,0.024313595,0.247635633,0.00139017,0.0456599,0.241841674,,-2.138687372,-2.055740356,1.094003558,0.138778746,0.144878909,0.202830479
2.975899904,,1.498234272,-1.296911542,0.434474975,-1.755030934,4.747991562,3.083854198,,-0.02582201,0.022523953,0.246485159,0.001198423,-0.025957832,0.254568905,,-2.11178565,-2.024354935,0.995363891,0.10675288,-0.183004946,0.147928998
2.98388992,,1.498114109,-1.296731297,0.436413795,-1.755054776,4.748075008,3.085851908,,-0.017206151,0.015851134,0.246958122,0.001030643,0.041297641,0.254017651,,-2.154379845,-1.997453213,1.078310847,0.105227843,0.032025866,0.32788384
2.99193984,,1.49795866,-1.296659295,0.438376606,-1.755042855,4.74796772,3.087826252,,-0.015275893,0.014087057,0.246958122,0.000910801,-0.031063111,0.250662059,,-2.181281567,-2.008662224,1.26213932,0.05337644,-0.035075948,0.041176111
2.999869952,,1.497899055,-1.296539609,0.440315783,-1.755019013,4.748207092,3.089800358,,-0.009817477,0.011696604,0.246881425,0.000814927,0.032381378,0.252387792,,-2.181281567,-1.950375199,1.273348451,0.021350577,-0.234856337,0.321783692
3.007879936,,1.49779129,-1.296480004,0.442218661,-1.755054776,4.748003483,3.091810226,,-0.007529289,0.006851781,0.249732077,0.000743022,-0.024519725,0.244358361,,-2.170072556,-2.064707518,1.076069117,-0.007625206,0.135728672,0.09912768
3.01593984,,1.497766972,-1.296455685,0.444193423,-1.755066697,4.748266697,3.093820572,,-0.005726862,0.005407283,0.250256181,0.000551274,0.021595575,0.252891123,,-2.015387774,-2.170072556,0.98639667,-0.045751236,-0.300433099,0.175379738
3.02388992,,1.497803211,-1.296480004,0.446168214,-1.755030934,4.748075008,3.095770597,,0.000830906,0.002594984,0.251342744,0.000551274,-0.016178705,0.241841674,,-1.82035017,-2.385286331,1.147807002,-0.10675288,0.309583366,0.242481545
3.031919872,,1.497887135,-1.296455685,0.448119015,-1.755042855,4.748362541,3.097793102,,0.005790778,-0.000511327,0.249169618,0.000551274,0.011432951,0.255743384,,-1.81138289,-2.575840235,1.062618256,-0.183004946,-0.280607581,0.082352221
3.039949824,,1.497934818,-1.296539609,0.450165689,-1.755066697,4.748219013,3.099802971,,0.009549031,-0.00458916,0.249169618,-0.002157161,-0.010713898,0.244598046,,-1.331635475,-2.721558094,1.082794547,-0.245531633,0.276032448,0.324833781
3.04793984,,1.498018265,-1.296611134,0.452176422,-1.755270783,4.74835062,3.101800919,,0.014828482,-0.009024921,0.248875603,-0.014333134,0.012367721,0.244598046,,-1.423549652,-2.974882603,1.11417985,-0.132678583,-0.183004946,-0.015250412
3.055919872,,1.49816227,-1.296707455,0.454234719,-1.755222623,4.748302937,3.103799105,,0.02320146,-0.015812786,0.248965085,-0.005632586,0.042615905,0.246994883,,-1.241963029,-3.001784325,0.869822502,-0.187580064,0.292807907,0.320258647
3.063909888,,1.498330116,-1.296791379,0.456293374,-1.755234543,4.748410225,3.105713367,,0.023290941,-0.016324112,0.246293411,-0.004865596,0.009491507,0.2378629,,-1.338360906,-3.19906354,1.046925545,-0.272982359,-0.137253702,0.122003295
3.071830016,,1.498509884,-1.296971146,0.458340079,-1.755330388,4.748386383,3.107699394,,0.028225247,-0.019443206,0.244900033,-0.019462382,0.035281561,0.249343798,,-1.208335876,-3.237174511,0.98191303,-0.326358825,0.157079235,0.167754531
3.079849984,,1.498761654,-1.297115151,0.460338801,-1.755485837,4.748398304,3.109578371,,0.029005021,-0.022012625,0.243851811,-0.01176851,-0.024855284,0.241841674,,-1.154532433,-3.36047411,0.827228069,-0.167754531,-0.018300494,0.326358825
3.087879936,,1.499013424,-1.297330681,0.462277621,-1.755450074,4.74855423,3.111552715,,0.034578484,-0.027049195,0.241167352,-0.005464807,0.041992724,0.250062853,,-1.058134556,-3.387375832,1.040200114,-0.352284521,-0.019825535,0.131153539
3.095859968,,1.499312878,-1.29755861,0.464216441,-1.755713765,4.748482227,3.11349082,,0.041149035,-0.030449519,0.240528196,-0.032429315,-0.020636836,0.242249131,,-1.078310847,-3.432211876,1.105212569,-0.28365767,0.051851399,0.353809565
3.10384,,1.499636173,-1.297809903,0.466095358,-1.755761449,4.748637199,3.115429401,,0.041391917,-0.033095635,0.23864907,-0.010785803,0.036432046,0.250062853,,-1.031232834,-3.441179276,1.069343686,-0.315683514,-0.03965107,0.006100165
3.111949824,,1.499983788,-1.298121754,0.467938691,-1.755857293,4.74851799,3.117343426,,0.05027622,-0.038899198,0.240400359,-0.038229678,-0.019510319,0.24622789,,-0.946044028,-3.468080997,0.959494889,-0.475812852,0.089977428,0.337034106
3.119990016,,1.500391006,-1.298421208,0.46979323,-1.756096665,4.748661041,3.119293928,,0.053024605,-0.040535443,0.23738353,-0.018647455,0.034634411,0.236664489,,-1.042441964,-3.445662737,1.078310847,-0.350759476,-0.0259257,0.004575124
3.12793984,,1.500798702,-1.29874498,0.471684486,-1.756228749,4.748530388,3.121148348,,0.058304053,-0.046223957,0.239122048,-0.022889871,-0.026485138,0.244430259,,-1.031232834,-3.407552004,1.25541389,-0.542914689,0.100652717,0.231806263
3.135879936,,1.501349926,-1.299116437,0.473551422,-1.756443803,4.748781204,3.123134375,,0.063327841,-0.04885729,0.239633366,-0.024615599,0.032381378,0.231918722,,-1.049167395,-3.34926486,1.136597991,-0.446837068,-0.115903132,0.160129324
3.14393984,,1.501852989,-1.299571816,0.475418717,-1.756539647,4.748601913,3.125072956,,0.070716515,-0.05381716,0.241729811,-0.023129554,-0.023393208,0.241841674,,-1.037958264,-3.326846838,1.154532433,-0.593241036,0.29738304,0.169279575
3.151909888,,1.502428532,-1.299979512,0.477273643,-1.756755654,4.748865128,3.126998901,,0.073656648,-0.057485931,0.241320744,-0.022266692,0.018503644,0.241841674,,-1.046925545,-3.268559694,1.217303157,-0.491063267,-0.12657842,0.376685172
3.159869952,,1.50303936,-1.300494496,0.479248405,-1.756886784,4.74868536,3.128937483,,0.079549685,-0.061602112,0.243084833,-0.020157468,-0.011049456,0.2440947,,-0.997605681,-3.169920206,0.952769458,-0.628316939,0.347709388,0.077777103
3.16788992,,1.503710747,-1.300974194,0.481151283,-1.757090871,4.748948574,3.130911827,,0.082783833,-0.063941434,0.240962818,-0.02257828,0.01191232,0.241913572,,-0.98415482,-3.113874912,0.910175085,-0.50936377,-0.094552554,0.390410542
3.17593984,,1.504393578,-1.301501576,0.483173639,-1.757294003,4.748756886,3.132837772,,0.089443862,-0.066830434,0.238994211,-0.031494543,-0.01423726,0.236976072,,-0.957253098,-3.102665901,0.930351377,-0.56731534,0.35533461,0.076252058
3.183929856,,1.505112648,-1.302005116,0.485088855,-1.75751001,4.748996258,3.134740829,,0.091156811,-0.069757774,0.238917515,-0.025909895,0.010833739,0.232302219,,-0.941560447,-3.165436506,0.847404361,-0.475812852,-0.047276277,0.306533277
3.19184,,1.505879879,-1.302615945,0.487087607,-1.757797066,4.748840809,3.136607409,,0.098021373,-0.075650819,0.234558448,-0.034969971,-0.012175973,0.227604404,,-0.887757003,-3.248383522,1.031232834,-0.375160128,0.391935587,-0.028975783
3.199879936,,1.506694317,-1.303239171,0.488978118,-1.758048836,4.749044418,3.138425827,,0.102060854,-0.077951789,0.232909426,-0.032381378,0.01577124,0.234003991,,-0.955011308,-3.317879677,1.127630711,-0.366009891,-0.059476607,0.288232774
3.207919872,,1.507544994,-1.30389816,0.490905315,-1.758216206,4.748924732,3.14034009,,0.107723802,-0.081339329,0.232436448,-0.02768356,0.031973913,0.220509753,,-0.957253098,-3.373924971,0.809293628,-0.300433099,0.375160128,0.012200329
3.215959808,,1.508396149,-1.304533784,0.492784232,-1.758467976,4.749044418,3.142063141,,0.109679632,-0.084138848,0.229649708,-0.031182954,-0.024327977,0.232685715,,-0.9751876,-3.34926486,0.903449655,-0.352284521,0.02745074,0.224181056
3.224,,1.50929451,-1.305228535,0.494615555,-1.758671109,4.749080181,3.143953562,,0.115726069,-0.088715225,0.229074463,-0.028881984,0.041992724,0.218975767,,-1.013298392,-3.35374856,1.033474684,-0.38278535,0.2699323,0.125053376
3.231929856,,1.510241508,-1.305935685,0.496458143,-1.758922879,4.749080181,3.145736218,,0.120161831,-0.091680922,0.225444049,-0.039523974,-0.025334653,0.229593784,,-1.024507403,-3.282010555,0.919142306,-0.480387986,0.082352221,0.202830479
3.23993984,,1.511236191,-1.306738679,0.498241544,-1.759293858,4.749164104,3.147566795,,0.124866039,-0.094467655,0.225124463,-0.040602557,0.038205709,0.223649621,,-1.035716534,-3.234932661,1.031232834,-0.513938904,0.215030804,0.247056678
3.24788992,,1.512242794,-1.307541672,0.499989003,-1.759545628,4.749116421,3.149373531,,0.127563283,-0.09933804,0.222964108,-0.033891391,-0.023105586,0.233236998,,-1.017781973,-3.250625372,1.241963029,-0.571890414,0.210455686,0.144878909
3.255949824,,1.51328516,-1.308356587,0.501700103,-1.759868924,4.749247551,3.151168585,,0.130081579,-0.10287898,0.223206997,-0.032692965,0.039212387,0.226525828,,-1.1164217,-3.277527094,1.159016013,-0.593241036,0.155554205,0.34160924
3.263990016,,1.514351368,-1.309183423,0.503471553,-1.760072056,4.749140263,3.153023005,,0.134581253,-0.10589581,0.225801975,-0.030224217,-0.021595575,0.229521886,,-0.97742939,-3.382892132,1.165741444,-0.655767679,0.300433099,0.141828835
3.271820032,,1.515441895,-1.310046498,0.505218625,-1.760311429,4.749343395,3.154722214,,0.13867186,-0.10711021,0.224395826,-0.035017908,0.032381378,0.224344701,,-1.085036278,-3.542060614,1.033474684,-0.648142517,0.032025866,0.318733603
3.279909888,,1.51655674,-1.310957734,0.507001996,-1.760622803,4.749176025,3.156612635,,0.14260909,-0.111226395,0.226147115,-0.040099218,-0.02430401,0.232829526,,-0.98415482,-3.517400742,0.995363891,-0.555114985,0.419386327,0.062526688
3.287869952,,1.517718792,-1.311856572,0.508761048,-1.760993783,4.749379635,3.158347368,,0.149077371,-0.113425098,0.22401233,-0.04237622,0.025909895,0.222163573,,-0.829469919,-3.412035704,1.042441964,-0.471237719,-0.089977428,0.343134254
3.295929856,,1.518940926,-1.312815015,0.510544479,-1.761305634,4.749164104,3.160082579,,0.152324289,-0.117784157,0.224216864,-0.045348309,-0.011720573,0.229162365,,-0.829469919,-3.315637827,0.905691445,-0.362959802,0.50936377,0.064051732
3.303959808,,1.520115852,-1.313797776,0.51232785,-1.761664693,4.749379635,3.161889076,,0.158549696,-0.119497105,0.22153239,-0.039835565,-0.023704797,0.219479099,,-0.955011308,-3.282010555,1.013298392,-0.309583366,-0.080827184,0.312633455
3.311869952,,1.521373749,-1.314816777,0.514098525,-1.761999909,4.749319553,3.163672209,,0.164647281,-0.124405846,0.221212819,-0.040290967,0.043910202,0.225567088,,-1.062618256,-3.237174511,1.028990984,-0.285182714,0.41023609,0.022875618
3.319919872,,1.522691727,-1.315835301,0.515881956,-1.762335126,4.749319553,3.165406942,,0.167868629,-0.126936913,0.22153239,-0.042735748,-0.032884713,0.22173214,,-1.017781973,-3.398584843,0.910175085,-0.38278535,0.149454042,0.449887156
3.327899904,,1.524081707,-1.316878144,0.517701328,-1.762670342,4.749498844,3.167177916,,0.17158854,-0.13011992,0.217339516,-0.045108624,0.043478768,0.222523093,,-0.961736739,-3.317879677,0.768941045,-0.483438045,0.077777103,0.082352221
3.335909888,,1.525472164,-1.317908589,0.519555867,-1.763053719,4.749283791,3.168840647,,0.174771547,-0.132932216,0.215294212,-0.046331014,-0.025909895,0.218520373,,-1.071585417,-3.306670666,0.943802238,-0.46818763,0.465137571,0.367534935
3.343830016,,1.526885986,-1.318975274,0.521315277,-1.763352696,4.749570847,3.170563936,,0.176906332,-0.136460379,0.212085634,-0.040290967,0.013278522,0.218664169,,-1.165741444,-3.326846838,0.822744489,-0.571890414,-0.12047825,0.074727021
3.351909888,,1.528336048,-1.320054356,0.523050368,-1.763688389,4.749343395,3.172239304,,0.181878999,-0.141190156,0.211075768,-0.037750311,-0.016178705,0.217441782,,-1.080552697,-3.208030939,0.809293628,-0.585615814,0.550539851,0.459037393
