Junhao2000/UR5-final-year-project/SDH/Verify_Dyn_Equations/circle_movement_25mms.csv
Time,Position->,Joint 1,Joint 2,Joint 3,Joint 4,Joint 5,Joint 6,Velocity->,Joint 1,Joint 2,Joint 3,Joint 4,Joint 5,Joint 6,Current->,Joint 1,Joint 2,Joint 3,Joint 4,Joint 5,Joint 6
0,,1.951153755,-1.720434968,0.508509755,-1.786007229,4.748470306,3.156588793,,0,-0.001879127,0,0,0,-0.004985438,,-1.082794547,-1.986244202,-0.13899225,-0.298908085,0.009150247,-0.239431471
0.008,,1.951153755,-1.720434968,0.508509755,-1.786007229,4.748458385,3.156564713,,0.001866343,-0.004244014,0,0,0,-0.004985438,,-1.013298392,-1.997453213,-0.28022632,-0.29738304,0.004575124,-0.190630153
0.016040192,,1.951237679,-1.720459286,0.508461833,-1.786007229,4.748446465,3.156540871,,0.006851781,-0.005023787,-0.004972654,0,0,-0.003906858,,-1.309217334,-1.849493742,-0.150201306,-0.280607581,0.015250412,-0.216555849
0.024150016,,1.95126152,-1.720542733,0.508425891,-1.785995309,4.748422146,3.156540871,,0.005011004,-0.005765211,-0.003962784,0,0,-0.003211772,,-1.167983294,-2.033322096,-0.269017279,-0.274507403,0.004575124,-0.277557492
0.032020224,,1.951309204,-1.720639054,0.508425891,-1.785983388,4.748434067,3.156361341,,0.003361975,-0.010622817,-0.009664079,0,0,-0.018503644,,-1.051409125,-1.932440639,-0.365415126,-0.245531633,0.006100165,-0.131153539
0.040080128,,1.951309204,-1.720662896,0.508318424,-1.786007229,4.748470306,3.156361341,,0.008884305,-0.008270714,-0.008372978,0,0,-0.005632586,,-1.067101836,-2.024354935,-0.286951751,-0.234856337,-0.010675289,-0.218080893
0.048100096,,1.951405048,-1.720759217,0.508246481,-1.785995309,4.748458385,3.156277418,,0.007107445,-0.013652429,-0.014253238,0,0,-0.027180223,,-1.022265553,-2.060223818,-0.479747444,-0.233331308,-0.016775453,-0.231806263
0.05616,,1.951488972,-1.720878903,0.508150637,-1.786031071,4.748446465,3.15614605,,0.014163756,-0.013320067,-0.009843044,0,0,-0.01176851,,-1.134356141,-1.952617049,-0.318337113,-0.22723113,-0.018300494,-0.07930214
0.064150016,,1.951572895,-1.720986668,0.508066714,-1.786007229,4.748458385,3.156086206,,0.011543206,-0.016298546,-0.014649517,0,0,-0.021044299,,-0.999847531,-1.981760502,-0.55372721,-0.18452999,-0.019825535,-0.292807907
0.07211008,,1.951705456,-1.721130673,0.507923305,-1.785995309,4.748446465,3.155882835,,0.017858094,-0.016234631,-0.017998708,0,0,-0.020469056,,-1.020023823,-2.001936913,-0.470780224,-0.154029161,-0.02745074,-0.003050082
0.080120064,,1.951813221,-1.721262757,0.507779479,-1.785995309,4.748422146,3.155762911,,0.016042883,-0.017385116,-0.018931881,0,0,-0.009347696,,-1.11866343,-1.918989778,-0.580628932,-0.132678583,-0.024400659,-0.186055019
0.088,,1.95200491,-1.721418683,0.507648408,-1.786007229,4.748434067,3.155547619,,0.016579775,-0.018829614,-0.020708742,0,0,-0.024399882,,-1.100728989,-1.943649769,-0.533550918,-0.08540231,-0.032025866,0.074727021
0.096040192,,1.952112675,-1.721598927,0.507504582,-1.786007229,4.748434067,3.155464172,,0.016042883,-0.018331071,-0.021680262,0,0,-0.010042781,,-1.105212569,-1.9458915,-0.625465155,-0.077777103,-0.045751236,-0.129628494
0.103990016,,1.952208042,-1.721754376,0.507349193,-1.786007229,4.748434067,3.155236483,,0.018931881,-0.020005666,-0.025067803,0,0,-0.025909895,,-1.073827267,-1.896571755,-0.668059528,-0.024400659,-0.050326359,0.143353865
0.112040192,,1.95238781,-1.721874539,0.507133842,-1.785959069,4.748434067,3.155104876,,0.016413596,-0.02058091,-0.02550243,0,0,-0.013230585,,-1.058134556,-1.894329906,-0.737555683,0.015250412,-0.047276277,-0.082352221
0.120070144,,1.952519894,-1.72210199,0.506954074,-1.785863225,4.748434067,3.154865742,,0.019366508,-0.023866184,-0.027138676,0.004625911,0,-0.031830102,,-1.049167395,-1.840526462,-0.860855222,-0.0259257,-0.05337644,0.097602636
0.128020224,,1.952640057,-1.722269837,0.506750703,-1.785899464,4.748458385,3.154698133,,0.019238677,-0.022038192,-0.030193856,0.004314321,0,-0.029433258,,-0.999847531,-1.869670033,-0.851888001,-0.015250412,-0.057951566,-0.115903132
0.136030208,,1.952807903,-1.722450082,0.506487429,-1.785875146,4.748434067,3.154411078,,0.022702916,-0.025476865,-0.030040458,0.002804309,0,-0.026581012,,-0.98639667,-1.867428184,-0.97294575,0.015250412,-0.059476607,-0.051851399
0.144020224,,1.952963352,-1.722689454,0.506236136,-1.78580362,4.748434067,3.154171705,,0.021296768,-0.026985278,-0.033824276,0.002348908,0,-0.043071307,,-0.963978529,-1.82035017,-0.952769458,0.059476607,-0.056426525,-0.129628494
0.15206016,,1.95319128,-1.722881619,0.505984843,-1.785671536,4.748410225,3.153920412,,0.023086412,-0.026780749,-0.035166509,0.009251822,0,-0.032069787,,-0.946044028,-1.871911764,-1.042441964,-0.089977428,-0.057951566,-0.219605923
0.160100096,,1.953359127,-1.723097626,0.505685627,-1.785719697,4.748422146,3.153669119,,0.024313595,-0.029401299,-0.038208906,0.004386227,0,-0.035545211,,-0.910175085,-1.824833751,-0.97294575,-0.007625206,-0.065576769,-0.215030804
0.16806016,,1.953563213,-1.723337475,0.505422354,-1.785659615,4.748398304,3.153417826,,0.025451299,-0.030807449,-0.039972983,0.004386227,0,-0.034131072,,-0.896724224,-1.782239437,-0.948285878,0.033550907,-0.083877265,-0.315683514
0.176120064,,1.953766823,-1.723577325,0.505087137,-1.785564248,4.748410225,3.153118849,,0.025988191,-0.031600006,-0.042210039,0.013949638,0,-0.0376065,,-0.885515153,-1.744128585,-0.876547933,-0.0259257,-0.09302751,-0.257731974
0.184050176,,1.953994274,-1.723864857,0.504728019,-1.785528008,4.748362541,3.15275979,,0.028046282,-0.033146769,-0.043501139,0.006471482,-0.00107858,-0.047121976,,-0.921384156,-1.658939838,-0.887757003,-0.05337644,-0.083877265,-0.196730316
0.192070144,,1.954221725,-1.724117104,0.50439322,-1.785468403,4.748254776,3.152412891,,0.028966671,-0.035140943,-0.046735283,0.004314321,-0.00107858,-0.048488177,,-0.928109586,-1.602894545,-0.910175085,0.022875618,-0.091502473,-0.102177761
0.200020224,,1.954449654,-1.724404637,0.504034042,-1.785420243,4.748291016,3.152006388,,0.029183986,-0.035716187,-0.047502272,0.018863171,-0.005656554,-0.046378952,,-0.916900516,-1.587201834,-0.905691445,-0.094552554,-0.016775453,0.048801318
0.208090112,,1.954689503,-1.724728409,0.503650904,-1.785348241,4.74835062,3.15163517,,0.032162465,-0.037211817,-0.049892727,0.006471482,0.001486044,-0.044940844,,-0.901207864,-1.531156659,-0.822744489,-0.089977428,-0.062526688,0.012200329
0.216,,1.954965115,-1.725016419,0.503219843,-1.785276715,4.748314857,3.151311874,,0.031715054,-0.038081072,-0.051298875,0.013086774,-0.001438107,-0.047553405,,-0.968462169,-1.558058381,-0.733072042,0.004575124,-0.08540231,-0.051851399
0.224050176,,1.955144882,-1.725340192,0.502837121,-1.785108868,4.748279095,3.150845289,,0.030845799,-0.037710361,-0.053855509,0.020996362,-0.001438107,-0.060472403,,-0.867580712,-1.68584156,-0.683752239,-0.208930641,-0.048801318,-0.140303791
0.232020224,,1.955432892,-1.725615803,0.502406061,-1.785121266,4.748279095,3.150414705,,0.035473306,-0.040254213,-0.054852597,0.006471482,-0.001438107,-0.052850433,,-0.946044028,-1.694808722,-0.737555683,-0.111328006,-0.042701155,-0.19825536
0.240030208,,1.955672264,-1.725951497,0.501951396,-1.785037343,4.748279095,3.149971485,,0.034194991,-0.040982854,-0.056412145,0.018935077,-0.001438107,-0.049974218,,-0.98191303,-1.746370435,-0.764457405,-0.05337644,-0.035075948,-0.294332951
0.248,,1.955996037,-1.726299588,0.50150913,-1.784893338,4.748302937,3.149564981,,0.036674924,-0.041916028,-0.05769046,0.016202673,-0.001438107,-0.054216634,,-0.988638461,-1.773272157,-0.813777208,-0.260782033,-0.048801318,-0.274507403
0.256040192,,1.956295967,-1.726647202,0.50109005,-1.784893338,4.748279095,3.14914608,,0.037480265,-0.041430265,-0.05683399,0.005872271,-0.001438107,-0.057644125,,-1.11417985,-1.735161424,-0.775666475,-0.150979072,-0.041176111,-0.175379738
0.264020224,,1.956547737,-1.726971451,0.500599444,-1.784809415,4.748279095,3.148679495,,0.036189165,-0.041532531,-0.056603894,0.021883195,-0.001294296,-0.057955716,,-1.100728989,-1.741886854,-0.724104822,-0.11285305,-0.036600988,-0.035075948
0.27206016,,1.956859112,-1.727366749,0.500132442,-1.784665887,4.748291016,3.148260832,,0.036035765,-0.041059554,-0.057166353,0.009946907,-0.001126517,-0.052874401,,-1.067101836,-1.786723018,-0.614256084,-0.358384669,-0.044226196,0.019825535
0.279990016,,1.957147121,-1.727642361,0.499701738,-1.784689728,4.748291016,3.147818089,,0.035665054,-0.042261172,-0.057422016,0.004458132,-0.000982706,-0.05510347,,-1.150048852,-1.773272157,-0.641157806,-0.178429812,-0.05337644,-0.057951566
0.28801024,,1.957410336,-1.728026215,0.499235123,-1.784581963,4.748279095,3.147351503,,0.034476221,-0.041225735,-0.056897905,0.014788534,-0.000862864,-0.063444488,,-1.111938,-1.81138289,-0.724104822,-0.210455686,-0.050326359,-0.129628494
0.29601024,,1.957662106,-1.728290383,0.498780072,-1.7845462,4.748279095,3.146848917,,0.033274602,-0.041737061,-0.055785768,0.009251822,-0.000790959,-0.055630773,,-1.049167395,-1.81810832,-0.735313833,-0.329408884,-0.054901481,-0.190630153
0.304,,1.957973957,-1.728638474,0.498361379,-1.784474198,4.748242855,3.146490097,,0.035179295,-0.041519746,-0.057345316,0.004314321,0,-0.048320398,,-1.134356141,-1.759821296,-0.677026808,-0.179954857,-0.070151895,-0.274507403
0.31216,,1.958237648,-1.728986088,0.497858435,-1.784450356,4.748254776,3.146035433,,0.033031721,-0.042158905,-0.056693375,0.003379551,0,-0.056253955,,-1.035716534,-1.728435993,-0.56493628,-0.143353865,-0.076252058,-0.221130967
0.320050176,,1.958477497,-1.729369942,0.497427732,-1.784318272,4.748279095,3.145545006,,0.033990458,-0.042631883,-0.055811334,0.013709954,0,-0.060112875,,-0.950527668,-1.670148849,-0.618739724,-0.280607581,-0.080827184,-0.070151895
0.328080128,,1.958776951,-1.729693238,0.497008651,-1.78433067,4.748279095,3.145126104,,0.032891106,-0.041839328,-0.055044346,0.006159892,0,-0.053521551,,-0.97967124,-1.609619975,-0.6972031,-0.210455686,-0.077777103,0.01372537
0.336030208,,1.958957195,-1.729993169,0.496542037,-1.784282509,4.748266697,3.144671679,,0.032558743,-0.041379131,-0.056373794,0.003451457,0,-0.053066149,,-0.928109586,-1.641005278,-0.748764753,-0.118953213,-0.088452391,0.022875618
0.344,,1.95923233,-1.730329339,0.496122956,-1.784175221,4.748279095,3.14428854,,0.032686576,-0.041634794,-0.055453409,0.014572818,0,-0.060903832,,-0.858613431,-1.661181569,-0.789117336,-0.257731974,-0.097602636,-0.122003295
0.352040192,,1.959532261,-1.730676953,0.495668292,-1.7841633,4.748279095,3.143773794,,0.03367088,-0.041877676,-0.055581238,0.008077368,0,-0.06485863,,-0.892240584,-1.634279847,-0.748764753,-0.245531633,-0.09912768,-0.17080462
0.360020224,,1.959748268,-1.730964963,0.495237261,-1.784103219,4.748266697,3.143331289,,0.033632528,-0.04149418,-0.05554289,0.010689929,0,-0.049063418,,-0.919142306,-1.616345406,-0.600805223,-0.073201977,-0.12047825,-0.274507403
0.36806016,,1.96002388,-1.731348817,0.494794965,-1.784007374,4.748207092,3.142924547,,0.03214968,-0.040893372,-0.054123957,0.008245147,-0.000982706,-0.051172644,,-0.847404361,-1.611861825,-0.533550918,-0.254681885,-0.128103465,-0.330933928
0.375990016,,1.96027565,-1.731660191,0.494352281,-1.783995454,4.748182774,3.142505884,,0.032162465,-0.040752757,-0.055517323,0.007621967,-0.000982706,-0.058554925,,-0.84516257,-1.598410964,-0.645641446,-0.143353865,-0.105227843,-0.245531633
0.384080128,,1.960526943,-1.731996361,0.49392122,-1.783971135,4.748195171,3.142003298,,0.034310039,-0.040612143,-0.055223309,0.001246359,-0.000982706,-0.059825253,,-0.941560447,-1.656697989,-0.670301378,-0.050326359,-0.105227843,-0.100652717
0.392020224,,1.960778713,-1.732332055,0.493478566,-1.783791367,4.748182774,3.141572475,,0.032827191,-0.040957287,-0.055875253,0.018503644,-0.000982706,-0.057931747,,-0.889998794,-1.732919574,-0.679268599,-0.181479901,-0.108277924,-0.035075948
0.400080128,,1.961090565,-1.732631509,0.492999554,-1.783779446,4.748207092,3.141069889,,0.03496198,-0.040970072,-0.055760201,0.005632586,-0.000982706,-0.057188723,,-1.053650975,-1.809141159,-0.632190585,-0.086927347,-0.096077591,-0.044226196
0.408020224,,1.961366177,-1.732991521,0.4925569,-1.783743683,4.748158932,3.140591383,,0.035255991,-0.04164758,-0.05668059,0.004745753,-0.000982706,-0.061550982,,-1.105212569,-1.880879045,-0.654608667,-0.001525041,-0.096077591,-0.150979072
0.41606016,,1.961629868,-1.733267132,0.492113858,-1.783600632,4.748207092,3.14014864,,0.032290295,-0.040918939,-0.05538949,0.017904432,-0.000982706,-0.055127438,,-1.031232834,-1.903297186,-0.733072042,-0.091502473,-0.123528339,-0.21198073
0.42411008,,1.961869717,-1.733591382,0.491623253,-1.78357679,4.748195171,3.139705896,,0.035345476,-0.03883528,-0.055811334,0.007621967,-0.000982706,-0.048560083,,-1.096245408,-1.912264347,-0.759973764,-0.076252058,-0.12657842,-0.260782033
0.432100096,,1.96216917,-1.733915154,0.49120456,-1.783516709,4.748170853,3.139323235,,0.032788839,-0.040177513,-0.055913601,0.004122573,-0.000982706,-0.051556136,,-1.136597991,-1.921231627,-0.786875486,0.065576769,-0.109802961,-0.266882211
0.44,,1.96242094,-1.734238927,0.490737557,-1.783301179,4.748195171,3.138916492,,0.033364084,-0.040177513,-0.055121046,0.016178705,-0.000886833,-0.059058264,,-1.138839722,-1.867428184,-0.784633696,-0.138778746,-0.109802961,-0.132678583
0.448050176,,1.962708473,-1.73453838,0.490270913,-1.783301179,4.748170853,3.138437986,,0.033146769,-0.039231561,-0.054967646,0.006519419,-0.000790959,-0.058602862,,-1.156774282,-1.871911764,-0.728588402,0.068626851,-0.117428169,-0.051851399
0.456130048,,1.962948322,-1.734862153,0.489839852,-1.783157651,4.748182774,3.137983322,,0.03374758,-0.040957287,-0.056309879,0.022722092,-0.000719053,-0.055942364,,-1.208335876,-1.748612285,-0.571661711,0.009150247,-0.118953213,-0.022875618
0.463990016,,1.963175774,-1.735186402,0.489361227,-1.783085648,4.748170853,3.137540102,,0.031280424,-0.041302435,-0.055274442,0.009251822,-0.000671117,-0.059945095,,-1.161257863,-1.658939838,-0.526825488,-0.0259257,-0.117428169,-0.068626851
0.472140032,,1.963439941,-1.735474412,0.488930166,-1.783073727,4.748170853,3.137037992,,0.032366995,-0.041059554,-0.05683399,0.004506069,-0.000599211,-0.06234194,,-1.138839722,-1.703776002,-0.511132777,0.132678583,-0.135728672,-0.160129324
0.479990016,,1.963691711,-1.735822026,0.48843956,-1.78289396,4.748147011,3.136571407,,0.03222638,-0.040573794,-0.055657938,0.021595575,-0.000575243,-0.050405651,,-1.1164217,-1.611861825,-0.535792708,-0.044226196,-0.144878909,-0.244006589
0.488,,1.964015484,-1.736157242,0.487985283,-1.782905881,4.748099327,3.136188269,,0.032315861,-0.041136254,-0.055772986,0.010186591,-0.000575243,-0.046139266,,-1.046925545,-1.528914809,-0.488714695,0.059476607,-0.157079235,-0.323308736
0.496030208,,1.964254856,-1.736481015,0.487482339,-1.782846276,4.748063087,3.135781527,,0.033287384,-0.039806802,-0.055632371,0.001294296,-0.004242416,-0.056829195,,-1.105212569,-1.517705798,-0.441636682,0.149454042,-0.11285305,-0.279082537
0.504070144,,1.964494705,-1.736793343,0.487111568,-1.782714669,4.748086929,3.13527894,,0.032366995,-0.039972983,-0.054481886,0.021212079,-0.004242416,-0.060951769,,-1.044683695,-1.470627666,-0.612014294,0.009150247,-0.064051732,-0.160129324
0.512040192,,1.96480608,-1.737081353,0.486620575,-1.782762353,4.74813509,3.134800196,,0.032967806,-0.039461657,-0.057345316,0.006159892,-0.003499394,-0.059609536,,-0.990880251,-1.425791502,-0.706170321,0.070151895,-0.057951566,-0.010675289
0.520030208,,1.965081692,-1.737440888,0.48614198,-1.782666508,4.748111248,3.134334087,,0.03194515,-0.03762088,-0.056514408,0.004146542,-0.002444782,-0.057092849,,-1.035716534,-1.414582491,-0.791359127,0.154029161,-0.073201977,-0.021350577
0.528040192,,1.965322018,-1.737728898,0.485699296,-1.782558743,4.748111248,3.133867502,,0.032009065,-0.03870745,-0.05662946,0.016058862,-0.001869539,-0.059657473,,-0.98639667,-1.416824222,-0.773424625,0.01372537,-0.09912768,-0.088452391
0.536070144,,1.96559763,-1.738028351,0.485232294,-1.78252298,4.74813509,3.133352518,,0.031932369,-0.037646446,-0.055223309,0,-0.001510012,-0.058746673,,-0.919142306,-1.506496668,-0.791359127,0.082352221,-0.096077591,-0.155554205
0.544140032,,1.965825081,-1.738352124,0.484777629,-1.782378976,4.748099327,3.132873774,,0.031791754,-0.039423306,-0.056885123,0.023081617,-0.001270328,-0.051484231,,-0.98639667,-1.593927264,-0.677026808,0.083877265,-0.100652717,-0.228756174
0.552020224,,1.966113091,-1.738664452,0.484299034,-1.782331292,4.748123169,3.132466793,,0.031548873,-0.037940457,-0.055236094,0.007190535,-0.001102549,-0.052922338,,-1.022265553,-1.620828986,-0.573903501,0,-0.097602636,-0.265357167
0.56006016,,1.966352463,-1.738951985,0.483832002,-1.782343213,4.748075008,3.132036448,,0.032737706,-0.036380913,-0.056156483,0.003763047,-0.000958738,-0.059130169,,-1.035716534,-1.67911613,-0.609772444,0.091502473,-0.108277924,-0.158604279
0.568040192,,1.966580391,-1.739251916,0.483413309,-1.782259289,4.748111248,3.131545782,,0.031497739,-0.03891198,-0.054660849,0.011984225,-0.000862864,-0.060184781,,-1.026749253,-1.652214408,-0.672543168,0.083877265,-0.111328006,-0.01372537
0.576040192,,1.966868401,-1.739563767,0.482922345,-1.782211606,4.748123169,3.131055355,,0.031254858,-0.037199035,-0.05546619,0.009946907,0,-0.051891696,,-1.073827267,-1.714985013,-0.636674225,-0.047276277,-0.132678583,0.047276277
0.58406016,,1.967167854,-1.739839379,0.482479662,-1.782163445,4.748075008,3.130648136,,0.030500652,-0.037978809,-0.055619586,0.004458132,0,-0.053353772,,-1.11417985,-1.681357861,-0.576145291,0.07930214,-0.138778746,-0.018300494
0.592070144,,1.967371464,-1.740126912,0.48202464,-1.782043759,4.748086929,3.130217552,,0.029541913,-0.037199035,-0.053714894,0.016274579,0,-0.064235449,,-1.105212569,-1.703776002,-0.580628932,0.044226196,-0.140303791,-0.141828835
0.600080128,,1.967587471,-1.740403001,0.481581986,-1.782019917,4.748075008,3.12964344,,0.030193856,-0.037723146,-0.05526166,0.009251822,0,-0.056781258,,-1.069343686,-1.643247128,-0.677026808,-0.11285305,-0.143353865,-0.190630153
0.60806016,,1.967863083,-1.740763013,0.481175244,-1.781971757,4.748051643,3.129236698,,0.03237978,-0.03906538,-0.054507453,0.004314321,0,-0.051292486,,-1.147807002,-1.656697989,-0.854129791,0.030500824,-0.158604279,-0.298908085
0.616020224,,1.968114853,-1.74102718,0.480708241,-1.781828229,4.748027802,3.128793955,,0.030449519,-0.038400654,-0.056079783,0.02274606,0,-0.053401709,,-1.12314713,-1.632038116,-0.937076807,-0.068626851,-0.157079235,-0.282132626
0.624090112,,1.968402386,-1.741362397,0.480265588,-1.781816308,4.748039722,3.128303289,,0.031101461,-0.038157772,-0.056092564,0.007190535,-0.001366202,-0.060879864,,-1.12090528,-1.567025542,-0.970703959,-0.082352221,-0.163179412,-0.155554205
0.632,,1.968641758,-1.741638009,0.479811311,-1.781756703,4.748015404,3.127860308,,0.030385604,-0.038323954,-0.055095479,0.004697816,-0.001366202,-0.060304623,,-1.230754018,-1.531156659,-1.002089262,0.003050082,-0.160129324,-0.007625206
0.640090112,,1.968845844,-1.741937939,0.479344279,-1.781552617,4.74796772,3.127393961,,0.028416995,-0.03754418,-0.057779945,0.016178705,-0.001366202,-0.053473614,,-1.12090528,-1.524431229,-0.872064292,-0.218080893,-0.155554205,-0.001525041
0.648140032,,1.969085693,-1.74228603,0.478877664,-1.781600777,4.748015404,3.126939297,,0.029835926,-0.03746748,-0.058738682,0.005273059,-0.001366202,-0.057763968,,-1.138839722,-1.457176805,-0.759973764,-0.08540231,-0.160129324,-0.068626851
0.656020224,,1.969372749,-1.742549721,0.478410631,-1.781444852,4.747979641,3.12644887,,0.029043371,-0.037224602,-0.057549845,0.022410501,-0.001366202,-0.064067669,,-1.163499713,-1.434758782,-0.802568197,-0.10675288,-0.161654368,-0.143353865
0.664070144,,1.969577312,-1.742885892,0.477955997,-1.781361405,4.747991562,3.125934124,,0.02726651,-0.03754418,-0.057958908,0.012631373,-0.001366202,-0.055007596,,-1.078310847,-1.430275083,-0.762215614,-0.195205271,-0.155554205,-0.21198073
0.67206016,,1.969792843,-1.743173424,0.477501333,-1.781325642,4.747991562,3.12552762,,0.028647091,-0.036201946,-0.05827849,0.005872271,-0.001318265,-0.051747885,,-1.145565152,-1.53564024,-0.726346612,-0.140303791,-0.160129324,-0.276032448
0.680030208,,1.970008373,-1.743473355,0.47702235,-1.781277482,4.74796772,3.125072956,,0.027828969,-0.03718625,-0.057626545,0.02135589,-0.001126517,-0.060424466,,-1.12314713,-1.53564024,-0.623223305,-0.117428169,-0.163179412,-0.186055019
0.688080128,,1.970260143,-1.743760888,0.476579696,-1.781157796,4.748027802,3.124594212,,0.028301947,-0.036738839,-0.05827849,0.010785803,-0.000982706,-0.062150192,,-1.028990984,-1.546849251,-0.623223305,-0.289757818,-0.18452999,-0.036600988
0.696050176,,1.970524311,-1.744097058,0.476112664,-1.781121556,4.747991562,3.124091625,,0.027777836,-0.036636576,-0.058751464,0.004577974,-0.000886833,-0.054911721,,-1.127630711,-1.573750973,-0.69496125,-0.158604279,-0.186055019,0.041176111
0.704070144,,1.970680237,-1.74437267,0.47567001,-1.78100187,4.747943878,3.123684883,,0.027317641,-0.036419261,-0.05921166,0.021260016,-0.000814927,-0.054216634,,-1.091761708,-1.618587255,-0.764457405,-0.271457344,-0.179954857,-0.047276277
0.712,,1.970919609,-1.744612996,0.475215346,-1.780989949,4.747943878,3.123182297,,0.027534956,-0.035665054,-0.058035608,0.009611349,-0.000814927,-0.064690851,,-1.040200114,-1.688083291,-0.883273363,-0.266882211,-0.175379738,-0.160129324
0.720040192,,1.971170902,-1.744936291,0.474748343,-1.780966107,4.747943878,3.122619867,,0.027880101,-0.035345476,-0.058968779,0.005392902,-0.000814927,-0.06255766,,-1.085036278,-1.728435993,-0.903449655,-0.224181056,-0.176904783,-0.248581707
0.72801024,,1.971363068,-1.745199982,0.474281698,-1.780894581,4.747943878,3.122225046,,0.027087545,-0.036099683,-0.060451627,0.017544907,-0.000814927,-0.051172644,,-1.076069117,-1.710501432,-0.813777208,-0.12657842,-0.172329649,-0.309583366
0.736100096,,1.971602917,-1.745536153,0.473838657,-1.780798737,4.74793148,3.121770382,,0.027828969,-0.035639487,-0.060962953,0.01176851,-0.000814927,-0.057739999,,-1.004331112,-1.757579446,-0.753248334,-0.398035735,-0.193680227,-0.308058321
0.743980032,,1.971782684,-1.74580032,0.473372042,-1.780762498,4.747883797,3.121291876,,0.026742399,-0.035396606,-0.05928836,0,-0.000814927,-0.063276708,,-1.073827267,-1.777755737,-0.84067893,-0.189105108,-0.19978039,-0.172329649
0.752120064,,1.972034454,-1.746075932,0.472917378,-1.780654732,4.747895718,3.120837212,,0.026921364,-0.035140943,-0.061333667,0.020061594,-0.001462076,-0.060496371,,-1.006572962,-1.802415729,-0.807051778,-0.289757818,-0.189105108,-0.057951566
0.760050176,,1.972250462,-1.746339623,0.472390443,-1.780678574,4.747907639,3.120334625,,0.027624438,-0.034412302,-0.061269749,0,-0.001462076,-0.059250012,,-0.97294575,-1.791206598,-0.759973764,-0.277557492,-0.160129324,-0.041176111
0.768040192,,1.972430229,-1.746651475,0.471947789,-1.780594651,4.747919559,3.119855881,,0.026998062,-0.034872498,-0.061141919,0.010929613,-0.001462076,-0.06291718,,-1.046925545,-1.793448448,-0.665817738,-0.173854694,-0.166229486,-0.144878909
0.776120064,,1.972681522,-1.746903245,0.471457183,-1.780522648,4.747895718,3.119353771,,0.025885927,-0.034731884,-0.060911823,0.010785803,-0.001462076,-0.061527014,,-1.015540123,-1.719468713,-0.742039263,-0.356859624,-0.173854694,-0.181479901
0.783990016,,1.97286129,-1.747155015,0.470978171,-1.780570809,4.747919559,3.118887186,,0.028442562,-0.034591269,-0.06166603,0,-0.001462076,-0.050357714,,-1.071585417,-1.717226863,-0.773424625,-0.2257061,-0.175379738,-0.274507403
0.791980032,,1.973124981,-1.747478787,0.470511556,-1.780427281,4.747907639,3.118492126,,0.027381558,-0.035281558,-0.061218619,0.010450245,-0.001342233,-0.054216634,,-1.051409125,-1.641005278,-0.829469919,-0.125053376,-0.190630153,-0.346184343
0.799980032,,1.973304749,-1.747791115,0.47002095,-1.780355279,4.747859955,3.118001461,,0.02485049,-0.035665054,-0.059863601,0.009946907,-0.001150486,-0.063971795,,-1.006572962,-1.578234673,-0.872064292,-0.29738304,-0.195205271,-0.155554205
0.80801024,,1.973556519,-1.748042409,0.469553918,-1.780403439,4.747871876,3.117499113,,0.028838839,-0.034092724,-0.061039653,0,-0.001006675,-0.060184781,,-1.138839722,-1.560300112,-0.813777208,-0.123528339,-0.193680227,-0.035075948
0.815980032,,1.973736286,-1.748318497,0.46908766,-1.780283753,4.747883797,3.117044449,,0.026090458,-0.035281558,-0.059914734,0.017257284,-0.000886833,-0.058051586,,-1.078310847,-1.510980368,-0.755490184,-0.201305434,-0.201305434,-0.004575124
0.82401024,,1.973964214,-1.74864227,0.468620658,-1.780271355,4.747871876,3.116565943,,0.027803402,-0.035153728,-0.060975738,0.006471482,-0.000790959,-0.063276708,,-1.067101836,-1.513222098,-0.733072042,-0.21350576,-0.196730316,-0.11285305
0.83201024,,1.974204063,-1.7488578,0.468106091,-1.780211751,4.747835636,3.116039276,,0.028289163,-0.034898065,-0.061704379,0.003595268,-0.00076699,-0.067135632,,-1.109696269,-1.522189379,-0.798084557,-0.10675288,-0.201305434,-0.231806263
0.84,,1.974407673,-1.749170129,0.467651427,-1.780091588,4.747823715,3.115584612,,0.025336251,-0.033440784,-0.060605027,0.013877733,-0.00076699,-0.052826464,,-1.078310847,-1.481836796,-0.829469919,-0.07930214,-0.218080893,-0.268407255
0.848050176,,1.974635124,-1.749433819,0.467160821,-1.780020062,4.747811794,3.11520195,,0.027816186,-0.03374758,-0.061602112,0.009108012,-0.00076699,-0.050693274,,-1.049167395,-1.470627666,-0.724104822,-0.169279575,-0.215030804,-0.364484847
0.856090112,,1.974851131,-1.74969751,0.466681838,-1.779984299,4.747811794,3.114723444,,0.026895797,-0.033057287,-0.060911823,0.007190535,-0.00076699,-0.061335266,,-1.105212569,-1.481836796,-0.674784958,-0.073201977,-0.21350576,-0.245531633
0.863970048,,1.97504282,-1.749973599,0.466203213,-1.779876534,4.747787952,3.114208698,,0.027637221,-0.033006154,-0.060835123,0.025694178,-0.00076699,-0.065529741,,-1.11417985,-1.484078527,-0.69496125,0.004575124,-0.190630153,-0.096077591
0.872120064,,1.975234985,-1.750237767,0.465736568,-1.779756848,4.747776031,3.113730192,,0.024965538,-0.031676702,-0.061039653,0.016178705,-0.00076699,-0.060975738,,-0.997605681,-1.53339839,-0.721862972,-0.114378087,-0.210455686,-0.022875618
0.879990016,,1.975474358,-1.75048906,0.465281546,-1.779768769,4.747787952,3.113227606,,0.028711008,-0.032839973,-0.060809556,0.005177185,-0.00076699,-0.061886542,,-1.11417985,-1.490803957,-0.739797473,0.036600988,-0.189105108,-0.05337644
0.888080128,,1.975678444,-1.750752751,0.464731038,-1.779589001,4.747787952,3.112701416,,0.024057932,-0.031625573,-0.06151263,0.026413232,-0.00076699,-0.065481804,,-1.067101836,-1.53788209,-0.721862972,-0.028975783,-0.201305434,-0.147928998
0.895970048,,1.975906372,-1.750956837,0.464311957,-1.779540841,4.747776031,3.112270355,,0.028953888,-0.032315861,-0.062637553,0.01176851,-0.000958738,-0.057452377,,-1.087278128,-1.618587255,-0.603047013,-0.003050082,-0.219605923,-0.216555849
0.90411008,,1.976109982,-1.751232449,0.46378541,-1.779481236,4.747787952,3.111815691,,0.026064891,-0.032967806,-0.060362145,0.004937501,-0.000958738,-0.056038238,,-1.134356141,-1.672390699,-0.432669431,0.132678583,-0.21350576,-0.279082537
0.912070144,,1.976337433,-1.751520459,0.463330746,-1.779301945,4.747787952,3.111349106,,0.026346121,-0.031165376,-0.060873471,0.018503644,-0.000958738,-0.061646856,,-1.129872561,-1.703776002,-0.504407346,-0.070151895,-0.210455686,-0.202830479
0.920020224,,1.976564884,-1.751760785,0.462828159,-1.779290024,4.747764111,3.110822916,,0.026013758,-0.033108421,-0.060515542,0.005632586,-0.000958738,-0.065745458,,-1.085036278,-1.667907,-0.616497874,0.08540231,-0.218080893,-0.035075948
0.927980032,,1.97675705,-1.752024476,0.462325186,-1.779229943,4.74775219,3.110332251,,0.02561748,-0.031433824,-0.061883342,0.012175973,-0.000958738,-0.058219366,,-1.147807002,-1.68584156,-0.587354362,0.111328006,-0.219605923,0.068626851
0.93606016,,1.976960659,-1.752300088,0.461822599,-1.779134099,4.747728348,3.109901667,,0.026589001,-0.032699358,-0.061244186,0.012942963,-0.000958738,-0.057140786,,-1.091761708,-1.67463243,-0.567178071,0.028975783,-0.222656012,-0.021350577
0.943970048,,1.977200508,-1.752539937,0.461355984,-1.779110734,4.74775219,3.109410524,,0.026154373,-0.031778969,-0.06166603,0.004961469,-0.000958738,-0.070251532,,-1.096245408,-1.710501432,-0.634432375,0.100652717,-0.22723113,-0.141828835
0.952090112,,1.977380276,-1.752791707,0.460864991,-1.779062573,4.747704506,3.108836174,,0.025412949,-0.031497739,-0.061640464,0.003259709,-0.001198423,-0.059633505,,-1.11417985,-1.638763547,-0.6972031,0.144878909,-0.221130967,-0.19978039
0.96,,1.977596283,-1.753067795,0.460362792,-1.77897865,4.747692585,3.108417511,,0.027010845,-0.032200813,-0.061806645,0.013350427,-0.001198423,-0.05536712,,-1.064859986,-1.638763547,-0.717379391,0.02745074,-0.234856337,-0.295857996
0.968030208,,1.977800369,-1.753331963,0.459883779,-1.77897865,4.747680187,3.107950687,,0.025873143,-0.031127028,-0.060924605,0.005177185,-0.001198423,-0.061143517,,-1.024507403,-1.645488977,-0.762215614,0.070151895,-0.207405597,-0.228756174
0.976050176,,1.9780159,-1.753571335,0.459369212,-1.778919045,4.747680187,3.107484102,,0.025464082,-0.032213598,-0.059978649,0.005033375,-0.001198423,-0.065577678,,-1.076069117,-1.618587255,-0.757731974,0.097602636,-0.201305434,-0.096077591
0.984080128,,1.978219032,-1.753835503,0.458890587,-1.778835122,4.747704506,3.106921911,,0.025003888,-0.031433824,-0.06070729,0.005320996,-0.001198423,-0.062317971,,-1.020023823,-1.67463243,-0.609772444,0.103702798,-0.224181056,0.02745074
0.991970048,,1.978399277,-1.754087273,0.458435565,-1.778786961,4.747704506,3.106455326,,0.024633175,-0.031536087,-0.061026871,0.010785803,-0.001198423,-0.059178106,,-0.97742939,-1.672390699,-0.547001779,-0.004575124,-0.218080893,-0.021350577
1.000050176,,1.978602886,-1.754350964,0.457909018,-1.778751198,4.747692585,3.106000662,,0.027982367,-0.032852758,-0.060694508,0.004625911,-0.001198423,-0.066824041,,-1.028990984,-1.582718253,-0.605288863,0.061001647,-0.221130967,-0.115903132
1.008090112,,1.978818893,-1.754627053,0.457394421,-1.778739278,4.747692585,3.105426311,,0.025758095,-0.03186845,-0.060362145,0.003475425,-0.00107858,-0.061479077,,-1.028990984,-1.593927264,-0.585112572,0.115903132,-0.210455686,-0.173854694
1.015970048,,1.979046345,-1.754866902,0.456927806,-1.77859575,4.747668266,3.10500741,,0.025361815,-0.031638354,-0.059774119,0.017041568,-0.000958738,-0.055319183,,-1.026749253,-1.54236567,-0.609772444,-0.065576769,-0.205880553,-0.257731974
1.024070144,,1.97923851,-1.755082432,0.456448793,-1.77859575,4.747668266,3.104528904,,0.025285117,-0.030781882,-0.058879297,0.005632586,-0.000838896,-0.061670825,,-1.042441964,-1.551332951,-0.573903501,-0.012200329,-0.228756174,-0.19825536
1.03201024,,1.979406357,-1.755358521,0.455934227,-1.778583829,4.747680187,3.103990793,,0.024952754,-0.030794665,-0.058738682,0.003379551,-0.00076699,-0.065481804,,-1.028990984,-1.53564024,-0.681510389,0.064051732,-0.210455686,-0.028975783
1.04006016,,1.979609966,-1.755634133,0.455467582,-1.778404061,4.747656345,3.103488207,,0.023610521,-0.031753402,-0.058879297,0.022362564,-0.000719053,-0.060328592,,-1.024507403,-1.448209643,-0.816019058,-0.062526688,-0.248581707,0.048801318
1.04811008,,1.979837418,-1.755909745,0.454988599,-1.778379742,4.747632504,3.103021622,,0.025285117,-0.030743532,-0.06050276,0.00680704,-0.000719053,-0.058051586,,-1.020023823,-1.477353096,-0.847404361,-0.070151895,-0.242481545,-0.018300494
1.056,,1.979993343,-1.756126229,0.454486012,-1.778379742,4.747608662,3.102506876,,0.023878967,-0.030986413,-0.059122179,0.00417051,-0.004146542,-0.071425982,,-1.031232834,-1.479594946,-0.856371641,0.024400659,-0.207405597,-0.154029161
1.064070144,,1.980221272,-1.756329838,0.453995407,-1.778224293,4.747608662,3.101956367,,0.023175893,-0.030449519,-0.059467323,0.022410501,-0.004146542,-0.061670825,,-0.966220319,-1.562541962,-0.809293628,-0.12657842,-0.172329649,-0.192155182
1.071970048,,1.98041296,-1.756581608,0.45348084,-1.778199975,4.747608662,3.101525784,,0.025527997,-0.030270554,-0.059863601,0.006159892,-0.00340352,-0.053881079,,-1.053650975,-1.618587255,-0.638916016,-0.080827184,-0.157079235,-0.31110841
1.079930112,,1.980592728,-1.756857697,0.452978253,-1.778092686,4.747584343,3.101071119,,0.024735441,-0.029938193,-0.059326708,0.010258497,-0.002396845,-0.060640179,,-1.11417985,-1.614103556,-0.596321583,-0.041176111,-0.169279575,-0.254681885
1.088070144,,1.980796337,-1.757097546,0.452523589,-1.777973,4.747620583,3.10054493,,0.02352104,-0.030053241,-0.060566675,0.010785803,-0.001845571,-0.064499103,,-1.073827267,-1.647730708,-0.627706945,-0.205880553,-0.183004946,-0.125053376
1.096,,1.980964184,-1.757349316,0.452009022,-1.777948682,4.747620583,3.100054264,,0.024121849,-0.02984871,-0.059518456,0.006064018,-0.001486044,-0.061958447,,-1.094003558,-1.667907,-0.659092307,-0.08540231,-0.19978039,-0.036600988
1.104030208,,1.98120451,-1.757589165,0.451530039,-1.777817074,4.747584343,3.099479914,,0.024019582,-0.030385604,-0.059275575,0.015555524,-0.001270328,-0.06143114,,-1.145565152,-1.67687428,-0.567178071,-0.122003295,-0.202830479,-0.050326359
1.11195008,,1.981396198,-1.757817094,0.451051414,-1.777793233,4.747584343,3.099001169,,0.024518127,-0.029235117,-0.058483019,0.007621967,-0.00107858,-0.066128954,,-1.167983294,-1.68584156,-0.493198335,-0.195205271,-0.193680227,-0.157079235
1.119960064,,1.981551647,-1.758068864,0.450548828,-1.777781312,4.747620583,3.098474741,,0.023661654,-0.029311817,-0.060029782,0.004194479,-0.000958738,-0.057692062,,-1.185917735,-1.741886854,-0.594079793,-0.111328006,-0.201305434,-0.216555849
1.127990016,,1.981719494,-1.758284871,0.450069815,-1.777661626,4.747596741,3.098007917,,0.022396119,-0.02936295,-0.05949289,0.01840777,-0.000862864,-0.053497583,,-1.185917735,-1.723952293,-0.777908266,-0.160129324,-0.219605923,-0.291282862
1.136030208,,1.981935501,-1.758512799,0.4496032,-1.777637784,4.747596741,3.09755373,,0.023866184,-0.028979454,-0.06014483,0.007621967,-0.00076699,-0.060472403,,-1.181434155,-1.748612285,-0.84067893,-0.244006589,-0.21198073,-0.231806263
1.144070144,,1.98212719,-1.758728806,0.449124575,-1.777601544,4.747572422,3.097074747,,0.023418773,-0.028979454,-0.059173308,0.003906858,-0.000695085,-0.06291718,,-1.224028587,-1.746370435,-0.919142306,-0.141828835,-0.242481545,-0.088452391
1.152020224,,1.982283115,-1.759016339,0.448621601,-1.777493779,4.747536659,3.096560478,,0.019954534,-0.029311817,-0.060451627,0.011840414,-0.000647148,-0.061982412,,-1.201610446,-1.719468713,-0.905691445,-0.118953213,-0.242481545,-0.010675289
1.16001024,,1.982450962,-1.759256665,0.448107034,-1.777434174,4.747512817,3.096069813,,0.02179531,-0.028378645,-0.060962953,0.007621967,-0.00062318,-0.059945095,,-1.170225143,-1.748612285,-0.777908266,-0.201305434,-0.2409565,-0.050326359
1.168020224,,1.982654572,-1.759447877,0.447676361,-1.777458016,4.747512817,3.095579386,,0.02211489,-0.028365862,-0.060541108,0.004242416,-0.00062318,-0.06519419,,-1.152290583,-1.717226863,-0.742039263,-0.129628494,-0.2409565,-0.158604279
1.17601024,,1.982798576,-1.759651963,0.447185367,-1.777374093,4.747465134,3.095028877,,0.022229938,-0.027713921,-0.06022153,0.008029431,-0.00062318,-0.061071612,,-1.172466874,-1.681357861,-0.789117336,-0.11285305,-0.2409565,-0.196730316
1.18406016,,1.982990265,-1.759879891,0.446694762,-1.77730209,4.747477055,3.094598055,,0.019404856,-0.029017804,-0.061205834,0.009851033,-0.00062318,-0.051843759,,-1.127630711,-1.616345406,-0.811535418,-0.158604279,-0.234856337,-0.340084195
1.191940096,,1.983158112,-1.760131661,0.446204156,-1.77730209,4.747477055,3.094179392,,0.022383336,-0.02831473,-0.060259879,0.006159892,-0.00062318,-0.05879461,,-1.170225143,-1.614103556,-0.751006544,-0.166229486,-0.247056678,-0.308058321
1.200240128,,1.983289719,-1.760347668,0.44572553,-1.777290169,4.747453213,3.093676806,,0.021309551,-0.028672658,-0.060732856,0.003499394,-0.00170176,-0.067567065,,-1.132114291,-1.618587255,-0.6972031,-0.067101814,-0.222656012,-0.152504116
1.20801024,,1.983469486,-1.760575596,0.445270509,-1.77713472,4.747441292,3.093114614,,0.021386249,-0.028250813,-0.061806645,0.015867114,-0.00170176,-0.06373211,,-1.085036278,-1.567025542,-0.753248334,-0.132678583,-0.208930641,-0.035075948
1.216040192,,1.983649731,-1.760827367,0.444743961,-1.777098958,4.747441292,3.092636108,,0.021181719,-0.029861493,-0.06151263,0.008628642,-0.00170176,-0.061143517,,-1.094003558,-1.452693224,-0.84292078,-0.201305434,-0.215030804,-0.042701155
1.224040192,,1.983841419,-1.761055295,0.444265336,-1.777110879,4.747453213,3.092121601,,0.02155243,-0.028007934,-0.06171716,0.00417051,-0.00170176,-0.065146253,,-1.11417985,-1.437000513,-0.928109586,-0.07930214,-0.224181056,-0.108277924
1.231970048,,1.983984947,-1.761270825,0.44377473,-1.777003113,4.747453213,3.091642857,,0.018062625,-0.026512302,-0.061474282,0.003163835,-0.00170176,-0.063060991,,-0.98639667,-1.493045807,-0.98191303,-0.02745074,-0.216555849,-0.179954857
1.240070144,,1.984128952,-1.761486832,0.443343669,-1.776906792,4.747465134,3.09114027,,0.020568127,-0.027688354,-0.061883342,0.017568875,-0.001414139,-0.054863784,,-0.995363891,-1.461660504,-0.963978529,-0.111328006,-0.244006589,-0.268407255
1.248020224,,1.984260559,-1.76170284,0.442829102,-1.776894871,4.747441292,3.090709686,,0.021373466,-0.026806315,-0.06429936,0.006159892,-0.001198423,-0.061766699,,-0.963978529,-1.481836796,-0.872064292,-0.080827184,-0.215030804,-0.231806263
1.256040192,,1.984488964,-1.761918847,0.442326516,-1.77687103,4.747416973,3.090171337,,0.01917476,-0.027202593,-0.062164571,0.003523362,-0.001030643,-0.066776104,,-0.934835017,-1.40113163,-0.925867736,0,-0.2257061,-0.089977428
1.26406016,,1.984656811,-1.762182538,0.441823542,-1.776751343,4.747416973,3.08965683,,0.019634955,-0.026857447,-0.062535286,0.017017599,-0.000910801,-0.061934479,,-0.930351377,-1.387680769,-0.923625946,-0.022875618,-0.2257061,0.047276277
1.27195008,,1.984776497,-1.762386624,0.441332936,-1.776691739,4.747428894,3.089190245,,0.017333983,-0.025246767,-0.064682856,0.008077368,-0.000862864,-0.057931747,,-0.827228069,-1.403373361,-0.804809988,-0.061001647,-0.242481545,-0.01372537
1.280050176,,1.984992027,-1.762566392,0.44084236,-1.776691739,4.747428894,3.0887115,,0.021769745,-0.026486736,-0.063468456,0.0040267,-0.000862864,-0.068166271,,-1.002089262,-1.385438919,-0.735313833,0.059476607,-0.230281219,-0.137253702
1.288030208,,1.985123634,-1.762758557,0.440375328,-1.776559655,4.74738121,3.08813715,,0.017640779,-0.024824923,-0.063570723,0.019989688,-0.000862864,-0.065122284,,-0.854129791,-1.387680769,-0.757731974,0,-0.254681885,-0.176904783
1.29595008,,1.985267639,-1.762925927,0.4398368,-1.77650005,4.74733305,3.087682486,,0.022511169,-0.024837706,-0.064874604,0.007621967,-0.002420814,-0.055918396,,-0.934835017,-1.425791502,-0.757731974,-0.022875618,-0.245531633,-0.303483188
1.304030208,,1.985459328,-1.763165776,0.439322233,-1.776488129,4.747321129,3.087239742,,0.01949434,-0.026231073,-0.064094834,0.004266384,-0.002420814,-0.06356433,,-0.930351377,-1.363020778,-0.798084557,0.103702798,-0.192155182,-0.233331308
1.312020224,,1.985591412,-1.763394181,0.438831627,-1.776332204,4.747309208,3.086713552,,0.021335116,-0.024134632,-0.064874604,0.019582225,-0.002420814,-0.067638971,,-0.939318597,-1.461660504,-0.773424625,0.012200329,-0.192155182,-0.122003295
1.320030208,,1.985747337,-1.763525788,0.438329041,-1.776356045,4.747369289,3.086151123,,0.018816831,-0.025988191,-0.064069264,0.006471482,-0.002420814,-0.063228771,,-0.896724224,-1.452693224,-0.739797473,0.038126029,-0.19978039,0.032025866
1.32801024,,1.985915184,-1.763789956,0.437802106,-1.776260201,4.747357368,3.085672855,,0.020759873,-0.025042238,-0.064401627,0.004458132,-0.001917476,-0.061790667,,-0.955011308,-1.562541962,-0.618739724,0.158604279,-0.183004946,-0.032025866
1.335930112,,1.986082554,-1.764005486,0.4373115,-1.776128594,4.747345448,3.085146666,,0.020299679,-0.02589871,-0.064388841,0.016442357,-0.001557949,-0.070347406,,-0.97294575,-1.571509242,-0.721862972,0.006100165,-0.219605923,-0.115903132
1.344050176,,1.986250877,-1.764209572,0.436772943,-1.776116673,4.747285366,3.084632158,,0.020159064,-0.026486736,-0.063621856,0.005632586,-0.001294296,-0.06200638,,-0.946044028,-1.596169114,-0.771182835,0.061001647,-0.190630153,-0.187580064
1.352100096,,1.986394882,-1.76438934,0.436246395,-1.776092831,4.74733305,3.084165573,,0.019698871,-0.024761006,-0.064823471,0.003331615,-0.001126517,-0.058626831,,-1.017781973,-1.638763547,-0.746522903,0.141828835,-0.192155182,-0.260782033
1.360020224,,1.986586571,-1.764581505,0.435719848,-1.775973145,4.747345448,3.083686829,,0.018931881,-0.024019582,-0.064708427,0.015219966,-0.000982706,-0.065937206,,-0.901207864,-1.681357861,-0.654608667,0.05337644,-0.196730316,-0.193680227
1.368070144,,1.986718178,-1.764773194,0.43518129,-1.775973145,4.747297287,3.083100319,,0.018816831,-0.024607608,-0.065322019,0.005392902,-0.000862864,-0.066608325,,-0.889998794,-1.688083291,-0.616497874,0.088452391,-0.19978039,-0.003050082
1.375960064,,1.986849785,-1.764941041,0.434678346,-1.775961224,4.747321129,3.082633734,,0.019698871,-0.025873143,-0.063404538,0.003523362,-0.000790959,-0.060112875,,-0.966220319,-1.632038116,-0.717379391,0.152504116,-0.207405597,0.033550907
1.383990016,,1.987053394,-1.765132729,0.43417576,-1.775841538,4.747345448,3.082131147,,0.01836942,-0.023840619,-0.06460616,0.009179916,-0.000719053,-0.064714819,,-1.028990984,-1.68584156,-0.777908266,0.146403953,-0.233331308,-0.065576769
1.392030208,,1.987161636,-1.765384976,0.433672786,-1.775829617,4.747285366,3.081580877,,0.021680262,-0.025272334,-0.062842079,0.012032162,-0.000647148,-0.073583141,,-0.98415482,-1.623070836,-0.780150056,0.050326359,-0.230281219,-0.189105108
1.399970048,,1.987353325,-1.765588586,0.433193803,-1.775781457,4.747237206,3.08109045,,0.019967318,-0.024952754,-0.064158745,0.004961469,-0.000647148,-0.059321914,,-1.078310847,-1.582718253,-0.710653961,0.105227843,-0.204355523,-0.2257061
1.407960064,,1.987485409,-1.765792672,0.432703197,-1.775805775,4.747213364,3.080599785,,0.019762786,-0.024454212,-0.062918782,0.003067962,-0.005584649,-0.057668094,,-1.037958264,-1.569267392,-0.511132777,0.164704442,-0.146403953,-0.324833781
1.416020224,,1.987628937,-1.76598436,0.43217662,-1.775721852,4.747249126,3.08012104,,0.019340942,-0.024300814,-0.063724123,0.002492719,-0.00479369,-0.066512451,,-1.060376406,-1.54460752,-0.620981514,0.210455686,-0.122003295,-0.207405597
1.424020224,,1.987784863,-1.766152684,0.431650072,-1.77564985,4.747285366,3.079630613,,0.018970229,-0.024684308,-0.061883342,0.009946907,-0.002996056,-0.066440545,,-1.051409125,-1.524431229,-0.69944489,0.032025866,-0.137253702,-0.064051732
1.431990016,,1.987953186,-1.766356293,0.431135505,-1.775626008,4.747237206,3.079056501,,0.019903401,-0.024671525,-0.063762471,0.004458132,-0.002181129,-0.065649584,,-1.152290583,-1.499771237,-0.721862972,0.09302751,-0.172329649,-0.01372537
1.43995008,,1.988144875,-1.766536061,0.430644512,-1.775637929,4.747261524,3.078565836,,0.020695958,-0.024275247,-0.063072175,0.002924151,-0.001725729,-0.067926593,,-1.167983294,-1.499771237,-0.668059528,0.173854694,-0.163179412,-0.11285305
1.447980032,,1.988288403,-1.76673967,0.430141926,-1.775554005,4.747249126,3.077991247,,0.017947575,-0.024441428,-0.063979782,0.007358314,-0.001414139,-0.065122284,,-1.091761708,-1.513222098,-0.706170321,0.179954857,-0.172329649,-0.189105108
1.455990016,,1.988396645,-1.766944234,0.42965132,-1.775470082,4.747261524,3.077548742,,0.01921311,-0.024057932,-0.062829301,0.008772453,-0.001198423,-0.052826464,,-1.073827267,-1.479594946,-0.773424625,0.111328006,-0.161654368,-0.309583366
1.464050176,,1.988540173,-1.767124001,0.429112792,-1.775493924,4.747237206,3.077094316,,0.018701782,-0.024518127,-0.063315056,0.007621967,-0.001030643,-0.061287329,,-1.080552697,-1.428033352,-0.793600917,0.109802961,-0.18452999,-0.236381382
1.47195008,,1.988683701,-1.767351929,0.428609818,-1.775493924,4.747237206,3.076555967,,0.018305505,-0.023290941,-0.061960042,0.003906858,-0.000910801,-0.06684801,,-1.042441964,-1.459418654,-0.789117336,0.176904783,-0.167754531,-0.125053376
1.480020224,,1.988863945,-1.767495457,0.428107232,-1.77539808,4.747225285,3.076065302,,0.017436249,-0.023763919,-0.062867649,0.002972088,-0.000814927,-0.064978473,,-1.020023823,-1.412340641,-0.759973764,0.195205271,-0.202830479,-0.019825535
1.488020224,,1.988983631,-1.767699544,0.427580684,-1.775290791,4.747249126,3.075550556,,0.018510036,-0.023955667,-0.062560849,0.016586168,0,-0.06191051,,-1.015540123,-1.380955338,-0.594079793,-0.018300494,-0.21350576,-0.024400659
1.495960064,,1.989139557,-1.767951314,0.427078098,-1.775290791,4.74716568,3.074988604,,0.019072495,-0.023597738,-0.063506804,0.005872271,0,-0.070491217,,-1.094003558,-1.374229908,-0.502165556,0.042701155,-0.207405597,-0.150979072
1.503980032,,1.989259243,-1.768083398,0.42653954,-1.775218789,4.747117519,3.074438095,,0.018190457,-0.023405991,-0.060413279,0.011001519,-0.003523362,-0.063444488,,-1.040200114,-1.351811767,-0.538034558,0.166229486,-0.175379738,-0.218080893
1.511970048,,1.98942709,-1.768251244,0.426048934,-1.775170628,4.747153282,3.074019194,,0.017717479,-0.021002755,-0.062560849,0.012942963,-0.003523362,-0.052083444,,-1.002089262,-1.356295347,-0.535792708,-0.082352221,-0.160129324,-0.295857996
1.520040192,,1.989546776,-1.768419091,0.42553401,-1.775158707,4.747153282,3.073528767,,0.017717479,-0.022460036,-0.060272664,0.004961469,-0.003235741,-0.06109558,,-1.026749253,-1.282315612,-0.504407346,0.024400659,-0.137253702,-0.286707729
1.527960064,,1.98972702,-1.768635098,0.425055385,-1.775111024,4.747177601,3.073050022,,0.017743045,-0.022396119,-0.061602112,0.003163835,-0.002300971,-0.067758814,,-0.9751876,-1.320426464,-0.526825488,0.083877265,-0.166229486,-0.137253702
1.535930112,,1.989822865,-1.768802945,0.424516827,-1.775015179,4.747177601,3.07247591,,0.016464727,-0.021718612,-0.063123308,0.012823122,-0.001797634,-0.06454704,,-0.925867736,-1.356295347,-0.665817738,0.007625206,-0.164704442,0.001525041
1.543920128,,1.989954948,-1.768958871,0.424001902,-1.774955098,4.747177601,3.071973324,,0.018637868,-0.02058091,-0.061806645,0.008628642,-0.001462076,-0.063060991,,-0.941560447,-1.432516932,-0.793600917,-0.080827184,-0.176904783,-0.03965107
1.551960064,,1.990110397,-1.769162957,0.423511297,-1.774919335,4.747117519,3.071410894,,0.018714566,-0.02288188,-0.061640464,0.00417051,-0.001222391,-0.067926593,,-1.020023823,-1.414582491,-0.829469919,0.007625206,-0.193680227,-0.102177761
1.560020224,,1.99023056,-1.769282643,0.422984719,-1.774871651,4.747141361,3.070872784,,0.017321199,-0.021884793,-0.060873471,0.003139867,-0.00107858,-0.06217416,,-0.928109586,-1.493045807,-0.811535418,0.045751236,-0.175379738,-0.181479901
1.567910144,,1.990410328,-1.769510571,0.422470152,-1.774763886,4.74712944,3.07040596,,0.01494353,-0.020350812,-0.062407453,0.018239992,-0.00093477,-0.055966333,,-0.905691445,-1.587201834,-0.685994029,-0.147928998,-0.210455686,-0.271457344
1.575970048,,1.990541935,-1.769642655,0.421979547,-1.774751488,4.747141361,3.069927454,,0.01953269,-0.021974275,-0.061141919,0.005632586,-0.000838896,-0.063013054,,-0.959494889,-1.593927264,-0.625465155,-0.07930214,-0.208930641,-0.193680227
1.583910144,,1.9906497,-1.769834344,0.421441019,-1.774692361,4.747094154,3.069400787,,0.015518772,-0.020171847,-0.061538197,0.003355583,-0.00076699,-0.066272765,,-0.946044028,-1.625312686,-0.636674225,-0.003050082,-0.21350576,-0.05337644
1.591920128,,1.990769863,-1.770002667,0.420938045,-1.774596516,4.747057915,3.068898201,,0.01780696,-0.021884793,-0.06171716,0.02073271,-0.000743022,-0.059130169,,-0.874306142,-1.625312686,-0.688235819,-0.09912768,-0.202830479,0.068626851
1.599940096,,1.990937233,-1.770242039,0.420435458,-1.774548356,4.747045994,3.068408489,,0.015608255,-0.020555343,-0.061180267,0.009299759,-0.000743022,-0.059417788,,-0.934835017,-1.602894545,-0.641157806,-0.163179412,-0.19825536,-0.024400659
1.607940096,,1.991069317,-1.770325963,0.419944853,-1.774548356,4.747022152,3.067893982,,0.018241588,-0.021092236,-0.060950171,0.005632586,-0.00371511,-0.069532476,,-0.98639667,-1.625312686,-0.513374627,-0.11285305,-0.147928998,-0.152504116
1.615960064,,1.991200924,-1.770469968,0.419478208,-1.774512593,4.747069836,3.067283392,,0.017295634,-0.019673305,-0.059582371,0.000910801,-0.00371511,-0.061167486,,-0.98191303,-1.67687428,-0.69944489,-0.051851399,-0.140303791,-0.204355523
1.623870208,,1.991333008,-1.770685498,0.418975264,-1.774345223,4.747034073,3.066816807,,0.013754695,-0.020734308,-0.061563764,0.022027006,-0.002996056,-0.056158081,,-0.921384156,-1.694808722,-0.84067893,-0.228756174,-0.144878909,-0.31110841
1.631940096,,1.991452694,-1.770818059,0.418496639,-1.774357144,4.747057915,3.066350222,,0.018893531,-0.018765699,-0.062126223,0.006159892,-0.002181129,-0.062198129,,-0.995363891,-1.694808722,-0.919142306,-0.204355523,-0.149454042,-0.231806263
1.639970048,,1.991560936,-1.770985905,0.417970091,-1.774320904,4.747022152,3.065788031,,0.01514806,-0.021053886,-0.060170397,0.003595268,-0.001725729,-0.067399286,,-0.97967124,-1.67687428,-0.970703959,-0.122003295,-0.149454042,-0.08540231
1.647940096,,1.991681099,-1.771153752,0.41752705,-1.774248902,4.747045994,3.065285444,,0.01490518,-0.018906314,-0.060822338,0.011480888,-0.001414139,-0.060304623,,-0.950527668,-1.68359971,-0.995363891,-0.167754531,-0.158604279,0.01372537
1.655990016,,1.991812706,-1.77133352,0.417048424,-1.774165456,4.747045994,3.0648067,,0.017244501,-0.019021362,-0.061538197,0.009946907,-0.001198423,-0.061023675,,-0.995363891,-1.638763547,-0.898966014,-0.266882211,-0.160129324,-0.035075948
1.664070144,,1.991956711,-1.771453683,0.416557819,-1.774165456,4.747022152,3.064304113,,0.014841264,-0.021462949,-0.063148879,0.004458132,-0.001030643,-0.069580413,,-1.058134556,-1.596169114,-0.789117336,-0.179954857,-0.181479901,-0.129628494
1.672020224,,1.992064476,-1.771609608,0.416078806,-1.774153058,4.747022152,3.063777685,,0.017257284,-0.018343855,-0.063903086,0.002852246,-0.000910801,-0.060664147,,-1.098487139,-1.636521697,-0.824986279,-0.147928998,-0.181479901,-0.187580064
1.68001024,,1.992159843,-1.771777455,0.41557622,-1.774021451,4.747022152,3.063299418,,0.012540293,-0.019430423,-0.062330753,0.012128036,-0.000814927,-0.058483019,,-1.062618256,-1.627554417,-0.807051778,-0.186055019,-0.187580064,-0.262307078
1.688,,1.992244244,-1.771981064,0.415037692,-1.773985688,4.746985912,3.062832832,,0.018880747,-0.018650651,-0.064337716,0.010785803,-0.000743022,-0.066488482,,-1.085036278,-1.627554417,-0.69944489,-0.292807907,-0.19825536,-0.187580064
1.69595008,,1.992387772,-1.772053067,0.414558709,-1.773985688,4.746985912,3.062270164,,0.01389531,-0.020619258,-0.062867649,0,-0.000695085,-0.064618945,,-1.167983294,-1.571509242,-0.668059528,-0.158604279,-0.193680227,-0.018300494
1.704080128,,1.992543697,-1.772245232,0.414043754,-1.773866002,4.746938229,3.061767578,,0.017142236,-0.01844612,-0.064465545,0.008652611,-0.000695085,-0.058674768,,-1.136597991,-1.571509242,-0.685994029,-0.204355523,-0.18452999,0.050326359
1.711960064,,1.992687702,-1.77238876,0.41357711,-1.77384216,4.746901989,3.061253071,,0.01389531,-0.01941764,-0.064503893,0.008628642,-0.004530037,-0.061383203,,-1.176950574,-1.513222098,-0.804809988,-0.321783692,-0.17080462,-0.067101814
1.719970048,,1.992795467,-1.772532765,0.413038582,-1.773817841,4.746901989,3.060726881,,0.013345633,-0.018548384,-0.065117486,0,-0.004530037,-0.071665667,,-1.172466874,-1.461660504,-0.878789723,-0.164704442,-0.117428169,-0.18452999
1.728070144,,1.992879391,-1.77267677,0.412547976,-1.773770157,4.746901989,3.060200453,,0.015224759,-0.019187544,-0.065347582,0.007765778,-0.00340352,-0.058339208,,-1.163499713,-1.470627666,-0.876547933,-0.222656012,-0.105227843,-0.2699323
1.73601024,,1.992975235,-1.772856538,0.412068963,-1.773770157,4.746914387,3.059733629,,0.01228463,-0.017985925,-0.065986745,0.005968144,-0.002396845,-0.058099523,,-1.107454419,-1.419066072,-0.872064292,-0.237906426,-0.096077591,-0.343134254
1.744,,1.993107319,-1.7729767,0.411530435,-1.773746316,4.746926308,3.059219122,,0.017704695,-0.018190457,-0.066012308,0.005177185,-0.001845571,-0.065457836,,-1.241963029,-1.448209643,-0.829469919,-0.230281219,-0.10675288,-0.2409565
1.752,,1.993227005,-1.773156468,0.41106379,-1.773782078,4.746914387,3.058728933,,0.013256151,-0.01812654,-0.066319101,0.003139867,-0.001486044,-0.0689812,,-1.280073881,-1.369746208,-0.83843714,-0.175379738,-0.125053376,-0.073201977
1.760040192,,1.993322849,-1.773336236,0.410561204,-1.773721997,4.746866226,3.058178425,,0.013435115,-0.016848223,-0.066510849,0.000575243,-0.001270328,-0.065098315,,-1.192643166,-1.358537197,-0.876547933,-0.138778746,-0.138778746,-0.051851399
1.767990016,,1.993443012,-1.773444478,0.410022289,-1.77363855,4.746901989,3.057675838,,0.012642559,-0.017819744,-0.066037871,0.011001519,-0.00107858,-0.06684801,,-1.219544888,-1.333877325,-0.735313833,-0.179954857,-0.131153539,-0.114378087
1.776030208,,1.993538857,-1.773540799,0.409531683,-1.77359039,4.746890068,3.05712533,,0.015365374,-0.017474597,-0.066204056,0.005872271,-0.000958738,-0.069484539,,-1.199368596,-1.313701034,-0.733072042,-0.221130967,-0.143353865,-0.181479901
1.783930112,,1.993658543,-1.773720566,0.409005135,-1.773566548,4.746878147,3.056611061,,0.012386895,-0.017487381,-0.065181404,0.00340352,-0.000862864,-0.055031564,,-1.273348451,-1.277832031,-0.851888001,-0.161654368,-0.144878909,-0.298908085
1.792030208,,1.993766308,-1.773840253,0.408514529,-1.773530308,4.746901989,3.056228399,,0.012629775,-0.017449033,-0.066191271,0.003020025,-0.00076699,-0.061047643,,-1.241963029,-1.25541389,-0.858613431,-0.117428169,-0.137253702,-0.292807907
1.799940096,,1.993862152,-1.77397186,0.407987982,-1.773482625,4.746914387,3.055689812,,0.011811652,-0.017270068,-0.066012308,0.007621967,-0.000695085,-0.069244854,,-1.203852296,-1.277832031,-0.860855222,-0.161654368,-0.176904783,-0.135728672
1.808,,1.993957996,-1.774115864,0.407485008,-1.773482625,4.746890068,3.055151701,,0.011504856,-0.016375246,-0.064529456,0.004961469,-0.000647148,-0.064403228,,-1.203852296,-1.230754018,-0.889998794,-0.172329649,-0.158604279,-0.028975783
1.816020224,,1.994053841,-1.774236027,0.406970441,-1.773458783,4.746878147,3.054649115,,0.015058578,-0.01687379,-0.066063441,0.003067962,-0.000599211,-0.062078286,,-1.25765574,-1.284557462,-0.786875486,-0.109802961,-0.166229486,-0.0259257
1.82401024,,1.994162083,-1.774380032,0.406431884,-1.773411099,4.746842384,3.054134369,,0.010712299,-0.015199194,-0.066855997,0.002804309,-0.000599211,-0.072624408,,-1.228512168,-1.241963029,-0.807051778,-0.080827184,-0.164704442,-0.132678583
1.831960064,,1.994281769,-1.774487797,0.405929297,-1.773315255,4.74678278,3.053572416,,0.011837219,-0.016106799,-0.065718293,0.009012138,-0.004314321,-0.064259417,,-1.203852296,-1.309217334,-0.84067893,-0.155554205,-0.129628494,-0.195205271
1.840080128,,1.994353771,-1.774631802,0.40540275,-1.773315255,4.746806622,3.053117752,,0.012655342,-0.015978968,-0.065986745,0.004314321,-0.004314321,-0.053257897,,-1.291282892,-1.26438117,-0.83619535,-0.108277924,-0.08540231,-0.338559151
1.847960064,,1.994425774,-1.774787728,0.404864192,-1.773290936,4.746770859,3.05268693,,0.010967962,-0.015659388,-0.066459715,0.003451457,-0.003595268,-0.064714819,,-1.192643166,-1.320426464,-0.748764753,-0.065576769,-0.094552554,-0.2699323
1.855930112,,1.99454546,-1.774871651,0.404373229,-1.773231332,4.746806622,3.052160501,,0.011977834,-0.013703562,-0.065782212,0.008173241,-0.00246875,-0.068381988,,-1.201610446,-1.322668195,-0.69944489,-0.11285305,-0.096077591,-0.118953213
1.86401024,,1.994641304,-1.775003735,0.403798729,-1.773243252,4.746818066,3.051609993,,0.010776215,-0.01655421,-0.066549204,0.005177185,-0.001893508,-0.06485863,,-1.138839722,-1.338360906,-0.672543168,-0.103702798,-0.09912768,-0.004575124
1.871970048,,1.994737148,-1.7751115,0.403320104,-1.773243252,4.746806622,3.051083803,,0.011683821,-0.015518772,-0.06538593,0.003283678,-0.001533981,-0.064762756,,-1.210577726,-1.324910045,-0.764457405,-0.047276277,-0.10675288,-0.02745074
1.879990016,,1.994785309,-1.775291745,0.402793556,-1.773135487,4.746818066,3.050557137,,0.010827348,-0.013882526,-0.064491108,0.010929613,0,-0.068741515,,-1.156774282,-1.313701034,-0.768941045,-0.036600988,-0.129628494,-0.118953213
1.887920128,,1.994916916,-1.775375668,0.402243018,-1.773039643,4.74678278,3.050042629,,0.012144015,-0.016503077,-0.065475412,0.009946907,0,-0.06126336,,-1.183676004,-1.340602756,-0.717379391,-0.135728672,-0.149454042,-0.19825536
1.896,,1.995001316,-1.775471512,0.401776403,-1.773039643,4.74674654,3.049576044,,0.011926701,-0.013486248,-0.066331886,0.004458132,0,-0.059489693,,-1.212819457,-1.298008323,-0.479747444,-0.042701155,-0.166229486,-0.272982359
1.903990016,,1.995109081,-1.77561504,0.401225507,-1.772968117,4.746710777,3.049061298,,0.011325892,-0.016221847,-0.064401627,0.003307646,-0.002924151,-0.064954504,,-1.176950574,-1.414582491,-0.504407346,-0.003050082,-0.140303791,-0.189105108
1.911920128,,1.995181084,-1.775723282,0.400722891,-1.772884194,4.746698856,3.048547268,,0.010929613,-0.01462395,-0.065347582,0.015819177,-0.002924151,-0.067255475,,-1.170225143,-1.363020778,-0.594079793,-0.015250412,-0.09912768,-0.009150247
1.92001024,,1.995265007,-1.77586681,0.400160402,-1.772812192,4.746722698,3.047996759,,0.010993529,-0.013230585,-0.065091923,0.007621967,-0.002924151,-0.059849221,,-1.145565152,-1.412340641,-0.643399656,-0.062526688,-0.094552554,0.068626851
1.927930112,,1.995360851,-1.775926892,0.399669796,-1.772800271,4.746734619,3.047554016,,0.009945309,-0.014368287,-0.064465545,0.003906858,-0.002444782,-0.063875921,,-1.291282892,-1.405615211,-0.587354362,0.01372537,-0.083877265,-0.054901481
1.935940096,,1.995432854,-1.776046578,0.399131238,-1.772740189,4.746722698,3.046956301,,0.009651296,-0.014700649,-0.065616027,0.013278522,-0.001869539,-0.073511235,,-1.11417985,-1.403373361,-0.634432375,0.073201977,-0.111328006,-0.144878909
1.943940096,,1.995540619,-1.776167218,0.398604691,-1.772644345,4.746698856,3.046489716,,0.010610034,-0.012847089,-0.065552115,0.014381071,-0.001510012,-0.058626831,,-1.156774282,-1.432516932,-0.688235819,-0.051851399,-0.12047825,-0.234856337
1.952040192,,1.995612621,-1.776346985,0.398077399,-1.772656266,4.74674654,3.046034575,,0.010622817,-0.016490294,-0.064145967,0.005177185,-0.001270328,-0.061287329,,-1.138839722,-1.385438919,-0.746522903,0.012200329,-0.125053376,-0.274507403
1.96,,1.995731831,-1.776370827,0.39752686,-1.772608582,4.746710777,3.045496464,,0.011734953,-0.01144094,-0.062842079,0.003139867,-0.001102549,-0.066344671,,-1.194885015,-1.405615211,-0.739797473,0.091502473,-0.114378087,-0.173854694
1.967960064,,1.995792389,-1.776514832,0.397072226,-1.772537057,4.746734619,3.044921875,,0.008372978,-0.013550164,-0.063494019,0.012271847,-0.000958738,-0.067351349,,-1.174708724,-1.452693224,-0.746522903,0.123528339,-0.12047825,-0.01372537
1.976020224,,1.995840073,-1.776610676,0.396545649,-1.772500817,4.746686935,3.044407368,,0.009676863,-0.014023141,-0.062484153,0.011936288,-0.000862864,-0.061862573,,-0.993122101,-1.432516932,-0.634432375,0.001525041,-0.132678583,0.01372537
1.98395008,,1.995935917,-1.776730839,0.396007121,-1.772488896,4.746698856,3.043928862,,0.009702428,-0.012207931,-0.063979782,0.005392902,-0.00076699,-0.065793395,,-1.232995749,-1.468385935,-0.533550918,0.021350577,-0.146403953,-0.089977428
1.992080128,,1.996007919,-1.776839081,0.395480186,-1.772465054,4.746675015,3.04334259,,0.007248059,-0.013128319,-0.062982693,0,-0.000719053,-0.068477862,,-1.017781973,-1.495287657,-0.55372721,0.150979072,-0.144878909,-0.147928998
1.999940096,,1.996091843,-1.776898686,0.394977599,-1.772321049,4.746626854,3.042840481,,0.009421199,-0.012732041,-0.061857775,0.015891083,-0.000719053,-0.058339208,,-1.210577726,-1.481836796,-0.641157806,0.071676932,-0.123528339,-0.239431471
2.008020224,,1.996151924,-1.777078454,0.394451022,-1.772345368,4.746614933,3.042337894,,0.006302104,-0.013626863,-0.062011175,0.00680704,-0.005872271,-0.063228771,,-1.042441964,-1.562541962,-0.571661711,-0.024400659,-0.051851399,-0.239431471
2.016090112,,1.996235847,-1.777150456,0.393936455,-1.77233297,4.746614933,3.041847229,,0.01256586,-0.011492073,-0.062560849,0,-0.004458132,-0.068358019,,-1.161257863,-1.591685534,-0.654608667,0.105227843,-0.019825535,-0.067101814
2.023920128,,1.996295452,-1.777234856,0.393433869,-1.772273366,4.746614933,3.0412848,,0.004908739,-0.012795957,-0.062586419,0,-0.002876214,-0.063180834,,-1.111938,-1.580476403,-0.759973764,0.131153539,-0.041176111,0.050326359
2.031990016,,1.996343613,-1.777342621,0.392930925,-1.772237126,4.746614933,3.040818214,,0.012706474,-0.011415374,-0.062164571,0.004506069,-0.002109224,-0.060160812,,-0.930351377,-1.567025542,-0.847404361,0.07930214,-0.064051732,-0.006100165
2.039930112,,1.996439457,-1.777426068,0.392404348,-1.772297208,4.746626854,3.040291548,,0.007529289,-0.012757607,-0.060643375,0.00417051,-0.001677792,-0.073007904,,-1.250930309,-1.605136395,-0.907933295,0.09302751,-0.086927347,-0.144878909
2.047920128,,1.996487141,-1.777509991,0.391913742,-1.772261445,4.746614933,3.039753437,,0.004205664,-0.011811652,-0.062407453,0.002756372,-0.00139017,-0.064642914,,-0.84516257,-1.567025542,-0.860855222,0.117428169,-0.071676932,-0.205880553
2.05601024,,1.99655962,-1.777642075,0.391363233,-1.772273366,4.746638775,3.039274693,,0.011108578,-0.011939484,-0.063174441,0.002037318,-0.001174454,-0.055606805,,-1.250930309,-1.596169114,-0.681510389,0.135728672,-0.083877265,-0.312633455
2.063910144,,1.996595383,-1.777690236,0.390884221,-1.772237126,4.746614933,3.038772106,,0.003886085,-0.012220714,-0.061883342,0.001629855,-0.001030643,-0.06356433,,-0.950527668,-1.510980368,-0.609772444,0.154029161,-0.07930214,-0.248581707
2.071960064,,1.996691227,-1.777821843,0.390333712,-1.772177521,4.746614933,3.038234472,,0.013205018,-0.01095518,-0.062458586,0.012751216,0,-0.068621673,,-1.078310847,-1.54236567,-0.620981514,0.158604279,-0.114378087,-0.129628494
2.079910144,,1.996739388,-1.777965848,0.389843106,-1.772141282,4.746591091,3.037743807,,0.006851781,-0.013422332,-0.062535286,0.007621967,0,-0.064642914,,-1.094003558,-1.452693224,-0.650125086,0,-0.12657842,-0.05337644
2.088020224,,1.996835232,-1.778002087,0.389316559,-1.772129361,4.746507645,3.037169218,,0.008666991,-0.010469419,-0.061333667,0.003906858,0,-0.064618945,,-0.889998794,-1.499771237,-0.55821085,0.064051732,-0.12657842,-0.068626851
2.096,,1.996870995,-1.778086011,0.388778001,-1.772153203,4.746495247,3.036619186,,0.012335762,-0.012412461,-0.061678812,0.00263653,-0.003163835,-0.06931676,,-1.203852296,-1.495287657,-0.439394861,0.10675288,-0.076252058,-0.158604279
2.104,,1.996919155,-1.778205697,0.388323367,-1.772094075,4.74653101,3.0361166,,0.003822169,-0.011543206,-0.061180267,0.001989381,-0.003163835,-0.057787936,,-0.925867736,-1.463902235,-0.625465155,0.117428169,-0.061001647,-0.247056678
2.11190016,,1.996966839,-1.778265778,0.387784451,-1.772069756,4.746542931,3.035650015,,0.015071361,-0.011325892,-0.061487064,0.00170176,-0.002804309,-0.054144729,,-1.127630711,-1.486320376,-0.780150056,0.141828835,-0.051851399,-0.28365767
2.119990016,,1.997075081,-1.778385941,0.387305439,-1.771985833,4.74653101,3.035206795,,0.005023787,-0.012642559,-0.062458586,0.007789746,-0.002085255,-0.06454704,,-1.107454419,-1.39888978,-0.83619535,0.118953213,-0.073201977,-0.192155182
2.127990016,,1.997087002,-1.778446023,0.386814833,-1.771997754,4.746542931,3.034644842,,0.010341587,-0.008961004,-0.061972827,0.006159892,-0.001653823,-0.062605597,,-0.820502639,-1.441484213,-0.910175085,0.035075948,-0.08540231,-0.044226196
2.136020224,,1.997159004,-1.778505627,0.386300266,-1.772045914,4.74653101,3.034142256,,0.011530423,-0.013243368,-0.061563764,0.003499394,-0.001366202,-0.06217416,,-1.210577726,-1.468385935,-0.912416875,0.07930214,-0.091502473,-0.012200329
2.143980032,,1.997242451,-1.778613869,0.385797292,-1.771985833,4.746542931,3.03362751,,0.003579288,-0.010226538,-0.062918782,0.002444782,-0.001174454,-0.063756078,,-0.966220319,-1.354053617,-0.777908266,0.11285305,-0.089977428,-0.096077591
2.151930112,,1.99727869,-1.778673474,0.385342658,-1.771926228,4.74653101,3.03311348,,0.014969097,-0.009702428,-0.061704379,0.002157161,-0.001006675,-0.069436602,,-1.132114291,-1.497529507,-0.771182835,0.111328006,-0.09302751,-0.186055019
2.16001024,,1.997338772,-1.778793637,0.384828091,-1.771878068,4.746542931,3.032598734,,0.007529289,-0.011747736,-0.062752597,0.006207829,-0.000910801,-0.055151407,,-1.194885015,-1.277832031,-0.753248334,0.089977428,-0.102177761,-0.259256989
2.167940096,,1.997398376,-1.77887756,0.384313494,-1.771878068,4.746507645,3.03219223,,0.003170227,-0.008500811,-0.062407453,0.006159892,-0.000814927,-0.054312509,,-0.83843714,-1.414582491,-0.807051778,0.044226196,-0.123528339,-0.346184343
2.175910144,,1.997446537,-1.778961484,0.383834511,-1.771926228,4.746447563,3.031713486,,0.009421199,-0.010942397,-0.061729945,0.003499394,-0.00076699,-0.064786725,,-1.347328186,-1.351811767,-0.748764753,0.076252058,-0.118953213,-0.25620693
2.183960064,,1.99753046,-1.779045407,0.383343905,-1.771842305,4.746423721,3.031138897,,0.003361975,-0.008666991,-0.062663116,0.002444782,-0.00743022,-0.068693578,,-0.932593167,-1.271106601,-0.739797473,0.12047825,-0.035075948,-0.059476607
2.191870208,,1.997566223,-1.779105488,0.382841319,-1.771758382,4.746423721,3.03062439,,0.012757607,-0.009331716,-0.063877515,0.012487563,-0.005632586,-0.063300677,,-1.156774282,-1.506496668,-0.771182835,0.111328006,0.012200329,-0.024400659
2.20001024,,1.997626305,-1.77916557,0.382362336,-1.771746461,4.746447563,3.030110598,,0.006851781,-0.009203885,-0.062867649,0.008077368,-0.003307646,-0.06389989,,-1.109696269,-1.206094027,-0.903449655,-0.030500824,-0.003050082,-0.073201977
2.207920128,,1.997673988,-1.77921373,0.381835759,-1.771722142,4.746459484,3.029584169,,0.003822169,-0.004947088,-0.063583508,0.0040267,-0.002348908,-0.066919915,,-0.910175085,-1.437000513,-0.970703959,0.007625206,-0.03965107,-0.152504116
2.215920128,,1.997722149,-1.779309098,0.381381124,-1.771722142,4.746447563,3.029093504,,0.008372978,-0.011300325,-0.063059397,0.002684467,-0.001821602,-0.059226044,,-1.318184614,-1.351811767,-0.98415482,0.062526688,-0.036600988,-0.222656012
2.224020224,,1.997781754,-1.779369179,0.380878538,-1.771662537,4.746435642,3.02863884,,0.004013916,-0.006672816,-0.064427197,0.00201335,-0.001486044,-0.059321914,,-0.993122101,-1.293524742,-0.903449655,0.082352221,-0.041176111,-0.268407255
2.23190016,,1.997853756,-1.779357258,0.380328,-1.771662537,4.746435642,3.028124332,,0.011837219,-0.005765211,-0.065015219,0.012391689,-0.001246359,-0.066272765,,-1.174708724,-1.437000513,-0.892240584,0.068626851,-0.048801318,-0.175379738
2.24001024,,1.997901917,-1.779488866,0.379872978,-1.771602933,4.746423721,3.027585983,,0.005790778,-0.012016183,-0.063583508,0.007190535,-0.00107858,-0.06555371,,-1.199368596,-1.318184614,-0.894482434,-0.048801318,-0.054901481,0.007625206
2.24790016,,1.997913837,-1.779513184,0.379346043,-1.771566693,4.7464118,3.027119398,,0.002786732,-0.005381716,-0.06458059,0.003810984,-0.000958738,-0.059178106,,-0.959494889,-1.304733753,-0.887757003,-0.006100165,-0.054901481,0.042701155
2.25601024,,1.997973919,-1.779597108,0.378867418,-1.771591012,4.746435642,3.026604891,,0.011658254,-0.007797736,-0.064746775,0.002588593,0,-0.06502641,,-1.315942764,-1.517705798,-0.766699195,0.041176111,-0.076252058,-0.09912768
2.263930112,,1.997997761,-1.779657189,0.378352463,-1.771542851,4.746399403,3.026078224,,0.003579288,-0.011734953,-0.065475412,0.001941444,0,-0.071090423,,-1.073827267,-1.250930309,-0.726346612,0.044226196,-0.07930214,-0.164704442
2.271880192,,1.998057365,-1.779716794,0.377849877,-1.771470849,4.746351719,3.025575638,,0.011159711,-0.006225406,-0.065079138,0.013230585,0,-0.056229986,,-1.062618256,-1.40113163,-0.822744489,-0.036600988,-0.102177761,-0.268407255
2.27995008,,1.998153687,-1.779753033,0.377323329,-1.771495167,4.746351719,3.025085211,,0.005381716,-0.009114402,-0.064874604,0.005872271,-0.002732403,-0.062054317,,-1.300250173,-1.466144085,-0.829469919,-0.089977428,-0.077777103,-0.272982359
2.28795008,,1.998177528,-1.779824559,0.376832724,-1.771411244,4.746327877,3.024630547,,0.002850648,-0.007976701,-0.066293538,0.003739078,-0.002732403,-0.06684801,,-0.997605681,-1.282315612,-0.802568197,-0.033550907,-0.047276277,-0.164704442
2.29590016,,1.99820137,-1.779897038,0.376317769,-1.771483246,4.746327877,3.024080276,,0.010942397,-0.004704208,-0.065117486,0.003739078,-0.002732403,-0.066176891,,-1.280073881,-1.376471639,-0.762215614,-0.038126029,-0.03965107,0.003050082
2.303910144,,1.998261452,-1.77992088,0.375791222,-1.771386925,4.746339798,3.023554087,,0.004218447,-0.007017962,-0.065449849,0.003691141,-0.002444782,-0.062150192,,-1.127630711,-1.479594946,-0.677026808,-0.015250412,-0.056426525,0.012200329
2.311930112,,1.998309135,-1.780004803,0.375300616,-1.771386925,4.746339798,3.0230515,,0.001291101,-0.006941263,-0.065871693,0.002540656,-0.001869539,-0.066416577,,-0.999847531,-1.302491903,-0.724104822,-0.018300494,-0.054901481,-0.100652717
2.31995008,,1.998321056,-1.780029122,0.374774069,-1.771363084,4.746339798,3.022501469,,0.008488027,-0.004346279,-0.066677034,0.002492719,-0.001510012,-0.067950562,,-1.250930309,-1.40785706,-0.739797473,-0.003050082,-0.065576769,-0.147928998
2.32801024,,1.998357296,-1.780100648,0.374247491,-1.771255318,4.746339798,3.021986723,,0.003425891,-0.007363108,-0.065743864,0.007190535,-0.001270328,-0.056661416,,-1.1164217,-1.403373361,-0.755490184,-0.080827184,-0.067101814,-0.257731974
2.335930112,,1.998381615,-1.780148808,0.373685002,-1.771243397,4.746351719,3.02156806,,0.009536248,-0.007682687,-0.065910041,0.008628642,-0.001102549,-0.064331323,,-0.990880251,-1.298008323,-0.690477669,-0.135728672,-0.073201977,-0.219605923
2.344,,1.998477459,-1.780220811,0.373194009,-1.771255318,4.746327877,3.021053553,,0.009050487,-0.00458916,-0.065079138,0.00417051,-0.000958738,-0.067015789,,-1.322668195,-1.394406199,-0.654608667,-0.114378087,-0.083877265,-0.062526688
2.351930112,,1.998501301,-1.780245129,0.372727007,-1.771195237,4.746243954,3.020491123,,0.003131877,-0.006187056,-0.065322019,0.002756372,-0.000910801,-0.062509723,,-1.239721179,-1.403373361,-0.70168668,-0.07930214,-0.09302751,0.044226196
2.359990016,,1.99848938,-1.780292813,0.372188479,-1.771183316,4.74619627,3.020036459,,0.002211489,-0.005381716,-0.064631723,0.002037318,-0.007597999,-0.061814636,,-1.024507403,-1.291282892,-0.777908266,-0.070151895,-0.018300494,-0.0259257
2.367930112,,1.99853754,-1.780352894,0.371709853,-1.771195237,4.746255875,3.019509792,,0.005790778,-0.004742557,-0.063609071,0.001677792,-0.005632586,-0.072888061,,-1.271106601,-1.39888978,-0.775666475,-0.045751236,0.045751236,-0.169279575
2.375940096,,1.998621464,-1.780388657,0.37121886,-1.771099869,4.746267796,3.018947601,,0.002786732,-0.008066182,-0.064094834,0.001677792,0.001222391,-0.062749401,,-1.098487139,-1.311459184,-0.759973764,-0.062526688,-0.047276277,-0.208930641
2.384020224,,1.998609066,-1.780424897,0.370716274,-1.771039788,4.74619627,3.018528938,,0.006800648,-0.006851781,-0.063302279,0.006543387,-0.001869539,-0.054504257,,-1.232995749,-1.25541389,-0.598563433,-0.150979072,-0.018300494,-0.315683514
2.391990016,,1.998645306,-1.78046066,0.370189726,-1.771052186,4.746208191,3.018026352,,0.003272492,-0.002786732,-0.064427197,0.00417051,-0.001869539,-0.065985143,,-1.192643166,-1.360779047,-0.535792708,-0.143353865,-0.038126029,-0.230281219
2.399910144,,1.998657227,-1.780496899,0.36968714,-1.771064107,4.74619627,3.017512083,,0.002109224,-0.006429936,-0.064184316,0.002756372,-0.001869539,-0.067351349,,-1.046925545,-1.479594946,-0.672543168,-0.135728672,-0.022875618,-0.091502473
2.40801024,,1.99870491,-1.780532662,0.369172186,-1.771064107,4.746220112,3.016962051,,0.005893043,-0.007030746,-0.063506804,0.002037318,-0.001869539,-0.066440545,,-1.165741444,-1.273348451,-0.70392853,-0.109802961,-0.024400659,-0.033550907
2.415960064,,1.99874115,-1.780532662,0.36868158,-1.771015946,4.746220112,3.016471386,,0.003425891,-0.003579288,-0.064069264,0.00201335,-0.00170176,-0.06620086,,-1.172466874,-1.345086336,-0.643399656,-0.114378087,-0.024400659,-0.09912768
2.42401024,,1.99870491,-1.780556504,0.368143052,-1.771027867,4.746208191,3.015897036,,0.002390453,-0.002671683,-0.063302279,0.00201335,-0.00139017,-0.069820099,,-1.107454419,-1.472869515,-0.719621181,-0.117428169,-0.035075948,-0.150979072
2.43201024,,1.998764992,-1.780640427,0.367652446,-1.771004025,4.746232033,3.015442371,,0.003592072,-0.008181231,-0.064644508,0.00201335,-0.001198423,-0.056062207,,-1.058134556,-1.239721179,-0.728588402,-0.100652717,-0.035075948,-0.2409565
2.439940096,,1.998788834,-1.780700986,0.367137492,-1.771015946,4.746184349,3.014963627,,0.003592072,-0.003425891,-0.062381886,0.00201335,-0.001030643,-0.058866516,,-1.134356141,-1.241963029,-0.791359127,-0.105227843,-0.051851399,-0.263832122
2.448030208,,1.998836994,-1.780748669,0.366598934,-1.770968262,4.74619627,3.014508963,,0.002978479,-0.002428803,-0.063800819,0.001629855,-0.000910801,-0.065625615,,-1.087278128,-1.40785706,-0.791359127,-0.088452391,-0.054901481,-0.19978039
2.455970048,,1.998872757,-1.780772511,0.366131932,-1.770872418,4.746148109,3.013958931,,0.004013916,-0.005777995,-0.062611982,0.001581918,-0.000814927,-0.064187512,,-1.152290583,-1.192643166,-0.753248334,-0.097602636,-0.064051732,-0.02745074
2.464,,1.998848915,-1.780724827,0.365617365,-1.770884339,4.746172428,3.013480186,,0.003425891,-0.004704208,-0.062918782,0.007861651,-0.000743022,-0.062389877,,-1.125388861,-1.201610446,-0.627706945,-0.202830479,-0.05337644,0.006100165
2.471980032,,1.998920918,-1.780784432,0.365078837,-1.77086002,4.746172428,3.012929678,,0.001981392,0,-0.062599197,0.004458132,-0.000671117,-0.068789452,,-1.109696269,-1.490803957,-0.531309128,-0.192155182,-0.065576769,-0.088452391
2.479960064,,1.998897076,-1.780808751,0.364552259,-1.77089626,4.746148109,3.012379646,,0.001495631,-0.008922655,-0.062560849,0.002876214,-0.000647148,-0.066632293,,-1.002089262,-1.194885015,-0.488714695,-0.176904783,-0.08540231,-0.196730316
2.487910144,,1.998908997,-1.780856435,0.364073277,-1.77086002,4.746100426,3.011924982,,0.005931392,-0.003579288,-0.062445801,0.002109224,-0.006303702,-0.053737268,,-1.185917735,-1.167983294,-0.486472875,-0.166229486,-0.045751236,-0.289757818
2.495970048,,1.998980522,-1.780856435,0.363582671,-1.770836178,4.746064186,3.011482239,,0.003170227,-0.002160356,-0.060771208,0.001677792,-0.006303702,-0.055750616,,-1.241963029,-1.371988058,-0.511132777,-0.143353865,0.035075948,-0.335509062
2.50390016,,1.99899292,-1.780928437,0.363056123,-1.77086002,4.746136189,3.01096797,,0.001073787,-0.007222493,-0.061602112,0.00139017,-0.003595268,-0.067039758,,-1.143323421,-1.129872561,-0.538034558,-0.138778746,0.019825535,-0.195205271
2.512030208,,1.99899292,-1.780940358,0.362565517,-1.770872418,4.746100426,3.010465384,,0.001073787,-0.003131877,-0.062113442,0.001174454,-0.00246875,-0.066512451,,-1.085036278,-1.199368596,-0.70392853,-0.134203628,0.01372537,-0.03965107
2.519910144,,1.999028683,-1.780952279,0.362050563,-1.770848099,4.746112347,3.009914875,,0.002454369,-0.001879127,-0.063174441,0.001030643,0,-0.062749401,,-1.049167395,-1.300250173,-0.755490184,-0.109802961,0,-0.010675289
2.52790016,,1.999076843,-1.780928437,0.361547977,-1.770800416,4.746076584,3.009460211,,0.005432849,-0.001521198,-0.060835123,0.000982706,0,-0.06519419,,-1.239721179,-1.383197069,-0.824986279,-0.117428169,-0.033550907,-0.080827184
2.536,,1.999076843,-1.781000439,0.36103341,-1.770776097,4.746064186,3.008897781,,0.003272492,-0.005011004,-0.06151263,0.007070693,0,-0.064451165,,-1.320426464,-1.219544888,-0.824986279,-0.204355523,-0.033550907,-0.163179412
2.544090112,,1.999064446,-1.780976597,0.360530823,-1.770776097,4.746040344,3.008419514,,0.001930259,-0.003272492,-0.061256967,0.005177185,0,-0.056733321,,-1.239721179,-1.12314713,-0.751006544,-0.219605923,-0.044226196,-0.234856337
2.552,,1.999076843,-1.781048123,0.359991908,-1.770764176,4.746076584,3.007941008,,0.0013678,0,-0.061026871,0.003139867,0,-0.059993032,,-1.109696269,-1.383197069,-0.627706945,-0.195205271,-0.050326359,-0.245531633
2.56,,1.999052525,-1.781048123,0.359524876,-1.770752255,4.746064186,3.007438421,,0.001061003,-0.004857606,-0.061333667,0.002253034,0,-0.066800073,,-1.12314713,-1.215061307,-0.629948735,-0.186055019,-0.047276277,-0.103702798
2.567920128,,1.999100685,-1.78101236,0.35902229,-1.770728413,4.746064186,3.006923676,,0.000856473,-0.003131877,-0.05921166,0.001773665,0,-0.06174273,,-1.127630711,-1.159016013,-0.69944489,-0.166229486,-0.057951566,0.033550907
2.575990016,,1.999076843,-1.781048123,0.358507723,-1.770740334,4.746028423,3.00645709,,0.000830906,0,-0.060758423,0.001438107,-0.001174454,-0.054600131,,-1.167983294,-1.383197069,-0.654608667,-0.158604279,-0.054901481,0.033550907
2.584020224,,1.999088764,-1.781024281,0.35802874,-1.770740334,4.745968342,3.005978584,,0.000830906,-0.004563593,-0.059722986,0.001222391,-0.001174454,-0.064163543,,-1.165741444,-1.154532433,-0.56493628,-0.160129324,-0.048801318,-0.09302751
2.591960064,,1.999124527,-1.781036202,0.357550114,-1.770716492,4.745956421,3.005452394,,0.000830906,-0.003004046,-0.058495801,0.001054612,-0.003978763,-0.067758814,,-1.176950574,-1.107454419,-0.607530653,-0.150979072,-0.0259257,-0.167754531
2.599970048,,1.999100685,-1.781072442,0.357035547,-1.770752255,4.746004581,3.004902124,,0.000830906,-0.001827994,-0.059799686,0.00093477,-0.003978763,-0.056349829,,-1.082794547,-1.167983294,-0.820502639,-0.123528339,0.012200329,-0.265357167
2.607980032,,1.999100685,-1.781072442,0.356580883,-1.770740334,4.746016502,3.00444746,,0.000830906,0,-0.059531238,0.000838896,-0.00340352,-0.058650799,,-1.11866343,-1.331635475,-0.921384156,-0.125053376,0.022875618,-0.288232774
2.615940096,,1.999136448,-1.781096284,0.3561019,-1.770704571,4.74598074,3.003980875,,0.00080534,0,-0.060605027,0.000790959,-0.002396845,-0.063851953,,-1.129872561,-1.309217334,-0.961736739,-0.128103465,-0.003050082,-0.176904783
2.623990016,,1.999100685,-1.781096284,0.355599314,-1.770644967,4.745992661,3.003394842,,0.000792557,0,-0.058840949,0.005440838,-0.001845571,-0.064786725,,-1.163499713,-1.320426464,-1.026749253,-0.135728672,-0.006100165,-0.009150247
2.631890176,,1.999112606,-1.781096284,0.355108708,-1.770656888,4.745956421,3.002916098,,0.000792557,0,-0.059454542,0.005440838,-0.001486044,-0.058123492,,-1.181434155,-1.318184614,-0.934835017,-0.196730316,-0.006100165,0.001525041
2.639930112,,1.999124527,-1.781108205,0.354641676,-1.770656888,4.74598074,3.002437592,,0.000792557,0,-0.060566675,0.0040267,-0.001270328,-0.06126336,,-1.203852296,-1.309217334,-0.849646211,-0.205880553,-0.012200329,-0.076252058
2.64795008,,1.999148369,-1.781108205,0.354186654,-1.770644967,4.745968342,3.001922846,,0.000792557,0,-0.059940301,0.002684467,-0.00107858,-0.067207538,,-1.212819457,-1.309217334,-0.881031573,-0.202830479,-0.015250412,-0.144878909
2.655970048,,1.999124527,-1.781120125,0.353696048,-1.770633046,4.745944977,3.001396418,,0.000792557,0,-0.060809556,0.00201335,-0.000958738,-0.055726647,,-1.248688459,-1.306975603,-0.84292078,-0.190630153,-0.022875618,-0.237906426
2.663940096,,1.999112606,-1.781084363,0.353193104,-1.770633046,4.745944977,3.000965834,,0.000792557,0,-0.061078005,0.001605886,0,-0.05831524,,-1.194885015,-1.248688459,-0.789117336,-0.183004946,-0.050326359,-0.268407255
2.67195008,,1.99916029,-1.781120125,0.352690518,-1.770656888,4.745933056,3.000463486,,0.000677508,0,-0.060285445,0.001342233,0,-0.065577678,,-1.239721179,-1.248688459,-0.735313833,-0.160129324,-0.050326359,-0.132678583
2.679940096,,1.99916029,-1.781132046,0.352199912,-1.770644967,4.745944977,2.999948978,,0.000588026,0,-0.060195964,0.001150486,0,-0.061143517,,-1.306975603,-1.230754018,-0.766699195,-0.158604279,-0.051851399,0.015250412
2.687980032,,1.999136448,-1.781108205,0.351756871,-1.770621125,4.745896816,2.99944663,,0.00052411,0,-0.062177356,0.001006675,-0.002588593,-0.055798553,,-1.293524742,-1.232995749,-0.793600917,-0.155554205,-0.015250412,0.028975783
2.695890176,,1.999124527,-1.781096284,0.351290226,-1.770608727,4.745896816,2.999004126,,0.000472977,0,-0.062381886,0.000886833,-0.002588593,-0.063756078,,-1.327151895,-1.206094027,-0.822744489,-0.152504116,-0.007625206,-0.09302751
2.704040192,,1.999136448,-1.781072442,0.350775659,-1.770596806,4.745884895,2.998405695,,0.000421845,0,-0.06151263,0.000790959,-0.002588593,-0.069844067,,-1.336119056,-1.111938,-0.896724224,-0.150979072,-0.004575124,-0.19978039
2.711910144,,1.999148369,-1.781108205,0.350284666,-1.770621125,4.745896816,2.99792695,,0.000383495,0,-0.061602112,0.000719053,-0.002181129,-0.053497583,,-1.354053617,-1.136597991,-0.930351377,-0.129628494,-0.021350577,-0.276032448
2.71990016,,1.999112606,-1.781132046,0.349770099,-1.770572964,4.745884895,2.997520208,,0.000357929,0,-0.063583508,0.000671117,-0.001725729,-0.054863784,,-1.365262628,-1.11866343,-0.818260849,-0.132678583,-0.02745074,-0.356859624
2.728,,1.999136448,-1.781096284,0.349303097,-1.770524804,4.745933056,2.997041702,,0.000332363,0,-0.062893212,0.000671117,-0.001414139,-0.064451165,,-1.461660504,-1.111938,-0.827228069,-0.123528339,-0.024400659,-0.224181056
2.735910144,,1.999112606,-1.781072442,0.348812491,-1.770500962,4.745909214,2.996515036,,0.000306796,0,-0.062790945,0.005273059,-0.001198423,-0.064978473,,-1.441484213,-1.008814693,-0.867580712,-0.195205271,-0.030500824,-0.076252058
2.744,,1.999112606,-1.781108205,0.348297536,-1.770500962,4.745921135,2.996012449,,0.000294013,0,-0.063506804,0.004961469,-0.001030643,-0.061862573,,-1.495287657,-1.011056542,-0.854129791,-0.231806263,-0.036600988,-0.048801318
2.751920128,,1.999148369,-1.781072442,0.347818911,-1.770465199,4.745909214,2.995486736,,0.000268447,-0.000178964,-0.062918782,0.003067962,-0.000910801,-0.063396551,,-1.531156659,-0.961736739,-0.786875486,-0.222656012,-0.035075948,-0.102177761
2.759980032,,1.999124527,-1.781096284,0.347340286,-1.770500962,4.745849133,2.994972229,,0.000255663,-0.000178964,-0.063468456,0.002229066,-0.000814927,-0.065985143,,-1.625312686,-0.961736739,-0.751006544,-0.224181056,-0.050326359,-0.205880553
2.76801024,,1.999112606,-1.781084363,0.346813738,-1.770500962,4.745872974,2.994481564,,0.00024288,-0.000178964,-0.062126223,0.001749697,-0.000743022,-0.054528225,,-1.616345406,-0.831711709,-0.829469919,-0.204355523,-0.059476607,-0.292807907
2.775860224,,1.999112606,-1.781072442,0.346370697,-1.770489041,4.745812893,2.994074821,,-5.11E-05,-0.000178964,-0.061474282,0.001438107,-0.000719053,-0.055271249,,-1.600652695,-0.822744489,-0.878789723,-0.19978039,-0.067101814,-0.318733603
2.783990016,,1.999088764,-1.781000439,0.345892072,-1.77047712,4.745765209,2.993643999,,-5.11E-05,0.001355016,-0.063775256,0.001222391,-0.006375608,-0.064187512,,-1.706017852,-0.813777208,-0.903449655,-0.201305434,-0.048801318,-0.196730316
2.79195008,,1.999088764,-1.78101236,0.345377505,-1.77047712,4.745789051,2.993129492,,-5.11E-05,0.001355016,-0.062752597,0.001054612,-0.006375608,-0.062294003,,-1.739645004,-0.784633696,-0.860855222,-0.195205271,0.044226196,-0.03965107
2.799980032,,1.999100685,-1.78101236,0.344850212,-1.770489041,4.745800972,2.992626905,,-0.001239968,0.001712945,-0.061832212,0.00093477,-0.003595268,-0.06052034,,-1.827075601,-0.726346612,-0.775666475,-0.192155182,0.012200329,-0.003050082
2.807940096,,1.999028683,-1.780988518,0.344383568,-1.77047712,4.745800972,2.992148399,,-0.003937217,0.001712945,-0.062113442,0.000838896,-0.00246875,-0.064834662,,-1.766546726,-0.757731974,-0.780150056,-0.195205271,0.003050082,-0.091502473
2.81590016,,1.999004841,-1.780976597,0.343904942,-1.77047712,4.745800972,2.991573811,,-0.003937217,0.002505502,-0.062445801,0.000743022,-0.001893508,-0.068142302,,-1.643247128,-0.665817738,-0.829469919,-0.19825536,0.001525041,-0.193680227
2.823970048,,1.999004841,-1.780976597,0.343378007,-1.77047712,4.745812893,2.991155148,,-0.002352104,0.002505502,-0.062611982,0.000695085,-0.001533981,-0.052395035,,-1.739645004,-0.70392853,-0.887757003,-0.187580064,-0.006100165,-0.257731974
2.83195008,,1.999052525,-1.780988518,0.342875421,-1.770489041,4.745800972,2.990736485,,-0.001559547,0.002211489,-0.062867649,0.00062318,-0.001294296,-0.053473614,,-1.795690298,-0.598563433,-0.807051778,-0.187580064,-0.018300494,-0.343134254
2.839980032,,1.999016762,-1.780952279,0.342432767,-1.770453278,4.745800972,2.990258217,,-0.001176052,0.001879127,-0.062254056,0.000575243,-0.001102549,-0.063756078,,-1.936924338,-0.515616417,-0.69496125,-0.195205271,-0.015250412,-0.22723113
2.848,,1.99899292,-1.780856435,0.341894209,-1.770537202,4.745789051,2.98974371,,-0.006877347,0.005023787,-0.062036742,0.000551274,0,-0.065697521,,-1.96606791,-0.757731974,-0.717379391,-0.192155182,-0.057951566,-0.059476607
2.855960064,,1.998897076,-1.780856435,0.341427207,-1.770465199,4.745753288,2.989241362,,-0.004422978,0.002722816,-0.062407453,0.000503337,0,-0.060903832,,-1.721710444,-0.540276349,-0.744281113,-0.193680227,-0.059476607,-0.012200329
2.86395008,,1.998920918,-1.780808751,0.340924621,-1.770512883,4.745717049,2.988774776,,-0.002710033,0.006749515,-0.061308101,0.000479369,0,-0.06191051,,-1.918989778,-0.600805223,-0.748764753,-0.190630153,-0.057951566,-0.062526688
2.87190016,,1.998920918,-1.780820672,0.340422034,-1.77047712,4.745741367,2.98827219,,-0.003771036,0.005790778,-0.060873471,0.000455401,-0.002492719,-0.06519419,,-1.96606791,-0.708412111,-0.757731974,-0.195205271,-0.059476607,-0.137253702
2.879980032,,1.998897076,-1.780808751,0.339966625,-1.770489041,4.745717049,2.987793446,,-0.003771036,0.002594984,-0.062765382,0.000431432,-0.002492719,-0.05567871,,-1.95710063,-0.443878502,-0.650125086,-0.173854694,-0.030500824,-0.207405597
2.88795008,,1.998836994,-1.780700986,0.339464039,-1.77047712,4.745741367,2.98732686,,-0.002454369,0.009919743,-0.061461497,0.000407464,-0.002492719,-0.054719973,,-1.981760502,-0.506649196,-0.488714695,-0.172329649,-0.0259257,-0.272982359
2.896020224,,1.998825073,-1.780700986,0.339009374,-1.770465199,4.745705128,2.986884356,,-0.006072008,0.006276538,-0.061768293,0.000383495,-0.002444782,-0.061718762,,-1.981760502,-0.656850517,-0.508890986,-0.169279575,-0.030500824,-0.195205271
2.903870208,,1.998776913,-1.780640427,0.33849445,-1.770512883,4.745705128,2.986381769,,-0.006851781,0.002825081,-0.062036742,0.000359527,-0.001869539,-0.064283386,,-1.889846325,-0.390075028,-0.594079793,-0.164704442,-0.03965107,-0.035075948
2.91195008,,1.99874115,-1.780580346,0.338015825,-1.770537202,4.745741367,2.985879421,,-0.002786732,0.008411328,-0.061052438,0.000335558,-0.001510012,-0.057284597,,-2.102818251,-0.603047013,-0.638916016,-0.176904783,-0.044226196,0.067101814
2.919990016,,1.99870491,-1.780580346,0.337489277,-1.770453278,4.745729446,2.985472679,,-0.009536248,0.004422978,-0.06022153,0.000335558,-0.001270328,-0.056517608,,-2.001936913,-0.524583697,-0.643399656,-0.164704442,-0.045751236,-0.018300494
2.927960064,,1.998669147,-1.780532662,0.337034613,-1.770465199,4.745717049,2.984958172,,-0.006608901,0.008488027,-0.060899038,0.00031159,-0.001102549,-0.069244854,,-1.934682488,-0.342997015,-0.690477669,-0.163179412,-0.057951566,-0.134203628
2.935890176,,1.998645306,-1.780472581,0.336531639,-1.770500962,4.745693207,2.984431505,,-0.002888997,0.008372978,-0.061640464,0.00031159,-0.000958738,-0.059777316,,-2.131961823,-0.582870722,-0.70168668,-0.160129324,-0.057951566,-0.189105108
2.943860224,,1.998573303,-1.780412976,0.336029053,-1.77042896,4.745693207,2.984036922,,-0.012859873,0.005611813,-0.059991434,0.000287621,-0.000862864,-0.05412076,,-1.833801031,-0.41249314,-0.784633696,-0.155554205,-0.073201977,-0.285182714
2.951910144,,1.99853754,-1.780329053,0.33555007,-1.770489041,4.745669365,2.983558178,,-0.003962784,0.009421199,-0.059863601,0.000287621,-0.000790959,-0.06052034,,-1.925715208,-0.452845722,-0.793600917,-0.178429812,-0.088452391,-0.239431471
2.959990016,,1.998513222,-1.780329053,0.335035503,-1.770441357,4.745597839,2.983043671,,-0.013038837,0.006417153,-0.059556805,0.000263653,-0.008364989,-0.065361962,,-2.230601549,-0.502165556,-0.820502639,-0.179954857,-0.080827184,-0.096077591
2.967960064,,1.998441696,-1.780245129,0.33455649,-1.770465199,4.745597839,2.982541561,,-0.007529289,0.006199839,-0.059710205,0.000263653,-0.007190535,-0.059753347,,-1.764304876,-0.387833238,-0.726346612,-0.178429812,0.038126029,0.015250412
2.975970048,,1.998405457,-1.780185048,0.334125817,-1.77047712,4.745657921,2.982074738,,-0.002888997,0.009421199,-0.059377842,0.000263653,0.001270328,-0.05788381,,-2.105060101,-0.567178071,-0.612014294,-0.18452999,-0.02745074,-0.012200329
2.98384,,1.998333454,-1.780112569,0.333622843,-1.770465199,4.7455616,2.981584549,,-0.014342721,0.005969742,-0.057946127,0.000239685,-0.001773665,-0.064810693,,-1.871911764,-0.41697675,-0.659092307,-0.178429812,-0.062526688,-0.105227843
2.991980032,,1.998297215,-1.780064885,0.333132237,-1.770465199,4.745573998,2.981081963,,-0.003962784,0.013345633,-0.058802597,0.000239685,-0.001773665,-0.06200638,,-2.033322096,-0.459571153,-0.603047013,-0.192155182,-0.05337644,-0.164704442
2.999930112,,1.998249531,-1.77995712,0.332665622,-1.770465199,4.7455616,2.980591297,,-0.009523464,0.006276538,-0.05921166,0.000239685,-0.001773665,-0.053353772,,-2.170072556,-0.520100057,-0.641157806,-0.196730316,-0.05337644,-0.248581707
3.00795008,,1.998213291,-1.77988464,0.3322106,-1.77042896,4.745549679,2.980172634,,-0.006276538,0.008130099,-0.057524282,0.000215716,-0.001773665,-0.059681442,,-1.874153614,-0.309369862,-0.659092307,-0.187580064,-0.050326359,-0.222656012
3.01601024,,1.998129368,-1.779836957,0.331696004,-1.77042896,4.7455616,2.979682207,,-0.003834952,0.010763432,-0.058495801,0.000215716,-0.001773665,-0.063492425,,-2.192490816,-0.605288863,-0.6972031,-0.192155182,-0.042701155,-0.076252058
3.023990016,,1.998117447,-1.779764954,0.331252962,-1.770441357,4.745549679,2.979203463,,-0.010763432,0.006276538,-0.058649201,0.000215716,-0.001486044,-0.059106201,,-1.934682488,-0.365415126,-0.83843714,-0.19825536,-0.041176111,0.03965107
3.031890176,,1.998057365,-1.779681031,0.330726415,-1.770453278,4.745549679,2.978748798,,-0.005381716,0.014368287,-0.058010042,0.000191748,-0.001270328,-0.05632586,,-2.037805796,-0.410251319,-0.912416875,-0.195205271,-0.059476607,0.01372537
3.039890176,,1.998009682,-1.779609028,0.330283374,-1.770465199,4.745585918,2.978282213,,-0.011377024,0.006276538,-0.058189005,0.000191748,-0.00107858,-0.065889269,,-2.24629426,-0.535792708,-0.883273363,-0.187580064,-0.065576769,-0.117428169
3.04801024,,1.997925758,-1.779585187,0.329804748,-1.770405118,4.7455616,2.977683783,,-0.009165536,0.007427024,-0.054852597,0.000191748,-0.000958738,-0.066871978,,-1.853977323,-0.226422861,-0.963978529,-0.19978039,-0.064051732,-0.163179412
3.055910144,,1.997853756,-1.779476945,0.329361707,-1.77047712,4.745573998,2.977241516,,-0.003758253,0.012987704,-0.058099523,0.000191748,-0.000862864,-0.052011538,,-2.118510962,-0.55821085,-0.798084557,-0.224181056,-0.064051732,-0.29738304
3.063880192,,1.997829914,-1.779428784,0.328871101,-1.770405118,4.745549679,2.976811171,,-0.014496119,0.005995309,-0.057089653,0.000191748,-0.00076699,-0.055558868,,-1.986244202,-0.322820723,-0.668059528,-0.219605923,-0.059476607,-0.309583366
3.071930112,,1.997757912,-1.779297177,0.328356534,-1.770441357,4.7455616,2.97635603,,-0.004422978,0.015211976,-0.057754379,0.000167779,-0.000695085,-0.06174273,,-2.055740356,-0.354206055,-0.69496125,-0.236381382,-0.082352221,-0.195205271
3.079970048,,1.99773407,-1.779273335,0.327901512,-1.770512883,4.745537758,2.97582984,,-0.010149839,0.008372978,-0.058022823,0.000167779,-0.000647148,-0.062845275,,-2.210425138,-0.486472875,-0.6972031,-0.236381382,-0.108277924,-0.044226196
3.087990016,,1.997650146,-1.77920181,0.327446491,-1.77042896,4.745490074,2.975327253,,-0.008372978,0.007593205,-0.058010042,0.000167779,-0.000647148,-0.060112875,,-1.81810832,-0.242115542,-0.668059528,-0.248581707,-0.109802961,-0.021350577
3.095890176,,1.997614384,-1.779117409,0.326919913,-1.770441357,4.745429993,2.974848747,,-0.003361975,0.012706474,-0.057907775,0.000167779,-0.00479369,-0.062246066,,-2.288888454,-0.495440125,-0.515616417,-0.253156841,-0.061001647,-0.091502473
3.103960064,,1.997518539,-1.779057328,0.326464891,-1.770465199,4.745465755,2.97433424,,-0.011990617,0.006353237,-0.054277353,0.000167779,-0.00479369,-0.061838605,,-1.81138289,-0.354206055,-0.549243569,-0.260782033,-0.022875618,-0.196730316
3.111870208,,1.997458935,-1.778949563,0.326010257,-1.770453278,4.745490074,2.973903418,,-0.004180098,0.014636734,-0.056808423,0.000167779,-0.003307646,-0.050237872,,-2.08712554,-0.329546154,-0.708412111,-0.265357167,-0.021350577,-0.250106752
3.119980032,,1.997374535,-1.77887756,0.325555593,-1.77047712,4.745478153,2.973448753,,-0.016784307,0.008475244,-0.056322664,0.000143811,-0.002348908,-0.051939633,,-2.10730195,-0.464054793,-0.824986279,-0.294332951,-0.022875618,-0.260782033
3.127960064,,1.997350693,-1.778769795,0.32507661,-1.770441357,4.745478153,2.973006248,,-0.006851781,0.007196927,-0.057524282,0.000143811,-0.001821602,-0.059202075,,-1.910022616,-0.293677181,-0.869822502,-0.306533277,-0.048801318,-0.183004946
3.135940096,,1.99727869,-1.778685395,0.324645907,-1.77047712,4.745453835,2.972503901,,-0.003349192,0.012821523,-0.055453409,0.000143811,-0.001486044,-0.059178106,,-2.315790415,-0.430427611,-0.914658725,-0.306533277,-0.051851399,-0.064051732
3.143980032,,1.997206688,-1.778661553,0.324178904,-1.770453278,4.745465755,2.972013235,,-0.014751783,0.007567639,-0.056616675,0.000143811,-0.001246359,-0.056996975,,-1.750854015,-0.450603932,-0.919142306,-0.314158469,-0.048801318,-0.009150247
3.15195008,,1.997146606,-1.77857763,0.323735863,-1.77047712,4.745453835,2.971594572,,-0.003579288,0.012322979,-0.057498716,0.000143811,-0.00107858,-0.057140786,,-2.140928984,-0.360931486,-0.802568197,-0.330933928,-0.062526688,-0.05337644
3.159970048,,1.997075081,-1.778446023,0.323257238,-1.770441357,4.745478153,2.971116066,,-0.015927834,0.010840131,-0.056859557,9.59E-05,-0.000958738,-0.063780047,,-1.977276921,-0.468538404,-0.786875486,-0.353809565,-0.057951566,-0.137253702
3.167890176,,1.996991158,-1.778337781,0.322790235,-1.77047712,4.745465755,2.970565557,,-0.005202752,0.011734953,-0.056335445,9.59E-05,-0.000838896,-0.056709353,,-2.035563946,-0.356447876,-0.851888001,-0.361434758,-0.062526688,-0.2257061
3.176020224,,1.996931076,-1.778301541,0.322383523,-1.770489041,4.745453835,2.970218658,,-0.015058578,0.008820389,-0.05703852,9.59E-05,-0.00076699,-0.04501275,,-2.230601549,-0.508890986,-0.766699195,-0.372110039,-0.080827184,-0.324833781
3.183880192,,1.996823311,-1.778193776,0.32190454,-1.770465199,4.745453835,2.969775915,,-0.010827348,0.011543206,-0.057652112,9.59E-05,-0.000695085,-0.053138055,,-1.889846325,-0.322820723,-0.733072042,-0.385835409,-0.07930214,-0.312633455
3.19195008,,1.996787071,-1.778121773,0.321425915,-1.770512883,4.745501995,2.969321489,,-0.003425891,0.01256586,-0.057140786,9.59E-05,-0.000647148,-0.060376529,,-2.210425138,-0.504407346,-0.685994029,-0.398035735,-0.094552554,-0.187580064
3.199940096,,1.996739388,-1.778049771,0.321054786,-1.77047712,4.745465755,2.968831062,,-0.014738999,0.008488027,-0.054775897,9.59E-05,-0.000599211,-0.059154138,,-1.930198908,-0.354206055,-0.816019058,-0.422436416,-0.102177761,-0.048801318
3.207890176,,1.996667385,-1.777929608,0.32054019,-1.770537202,4.745406151,2.968340635,,-0.004422978,0.01462395,-0.05776716,9.59E-05,-0.000551274,-0.057380471,,-2.125236511,-0.475263834,-0.829469919,-0.437686831,-0.122003295,-0.012200329
3.21595008,,1.996595383,-1.777858082,0.320085555,-1.770561043,4.745346546,2.967909813,,-0.018637868,0.010584468,-0.058086742,-0.001150486,-0.000527306,-0.056901101,,-2.044531107,-0.428185821,-0.863097072,-0.425486475,-0.12657842,-0.071676932
3.223870208,,1.996511459,-1.777725999,0.319678098,-1.770561043,4.745322704,2.967442751,,-0.005381716,0.013537381,-0.056539975,-0.001150486,-0.00726244,-0.061191455,,-2.033322096,-0.452845722,-0.990880251,-0.423961461,-0.070151895,-0.12657842
3.231960064,,1.996427536,-1.777653996,0.319175482,-1.770608727,4.745322704,2.966940641,,-0.015633821,0.010341587,-0.058099523,-0.001150486,-0.005177185,-0.053569488,,-2.318032026,-0.529067278,-0.955011308,-0.443786979,-0.041176111,-0.21350576
3.239890176,,1.996379375,-1.777570073,0.318756431,-1.770561043,4.745298386,2.966521978,,-0.010699516,0.014202106,-0.056987386,-0.001150486,-0.003139867,-0.051292486,,-1.95934248,-0.448362112,-0.894482434,-0.448362112,-0.036600988,-0.286707729
3.247960064,,1.996307373,-1.77744991,0.318301767,-1.770608727,4.745334625,2.966126919,,-0.004563593,0.011977834,-0.058367971,-0.001150486,-0.002253034,-0.05788381,,-2.351659298,-0.585112572,-0.851888001,-0.446837068,-0.045751236,-0.218080893
3.25595008,,1.996199608,-1.777378384,0.317858726,-1.770584885,4.745322704,2.965660095,,-0.015071361,0.012706474,-0.058483019,-0.001581918,-0.001773665,-0.060136843,,-1.927957058,-0.457329363,-0.914658725,-0.44073689,-0.050326359,-0.082352221
3.263870208,,1.996103764,-1.77728254,0.317392081,-1.770633046,4.745334625,2.965157509,,-0.005381716,0.014355504,-0.058061175,-0.001581918,-0.001438107,-0.055343151,,-2.163347244,-0.567178071,-0.907933295,-0.469712675,-0.05337644,0.041176111
3.27195008,,1.99601984,-1.777150456,0.316925466,-1.77068073,4.745274544,2.96475172,,-0.017564081,0.009612947,-0.059365056,-0.001581918,-0.001222391,-0.052227255,,-2.154379845,-0.464054793,-0.795842767,-0.469712675,-0.082352221,0.001525041
3.279910144,,1.995959759,-1.777054612,0.316470444,-1.77069265,4.745310307,2.96432066,,-0.008999354,0.01518641,-0.057946127,-0.003115899,-0.001054612,-0.058602862,,-2.140928984,-0.522341847,-0.746522903,-0.434636742,-0.073201977,-0.115903132
3.28795008,,1.995900154,-1.776958768,0.316039383,-1.770704571,4.745322704,2.96379447,,-0.011083012,0.011185277,-0.059160527,-0.003115899,-0.00093477,-0.062941149,,-2.423397303,-0.497681946,-0.746522903,-0.452937245,-0.070151895,-0.175379738
3.295990016,,1.995792389,-1.776898686,0.315596342,-1.770668809,4.745310307,2.96337533,,-0.012412461,0.012629775,-0.057166353,-0.002924151,-0.000838896,-0.049830411,,-2.028838634,-0.372140557,-0.827228069,-0.443786979,-0.068626851,-0.271457344
3.303890176,,1.99571991,-1.776754681,0.315117717,-1.77069265,4.745310307,2.962944746,,-0.006340454,0.013026054,-0.059262794,-0.002157161,-0.000743022,-0.05536712,,-2.38304472,-0.464054793,-0.831711709,-0.459037393,-0.07930214,-0.280607581
3.311890176,,1.995672226,-1.776658837,0.314674675,-1.77068073,4.745310307,2.962513924,,-0.014381071,0.010993529,-0.058700334,-0.00170176,-0.000695085,-0.058890484,,-2.120752811,-0.311611652,-0.829469919,-0.471237719,-0.074727021,-0.208930641
3.319880192,,1.995528698,-1.776562993,0.314231992,-1.770752255,4.745298386,2.961999416,,-0.008347413,0.01542929,-0.058853731,-0.00139017,-0.00062318,-0.062102254,,-2.268712282,-0.394558668,-0.782391906,-0.494113356,-0.117428169,-0.054901481
3.32790016,,1.995456696,-1.776467148,0.313753396,-1.770776097,4.745286465,2.961556673,,-0.012706474,0.01147929,-0.058431886,-0.001318265,-0.000575243,-0.05601427,,-2.309064865,-0.360931486,-0.69271946,-0.489538223,-0.114378087,0.010675289
3.335910144,,1.995384693,-1.776322667,0.313274384,-1.770824258,4.745262623,2.96113801,,-0.009651296,0.014649517,-0.058214571,-0.008556737,-0.000551274,-0.055079501,,-2.255261421,-0.367656916,-0.672543168,-0.379735261,-0.128103465,-0.033550907
3.343920128,,1.995276928,-1.776226823,0.312819749,-1.770836178,4.745262623,2.960671663,,-0.012962138,0.014777348,-0.059518456,-0.004625911,-0.000527306,-0.064091638,,-2.344933748,-0.363173306,-0.730830252,-0.391935587,-0.115903132,-0.11285305
