Junhao2000/UR5-final-year-project/SDH/Verify_Dyn_Equations/circle_movement_75mms.csv
Time,Position->,Joint 1,Joint 2,Joint 3,Joint 4,Joint 5,Joint 6,Velocity->,Joint 1,Joint 2,Joint 3,Joint 4,Joint 5,Joint 6,Current->,Joint 1,Joint 2,Joint 3,Joint 4,Joint 5,Joint 6
0,,1.951177597,-1.720434968,0.508461833,-1.785959069,4.748410225,3.156588793,,0,-0.003298059,0,0,0,0,,-1.091761708,-2.055740356,-0.612014294,-0.070151895,-0.094552554,-0.301958144
0.007959808,,1.95121336,-1.720471207,0.508425891,-1.785959069,4.748446465,3.156504869,,0.001316667,-0.006276538,0,0,0,-0.012966932,,-1.098487139,-1.748612285,-0.650125086,-0.08540231,-0.096077591,-0.215030804
0.015929856,,1.951225281,-1.72050697,0.508365989,-1.785935227,4.748422146,3.156468868,,0.007759386,-0.003259709,-0.007887218,0,0,-0.007190535,,-1.185917735,-2.075916529,-0.614256084,-0.082352221,-0.097602636,-0.19825536
0.023859968,,1.951309204,-1.720567052,0.508318424,-1.785947148,4.748434067,3.156409025,,0.004461328,-0.013141102,-0.00938285,0,0,-0.00417051,,-1.082794547,-1.896571755,-0.685994029,-0.050326359,-0.083877265,-0.34160924
0.031909888,,1.951357365,-1.720674817,0.508234501,-1.78597099,4.748398304,3.156241655,,0.01224628,-0.008666991,-0.011645471,0,0,-0.026077675,,-0.923625946,-2.084883928,-0.681510389,-0.032025866,-0.111328006,-0.181479901
0.039869952,,1.951429367,-1.720771138,0.508126676,-1.785935227,4.748410225,3.156134129,,0.009766345,-0.019059712,-0.015224759,0,0,-0.013709954,,-1.1164217,-2.125236511,-0.656850517,-0.022875618,-0.11285305,-0.187580064
0.047929856,,1.951549053,-1.720902745,0.507983208,-1.785935227,4.748410225,3.155990362,,0.018791266,-0.01574887,-0.016592558,0,0,-0.028905952,,-0.867580712,-1.992969632,-0.661334097,0.01372537,-0.109802961,-0.147928998
0.055859968,,1.951632977,-1.72104675,0.507863402,-1.78597099,4.748434067,3.155870914,,0.014278805,-0.020133499,-0.021462949,0,0,-0.018671423,,-1.185917735,-2.071433067,-0.6972031,0.03965107,-0.111328006,-0.083877265
0.063959808,,1.951741219,-1.721202676,0.507683992,-1.785947148,4.748422146,3.155667543,,0.017333983,-0.019622171,-0.02219159,0,0,-0.033076461,,-0.928109586,-1.95485878,-0.762215614,0.064051732,-0.111328006,-0.114378087
0.071879936,,1.951909065,-1.721406762,0.507492602,-1.78597099,4.748410225,3.155452013,,0.019813919,-0.023648871,-0.026652917,0,0,-0.02090049,,-1.062618256,-1.96158421,-0.793600917,0.12657842,-0.10675288,-0.015250412
0.079929856,,1.952076912,-1.721586529,0.507301271,-1.785935227,4.748410225,3.155212879,,0.021616347,-0.024351945,-0.030462302,0,0,-0.035449337,,-0.98639667,-1.925715208,-0.764457405,0.172329649,-0.102177761,0.004575124
0.087949824,,1.952244282,-1.721778218,0.507061958,-1.785791222,4.748410225,3.155045033,,0.022511169,-0.026346121,-0.030833015,0.00774181,0,-0.023105586,,-1.006572962,-1.979518771,-0.863097072,0.062526688,-0.109802961,-0.05337644
0.095969792,,1.952459812,-1.722006623,0.506798625,-1.785815541,4.748434067,3.154781818,,0.025080586,-0.027816186,-0.033108421,0.008628642,0,-0.034083135,,-1.055892825,-1.936924338,-0.921384156,0.021350577,-0.09912768,-0.006100165
0.103929856,,1.952663898,-1.722245995,0.506535351,-1.785815541,4.748410225,3.154495001,,0.023878967,-0.030193856,-0.03713512,0.00417051,0,-0.040290967,,-0.932593167,-1.901055336,-0.990880251,0.086927347,-0.12047825,-0.135728672
0.111869952,,1.952879906,-1.722497765,0.506236136,-1.785779301,4.748422146,3.154183626,,0.029260684,-0.033095635,-0.038400654,0.002756372,0,-0.03959588,,-0.997605681,-1.903297186,-1.042441964,0.137253702,-0.125053376,-0.135728672
0.11993984,,1.953059673,-1.722797696,0.505948901,-1.785647694,4.748422146,3.153824806,,0.027304858,-0.034770232,-0.041225735,0.019750003,0,-0.041321609,,-0.872064292,-1.851735473,-1.053650975,-0.007625206,-0.128103465,-0.19978039
0.12788992,,1.953335285,-1.723085705,0.505589724,-1.785623852,4.748410225,3.153561592,,0.031740621,-0.035473306,-0.044383179,0.007621967,0,-0.039476037,,-0.874306142,-1.838284612,-0.97967124,-0.036600988,-0.12657842,-0.276032448
0.135859968,,1.953551292,-1.723361317,0.505278528,-1.785623852,4.748398304,3.153238297,,0.031408258,-0.037812628,-0.047259394,0.003906858,0,-0.043167181,,-0.863097072,-1.786723018,-0.950527668,0.082352221,-0.143353865,-0.265357167
0.14388992,,1.953803062,-1.723697488,0.504823864,-1.785456483,4.748398304,3.152843714,,0.033606961,-0.03984515,-0.051771853,0.024519725,0,-0.051316451,,-0.865338862,-1.771030307,-0.921384156,-0.019825535,-0.164704442,-0.205880553
0.151929856,,1.954125881,-1.724008862,0.504428744,-1.785408322,4.748314857,3.15240097,,0.035818454,-0.041391917,-0.053574279,0.007190535,-0.007166567,-0.055582836,,-0.84292078,-1.741886854,-0.925867736,-0.042701155,-0.181479901,-0.080827184
0.159899904,,1.954389572,-1.724332635,0.504034042,-1.78538448,4.748279095,3.151970387,,0.037940457,-0.04410195,-0.056169264,0.004601942,-0.007166567,-0.052682653,,-0.934835017,-1.641005278,-0.950527668,0.064051732,-0.054901481,0.045751236
0.167899904,,1.954689503,-1.724716489,0.503555417,-1.785204713,4.74835062,3.151503801,,0.037109554,-0.046275087,-0.058955997,0.018000307,0.001054612,-0.052970275,,-0.878789723,-1.564783812,-0.878789723,-0.160129324,-0.044226196,0.022875618
0.175859968,,1.955001354,-1.725100342,0.503088415,-1.785204713,4.748314857,3.151061058,,0.040190298,-0.047655672,-0.061410364,0.007190535,0.001054612,-0.061838605,,-0.896724224,-1.654456139,-0.802568197,-0.070151895,-0.131153539,-0.11285305
0.183969792,,1.955300808,-1.725507561,0.502561867,-1.785108868,4.748314857,3.150498152,,0.042887546,-0.048639975,-0.064772338,0.026485138,-0.00170176,-0.067782782,,-0.948285878,-1.67463243,-0.831711709,0.051851399,-0.09912768,-0.157079235
0.191879936,,1.955636501,-1.725891892,0.502071261,-1.784893338,4.748279095,3.150007486,,0.042708583,-0.051401142,-0.066766515,0.016178705,-0.00170176,-0.059226044,,-0.916900516,-1.692566991,-0.854129791,-0.268407255,-0.08540231,-0.276032448
0.199810048,,1.956031799,-1.726299588,0.501545072,-1.784881417,4.748338699,3.149492979,,0.046364572,-0.051452272,-0.069399849,0.005392902,-0.00170176,-0.066608325,,-1.002089262,-1.779997587,-0.905691445,-0.083877265,-0.102177761,-0.268407255
0.207859968,,1.956403732,-1.726719205,0.500946581,-1.784749333,4.748314857,3.148942709,,0.046006642,-0.054545801,-0.072301626,0.028354676,-0.00170176,-0.075189032,,-1.051409125,-1.81362474,-0.892240584,-0.169279575,-0.09912768,-0.134203628
0.215919872,,1.956775188,-1.727186982,0.500372112,-1.784725491,4.748302937,3.148308754,,0.050672501,-0.055811334,-0.074934959,0.012942963,-0.001629855,-0.072336785,,-1.060376406,-1.809141159,-0.793600917,-0.22723113,-0.100652717,0.021350577
0.224,,1.957170963,-1.72763044,0.499785632,-1.784689728,4.748302937,3.147734165,,0.047502272,-0.058687549,-0.077018619,0.004961469,-0.001342233,-0.075428717,,-1.076069117,-1.856219172,-0.789117336,-0.088452391,-0.094552554,-0.057951566
0.231859968,,1.957530499,-1.728146378,0.49915123,-1.784522359,4.748302937,3.147088289,,0.051171042,-0.060285445,-0.081863441,0.032045819,-0.001150486,-0.086430237,,-1.069343686,-1.889846325,-0.892240584,-0.237906426,-0.11285305,-0.155554205
0.239959808,,1.957925797,-1.728614155,0.498468876,-1.784450356,4.748291016,3.146430254,,0.052359879,-0.062126223,-0.08490584,0.00680704,-0.001006675,-0.074853472,,-1.051409125,-1.81810832,-0.898966014,-0.17080462,-0.102177761,-0.247056678
0.247899904,,1.958357811,-1.729105775,0.497762918,-1.784390275,4.748279095,3.14578414,,0.053842727,-0.063903086,-0.087475255,0.014309165,-0.000886833,-0.087772466,,-1.040200114,-1.793448448,-0.748764753,-0.073201977,-0.123528339,-0.204355523
0.255949824,,1.958788872,-1.729657475,0.497092545,-1.784258668,4.748302937,3.14505434,,0.052845638,-0.066293538,-0.089737877,0.010785803,-0.000814927,-0.088299774,,-0.892240584,-1.694808722,-0.84067893,-0.21198073,-0.129628494,0.030500824
0.26388992,,1.959172726,-1.730184857,0.496326685,-1.784222428,4.748302937,3.144396305,,0.054123957,-0.06749516,-0.090977848,0.006255765,-0.000719053,-0.088467553,,-0.889998794,-1.748612285,-0.910175085,-0.044226196,-0.132678583,-0.070151895
0.271929856,,1.959603786,-1.730725114,0.49563235,-1.784079377,4.748291016,3.143558502,,0.05647606,-0.070563115,-0.093981892,0.020469056,-0.000671117,-0.104094982,,-0.84516257,-1.779997587,-0.885515153,-0.149454042,-0.150979072,-0.21350576
0.279949824,,1.960059643,-1.731288258,0.494842887,-1.784055058,4.748254776,3.142828703,,0.058367971,-0.070933826,-0.097510047,0.007621967,-0.00062318,-0.087580718,,-0.851888001,-1.748612285,-0.6972031,-0.083877265,-0.175379738,-0.303483188
0.287949824,,1.960551262,-1.731912438,0.494077027,-1.78391153,4.748182774,3.142086983,,0.059838034,-0.073707782,-0.098954543,0.024040356,-0.00062318,-0.105221502,,-0.907933295,-1.764304876,-0.851888001,0.02745074,-0.173854694,-0.187580064
0.295980032,,1.960982323,-1.732487981,0.493274838,-1.783767525,4.74813509,3.141261339,,0.06222849,-0.075075582,-0.102469921,0.016178705,-0.004889564,-0.10380736,,-0.865338862,-1.865186334,-0.867580712,-0.11285305,-0.132678583,-0.015250412
0.303859968,,1.961521626,-1.733099286,0.492413104,-1.783755604,4.748219013,3.140411854,,0.063903086,-0.076647907,-0.105243869,0.005464807,-0.004889564,-0.111069798,,-1.006572962,-1.999695063,-0.901207864,0.111328006,-0.100652717,-0.167754531
0.311949824,,1.961977482,-1.733687226,0.49155134,-1.783456628,4.748207092,3.139562607,,0.063762471,-0.076903574,-0.110178173,0.022889871,-0.00340352,-0.096353173,,-1.091761708,-2.08936739,-0.863097072,-0.134203628,-0.105227843,-0.282132626
0.319859968,,1.962540627,-1.734310929,0.49061808,-1.783432786,4.748207092,3.138712883,,0.067252278,-0.080176063,-0.109014906,0.007621967,-0.002396845,-0.116606511,,-1.154532433,-1.992969632,-0.997605681,0.115903132,-0.12047825,-0.19825536
0.327959808,,1.963044167,-1.734969918,0.489708394,-1.783157651,4.748170853,3.137803793,,0.066664249,-0.083218463,-0.115010209,0.032381378,-0.001845571,-0.111597106,,-1.145565152,-1.840526462,-0.726346612,-0.022875618,-0.140303791,-0.018300494
0.335879936,,1.963583946,-1.735629861,0.488786727,-1.783025567,4.748195171,3.136858225,,0.066792078,-0.082553737,-0.116160698,0.014620755,0,-0.126217857,,-1.100728989,-1.81810832,-0.757731974,0.152504116,-0.147928998,-0.25620693
0.343949824,,1.964122772,-1.736337487,0.487829506,-1.782822434,4.748170853,3.135912895,,0.070550337,-0.085723959,-0.118589498,0.02677276,0,-0.110902019,,-1.111938,-1.694808722,-0.730830252,0.045751236,-0.195205271,-0.361434758
0.351849984,,1.964734554,-1.737033192,0.486824334,-1.782702271,4.748111248,3.134956121,,0.070767649,-0.086260855,-0.122590631,0.014429008,-0.004530037,-0.130723923,,-0.997605681,-1.580476403,-0.892240584,0.18452999,-0.161654368,-0.12657842
0.359909888,,1.965298176,-1.737777058,0.485747248,-1.782486741,4.748147011,3.133879423,,0.070831567,-0.086618781,-0.125390142,0.024040356,-0.004530037,-0.125211194,,-0.995363891,-1.549091101,-1.033474684,0.080827184,-0.123528339,-0.102177761
0.367849984,,1.965861321,-1.738436047,0.484693736,-1.782414738,4.748123169,3.132837772,,0.071982048,-0.088216677,-0.128688201,0.011624699,0,-0.126697227,,-0.97294575,-1.654456139,-0.943802238,0.152504116,-0.155554205,-0.21198073
0.375919872,,1.966472626,-1.739131753,0.48361668,-1.782223527,4.748063087,3.131784678,,0.072966352,-0.088255033,-0.130580112,0.030703586,0,-0.136979699,,-0.997605681,-1.791206598,-0.860855222,0.07930214,-0.202830479,-0.176904783
0.383879936,,1.967083931,-1.739875619,0.482551575,-1.782067601,4.748039722,3.130636215,,0.073758908,-0.090108588,-0.132165238,0.011480888,-0.003834952,-0.126721203,,-1.049167395,-1.869670033,-0.883273363,0.065576769,-0.175379738,0.028975783
0.391919872,,1.967694759,-1.740547005,0.48145014,-1.781876389,4.748051643,3.129547358,,0.075139493,-0.090798885,-0.13564226,0.033603769,-0.003834952,-0.143379271,,-1.11866343,-1.885362625,-1.008814693,-0.01372537,-0.150979072,-0.236381382
0.39993984,,1.968306541,-1.741266553,0.48032549,-1.781720463,4.748063087,3.128362894,,0.076417811,-0.092345648,-0.138480112,0.019006981,-0.003499394,-0.140694812,,-1.156774282,-1.797932029,-1.201610446,-0.038126029,-0.155554205,-0.265357167
0.407849984,,1.968917847,-1.742021863,0.479248405,-1.781528775,4.748075008,3.127226353,,0.075356811,-0.094199203,-0.14143303,0.031734228,-0.002444782,-0.141485766,,-1.143323421,-1.753095865,-1.138839722,-0.083877265,-0.172329649,0.038126029
0.415919872,,1.969517231,-1.742753808,0.478099436,-1.781277482,4.748063087,3.126018047,,0.074640952,-0.095912151,-0.145229638,0.020493025,-0.001869539,-0.149898693,,-1.087278128,-1.567025542,-1.049167395,-0.154029161,-0.195205271,-0.231806263
0.423949824,,1.970152378,-1.743557278,0.476914853,-1.781109635,4.748039722,3.124857426,,0.077363767,-0.095554225,-0.150163934,0.030943271,-0.001510012,-0.152798876,,-1.125388861,-1.697050571,-0.876547933,-0.166229486,-0.21198073,-0.208930641
0.43188992,,1.970751762,-1.744324986,0.475693971,-1.780894581,4.747991562,3.123565197,,0.073260367,-0.096870892,-0.153116852,0.020013656,-0.001270328,-0.146830723,,-1.040200114,-1.759821296,-0.98639667,-0.208930641,-0.208930641,-0.032025866
0.439869952,,1.971339226,-1.745092217,0.47448507,-1.780762498,4.747991562,3.122297049,,0.074871048,-0.097458914,-0.156862319,0.021691447,-0.001246359,-0.157496691,,-0.997605681,-1.901055336,-1.185917735,-0.173854694,-0.244006589,-0.272982359
0.447919872,,1.971938133,-1.745871846,0.473276168,-1.780570809,4.74793148,3.121028662,,0.076954708,-0.098673314,-0.162371874,0.018287929,-0.00510528,-0.167108044,,-1.028990984,-1.948133349,-1.154532433,-0.19825536,-0.201305434,-0.21198073
0.455909888,,1.972549915,-1.746711556,0.471995711,-1.78041536,4.74793148,3.11967659,,0.077363767,-0.099440306,-0.167191133,0.017592844,-0.00510528,-0.167443603,,-1.055892825,-1.9458915,-1.008814693,-0.114378087,-0.195205271,-0.152504116
0.463919872,,1.973185062,-1.747515027,0.470666975,-1.780283753,4.747907639,3.118336678,,0.076277196,-0.100360692,-0.17158854,0.021595575,-0.003595268,-0.159342259,,-1.004331112,-1.748612285,-1.1164217,-0.160129324,-0.187580064,-0.248581707
0.471859968,,1.973772526,-1.748342816,0.469291031,-1.780175511,4.747919559,3.117008686,,0.078808263,-0.101958595,-0.172598407,0.010306434,-0.00246875,-0.169265196,,-1.017781973,-1.643247128,-1.176950574,-0.050326359,-0.216555849,-0.015250412
0.479879936,,1.974395752,-1.749121968,0.467938691,-1.779972378,4.747919559,3.115584612,,0.078130759,-0.101805195,-0.177980125,0.031734228,-0.001893508,-0.17724669,,-1.058134556,-1.616345406,-1.161257863,-0.077777103,-0.230281219,-0.286707729
0.487899904,,1.975090981,-1.749973599,0.466514438,-1.779828374,4.747859955,3.114244699,,0.079396293,-0.100462958,-0.181431577,0.020996362,-0.001581918,-0.182040378,,-1.071585417,-1.562541962,-1.042441964,0.045751236,-0.2409565,-0.2409565
0.495849984,,1.975690365,-1.750765149,0.465102166,-1.779540841,4.747823715,3.112784863,,0.079639174,-0.100462958,-0.185598895,0.034610443,-0.001581918,-0.182471812,,-1.051409125,-1.605136395,-1.087278128,0.032025866,-0.254681885,-0.141828835
0.503830016,,1.976349354,-1.751544778,0.463641971,-1.779301945,4.747787952,3.111397028,,0.075906485,-0.097880758,-0.184077695,0.029217541,-0.006016081,-0.175401121,,-1.060376406,-1.766546726,-0.751006544,0.122003295,-0.18452999,-0.263832122
0.51188992,,1.976924896,-1.752312009,0.462133825,-1.779062573,4.747811794,3.109901667,,0.078130759,-0.096359558,-0.185931265,0.024687504,-0.004458132,-0.175233349,,-1.12090528,-1.829317451,-0.948285878,0.082352221,-0.173854694,0.05337644
0.519849984,,1.97756052,-1.753115479,0.460638046,-1.778906647,4.747799873,3.108477354,,0.076392248,-0.095554225,-0.186007962,0.020061594,-0.002876214,-0.181728795,,-1.087278128,-1.739645004,-1.022265553,0.12657842,-0.202830479,-0.231806263
0.527949824,,1.97818327,-1.753871266,0.45914188,-1.778739278,4.747787952,3.107017517,,0.075932048,-0.094160855,-0.184767991,0.021427795,-0.002109224,-0.188799486,,-0.990880251,-1.735161424,-1.020023823,0.059476607,-0.247056678,-0.111328006
0.535919872,,1.978770733,-1.754602734,0.457645714,-1.77860767,4.747740269,3.105558157,,0.076673478,-0.093981892,-0.183988214,0.022266692,-0.001677792,-0.191579834,,-1.013298392,-1.681357861,-0.869822502,0.082352221,-0.259256989,-0.231806263
0.543929856,,1.979358673,-1.755382363,0.456161559,-1.778367821,4.747716427,3.104062319,,0.074295804,-0.093560047,-0.183540806,0.023752734,-0.001605886,-0.18690598,,-0.988638461,-1.569267392,-0.952769458,0,-0.257731974,-0.205880553
0.551869952,,1.979969502,-1.75613815,0.454617828,-1.778199975,4.747644424,3.102602482,,0.074346937,-0.092460692,-0.182722688,0.025790052,-0.006878946,-0.186019152,,-1.062618256,-1.605136395,-1.159016013,-0.0259257,-0.205880553,-0.154029161
0.559919872,,1.980545044,-1.756845776,0.453109711,-1.777984921,4.747668266,3.10108304,,0.073209234,-0.091028981,-0.184358925,0.02677276,-0.004961469,-0.176815256,,-1.035716534,-1.690325141,-0.925867736,-0.082352221,-0.195205271,-0.279082537
0.567849984,,1.981156349,-1.757577244,0.451589942,-1.777781312,4.747656345,3.099611521,,0.072403893,-0.089840144,-0.183579162,0.022362564,-0.003067962,-0.188799486,,-1.111938,-1.712743282,-0.860855222,-0.144878909,-0.208930641,-0.088452391
0.575909888,,1.981707573,-1.758333031,0.450117767,-1.777601544,4.747644424,3.098043919,,0.070563115,-0.088024929,-0.181201488,0.02382464,-0.002229066,-0.179595605,,-1.170225143,-1.824833751,-1.051409125,-0.108277924,-0.265357167,-0.253156841
0.583759872,,1.982223034,-1.759016339,0.448669553,-1.777458016,4.747608662,3.096572399,,0.069502115,-0.085647263,-0.182914436,0.022027006,-0.001845571,-0.188919336,,-1.215061307,-1.838284612,-1.127630711,-0.150979072,-0.253156841,-0.083877265
0.59188992,,1.982798576,-1.759723965,0.447149783,-1.777290169,4.747572422,3.09506464,,0.067277841,-0.086810529,-0.183617502,0.017281253,-0.007166567,-0.189662352,,-1.163499713,-1.723952293,-1.020023823,-0.064051732,-0.25620693,-0.321783692
0.599859968,,1.98331356,-1.760383908,0.445689589,-1.777098958,4.74754858,3.093652725,,0.066319101,-0.083691441,-0.183374628,0.022050975,-0.007166567,-0.18573153,,-1.136597991,-1.658939838,-0.9751876,-0.109802961,-0.187580064,-0.291282862
0.607849984,,1.98385334,-1.761055295,0.444265336,-1.776990716,4.747524738,3.092121601,,0.064810693,-0.084662959,-0.184192747,0.015795209,-0.003810984,-0.186138988,,-1.105212569,-1.567025542,-1.141081572,0.015250412,-0.224181056,-0.12657842
0.61584,,1.984344482,-1.761726681,0.442865074,-1.776763264,4.747536659,3.090649605,,0.061844993,-0.082183026,-0.184550673,0.025909895,-0.002588593,-0.18079403,,-1.002089262,-1.607378125,-1.212819457,-0.030500824,-0.231806263,-0.272982359
0.623959808,,1.98486042,-1.762374703,0.441404849,-1.776619736,4.747536659,3.089178324,,0.060643375,-0.078974448,-0.186110228,0.018120149,-0.001941444,-0.181441173,,-0.939318597,-1.522189379,-1.129872561,0.094552554,-0.244006589,0.041176111
0.631879936,,1.985315323,-1.763034169,0.439932674,-1.776356045,4.747488499,3.087682486,,0.058431886,-0.079549685,-0.187605858,0.031662323,-0.001821602,-0.18525216,,-0.928109586,-1.461660504,-1.132114291,0.050326359,-0.274507403,-0.236381382
0.639899904,,1.985771179,-1.763669793,0.438436508,-1.776224438,4.747369289,3.086210966,,0.058738682,-0.076699041,-0.18832171,0.01749697,-0.0080534,-0.193569213,,-0.896724224,-1.486320376,-1.085036278,0.137253702,-0.19825536,-0.088452391
0.647830016,,1.986262798,-1.764233891,0.436976314,-1.776020829,4.747428894,3.084668159,,0.05769046,-0.075433508,-0.189012006,0.030511837,-0.00510528,-0.19431223,,-0.925867736,-1.661181569,-1.132114291,0.117428169,-0.21350576,-0.236381382
0.655919872,,1.986718178,-1.764832799,0.435444564,-1.775889222,4.74738121,3.083220243,,0.057971694,-0.074027359,-0.190456495,0.013733923,-0.00510528,-0.192922056,,-0.932593167,-1.717226863,-0.941560447,0.166229486,-0.219605923,-0.175379738
0.66393984,,1.987149715,-1.765420739,0.433936447,-1.775685612,4.747428894,3.081904173,,0.058137871,-0.072199367,-0.191785946,0.028402613,-0.003139867,-0.192922056,,-1.064859986,-1.746370435,-0.970703959,0.144878909,-0.237906426,-0.18452999
0.671830016,,1.987617016,-1.76598436,0.432391971,-1.77561361,4.747369289,3.08031249,,0.055632371,-0.071419589,-0.188909739,0.010785803,-0.002253034,-0.184844688,,-1.087278128,-1.68359971,-0.858613431,0.138778746,-0.2699323,-0.320258647
0.679909888,,1.988037109,-1.766559903,0.430860251,-1.775470082,4.747309208,3.078757286,,0.055836901,-0.072455026,-0.191312969,0.022530343,-0.010641992,-0.196133837,,-1.11866343,-1.627554417,-0.970703959,0.25620693,-0.272982359,-0.094552554
0.68793984,,1.988492489,-1.767147843,0.429304153,-1.775326554,4.747249126,3.077237844,,0.053433664,-0.071176708,-0.191785946,0.014381071,-0.00680704,-0.181537047,,-1.013298392,-1.567025542,-1.069343686,0.01372537,-0.152504116,-0.237906426
0.695919872,,1.988887787,-1.767735783,0.427736104,-1.775266472,4.747297287,3.075670481,,0.053472016,-0.070090137,-0.189945176,0.005944176,-0.003691141,-0.192778245,,-1.067101836,-1.472869515,-0.98415482,0.239431471,-0.190630153,-0.042701155
0.703830016,,1.989307404,-1.768263165,0.426192373,-1.775050942,4.747237206,3.074174643,,0.051925249,-0.067444026,-0.188053265,0.021595575,-0.002684467,-0.187648997,,-0.993122101,-1.428033352,-0.804809988,-0.077777103,-0.230281219,-0.247056678
0.711879936,,1.989703178,-1.768802945,0.424660653,-1.775039021,4.74716568,3.07266736,,0.052589975,-0.064670078,-0.187823161,0.006663229,-0.007022756,-0.197787657,,-0.921384156,-1.425791502,-0.941560447,0.173854694,-0.228756174,-0.19978039
0.71984,,1.990098476,-1.769270722,0.423128545,-1.774787728,4.747189522,3.071111679,,0.050634149,-0.066728167,-0.188449547,0.025909895,-0.007022756,-0.19431223,,-0.874306142,-1.578234673,-1.1164217,-0.117428169,-0.172329649,-0.218080893
0.727929856,,1.990530014,-1.769858185,0.421572477,-1.774704281,4.747189522,3.069556713,,0.051350009,-0.064772338,-0.188449547,0.009611349,-0.003906858,-0.192826182,,-0.939318597,-1.652214408,-0.946044028,0.02745074,-0.178429812,-0.21350576
0.735830016,,1.990913391,-1.77033836,0.420004785,-1.774452511,4.74716568,3.06801343,,0.050033342,-0.062011175,-0.187235147,0.032381378,-0.00263653,-0.188008532,,-0.903449655,-1.735161424,-0.865338862,-0.150979072,-0.218080893,-0.140303791
0.743949824,,1.991321087,-1.77082998,0.418508619,-1.774369065,4.747117519,3.066421986,,0.048959553,-0.061039653,-0.185330451,0.014285197,-0.002133192,-0.183574364,,-0.916900516,-1.762063146,-1.190401435,-0.080827184,-0.231806263,-0.2699323
0.751879936,,1.991681099,-1.771321599,0.417048424,-1.774177376,4.747022152,3.06485486,,0.048563275,-0.05928836,-0.186877221,0.03202185,-0.008700548,-0.184269443,,-0.970703959,-1.737403154,-1.136597991,-0.135728672,-0.205880553,0.001525041
0.759810048,,1.992052555,-1.771777455,0.41560021,-1.774021451,4.747022152,3.063359022,,0.04797525,-0.058572501,-0.186787724,0.014381071,-0.004530037,-0.183502465,,-1.028990984,-1.701534152,-1.058134556,-0.195205271,-0.117428169,-0.21198073
0.767859968,,1.992447853,-1.772208993,0.414127648,-1.773901765,4.747069836,3.061791658,,0.046786416,-0.057882208,-0.188155532,0.028810078,-0.004530037,-0.189422667,,-1.143323421,-1.645488977,-1.053650975,-0.096077591,-0.186055019,-0.007625206
0.775849984,,1.992807388,-1.772689168,0.412643462,-1.773710076,4.746985912,3.06029582,,0.044792239,-0.055363923,-0.190009087,0.015052187,-0.0040267,-0.197140515,,-1.1164217,-1.569267392,-1.163499713,-0.230281219,-0.178429812,-0.315683514
0.783830016,,1.9931674,-1.773132626,0.411219209,-1.773662392,4.746973991,3.058740854,,0.045904376,-0.054686416,-0.192616865,0.00680704,-0.002684467,-0.195127159,,-1.235237598,-1.515463948,-1.134356141,-0.083877265,-0.207405597,-0.263832122
0.791909888,,1.993502617,-1.773576562,0.409687489,-1.773482625,4.746938229,3.057209253,,0.043066513,-0.054187872,-0.193166539,0.029936595,-0.009060075,-0.194527954,,-1.268864751,-1.416824222,-1.017781973,-0.210455686,-0.236381382,-0.222656012
0.799820032,,1.993826389,-1.773996178,0.408179343,-1.773470704,4.746854305,3.055737734,,0.039742887,-0.052679457,-0.192310065,0.010785803,-0.008077368,-0.189206958,,-1.179192305,-1.318184614,-1.206094027,-0.179954857,-0.102177761,-0.279082537
0.807899904,,1.994174004,-1.774427716,0.406683177,-1.773387257,4.746890068,3.05417037,,0.040343694,-0.049534798,-0.192795828,0.004985438,-0.0040267,-0.18820028,,-1.324910045,-1.306975603,-1.098487139,-0.01372537,-0.123528339,-0.088452391
0.815810048,,1.994413853,-1.77481157,0.405163437,-1.773195092,4.746890068,3.052663088,,0.035332691,-0.048767805,-0.193409413,0.014381071,-0.002684467,-0.179331943,,-1.174708724,-1.309217334,-1.167983294,-0.228756174,-0.17080462,-0.323308736
0.823899904,,1.994725227,-1.775171582,0.40363133,-1.773159329,4.746842384,3.05116725,,0.036585443,-0.046428487,-0.195620909,0.006926882,-0.002564624,-0.192610472,,-1.201610446,-1.354053617,-1.076069117,-0.003050082,-0.154029161,-0.035075948
0.831919872,,1.995013237,-1.77560312,0.402075261,-1.772980038,4.746770859,3.049623966,,0.035792887,-0.045610365,-0.194981739,0.025861958,-0.005057343,-0.187001854,,-1.201610446,-1.416824222,-0.912416875,-0.077777103,-0.175379738,-0.259256989
0.839849984,,1.99530077,-1.775962655,0.400543511,-1.772931878,4.746722698,3.048140049,,0.031804536,-0.042478487,-0.194368154,0.010594055,-0.006950851,-0.195918113,,-1.1164217,-1.434758782,-0.919142306,0.033550907,-0.131153539,-0.01372537
0.84793984,,1.995600224,-1.776250664,0.398963481,-1.772764031,4.746734619,3.046633005,,0.033095635,-0.041430265,-0.196362332,0.029601038,-0.006950851,-0.199010044,,-1.185917735,-1.499771237,-1.020023823,0.047276277,-0.094552554,-0.271457344
0.855899904,,1.995816231,-1.776551072,0.397371441,-1.772596661,4.746758938,3.045101643,,0.029158419,-0.039730102,-0.194074139,0.01176851,-0.003906858,-0.196757019,,-1.109696269,-1.504254937,-1.024507403,0.019825535,-0.11285305,-0.189105108
0.86393984,,1.996068001,-1.776874844,0.395791411,-1.772500817,4.74674654,3.043522358,,0.030679617,-0.037889328,-0.193767339,0.03063168,0,-0.19527097,,-1.145565152,-1.571509242,-0.896724224,0.186055019,-0.164704442,-0.169279575
0.871909888,,1.996295452,-1.777198617,0.39422372,-1.772309128,4.746638775,3.041978836,,0.026959714,-0.037850976,-0.191428021,0.012343752,-0.008221178,-0.190956652,,-1.091761708,-1.629796267,-0.885515153,0.054901481,-0.138778746,-0.221130967
0.879820032,,1.996547222,-1.777509991,0.392584115,-1.772321049,4.746591091,3.040471315,,0.027381558,-0.034821365,-0.190942258,0.007621967,-0.008628642,-0.189326793,,-1.089519978,-1.623070836,-1.107454419,0.166229486,0.036600988,-0.086927347
0.887929856,,1.996703148,-1.777762238,0.391040027,-1.772117917,4.746734619,3.03888011,,0.023290941,-0.035818454,-0.190942258,0.025909895,0.008149274,-0.182280064,,-1.060376406,-1.573750973,-0.925867736,0.070151895,-0.19825536,-0.247056678
0.895820032,,1.996942997,-1.778049771,0.389471978,-1.772105996,4.746519566,3.037324667,,0.025387382,-0.033172335,-0.188909739,0.006471482,-0.018503644,-0.195702404,,-1.044683695,-1.555816531,-0.912416875,0.140303791,0.12657842,-0.077777103
0.903919872,,1.997122765,-1.778313462,0.387916267,-1.771961991,4.746722698,3.035733461,,0.02162913,-0.033287384,-0.188679636,0.011552793,0.025190841,-0.185539782,,-1.087278128,-1.484078527,-1.011056542,0.192155182,-0.254681885,-0.257731974
0.911909888,,1.99727869,-1.778565709,0.386383772,-1.771878068,4.746423721,3.034250021,,0.020197414,-0.02981036,-0.187989354,0.010785803,-0.025909895,-0.19313778,,-1.015540123,-1.470627666,-1.096245408,0.01372537,0.250106752,-0.07930214
0.919919872,,1.997458935,-1.778829877,0.384911954,-1.771889989,4.746734619,3.032730341,,0.020938838,-0.02960583,-0.190175265,0.005177185,0.011672636,-0.192514598,,-1.080552697,-1.434758782,-1.055892825,0.146403953,-0.378210217,-0.301958144
0.927849984,,1.997590065,-1.779069249,0.383415818,-1.771746461,4.746435642,3.03123498,,0.019762786,-0.02827638,-0.186110228,0.018863171,-0.011001519,-0.191987291,,-1.078310847,-1.345086336,-0.999847531,0.09912768,0.231806263,-0.251631796
0.93593984,,1.997781754,-1.779309098,0.381943613,-1.771674458,4.746614933,3.029691458,,0.01949434,-0.026704049,-0.189139828,0.007621967,-0.006135923,-0.191459984,,-1.046925545,-1.365262628,-1.212819457,0.01372537,-0.359909713,-0.167754531
0.943830016,,1.997937679,-1.779476945,0.380495399,-1.771614854,4.746435642,3.028208017,,0.017896444,-0.025783662,-0.187120095,0.005488775,0.003643204,-0.188008532,,-1.136597991,-1.380955338,-1.241963029,0.114378087,0.216555849,-0.263832122
0.951909888,,1.998081684,-1.779681031,0.378998876,-1.771519009,4.746566772,3.026700258,,0.01546764,-0.022907447,-0.190162495,0.020469056,-0.0300085,-0.185348034,,-1.111938,-1.40113163,-1.102970839,-0.021350577,-0.35533461,-0.030500824
0.959909888,,1.998213291,-1.779860799,0.37751469,-1.771483246,4.7464118,3.025168896,,0.014572818,-0.022651784,-0.190418154,0.008628642,0.005057343,-0.183694214,,-1.069343686,-1.39216435,-1.129872561,-0.061001647,0.161654368,-0.244006589
0.96784,,1.998357296,-1.780041043,0.376054496,-1.771470849,4.7464118,3.023674011,,0.015851134,-0.021846443,-0.191837087,0.00417051,-0.046283077,-0.193832859,,-1.188159585,-1.349569917,-1.044683695,0.03965107,-0.183004946,0.001525041
0.975879936,,1.998501301,-1.780220811,0.374522775,-1.771303479,4.746399403,3.022166252,,0.013102753,-0.020427512,-0.193281576,0.027156254,0.031902008,-0.190956652,,-1.129872561,-1.342844486,-1.132114291,-0.042701155,0.018300494,-0.237906426
0.983830016,,1.998561382,-1.780364815,0.37303859,-1.771219556,4.746267796,3.02062273,,0.010967962,-0.01711667,-0.192795828,0.007621967,-0.040674459,-0.196037963,,-1.091761708,-1.349569917,-0.98415482,-0.11285305,0.074727021,-0.074727021
0.991919872,,1.998669147,-1.780496899,0.371506125,-1.771195237,4.7464118,3.019127131,,0.01389531,-0.016375246,-0.194253102,0.004937501,0.025909895,-0.199465454,,-1.156774282,-1.331635475,-1.044683695,-0.004575124,-0.109802961,-0.29738304
0.999849984,,1.99874115,-1.780616585,0.369974375,-1.771064107,4.74619627,3.017584085,,0.009421199,-0.014611167,-0.192310065,0.018503644,-0.025909895,-0.191675708,,-1.134356141,-1.329393625,-0.874306142,-0.179954857,0.161654368,-0.277557492
1.007820032,,1.998836994,-1.780724827,0.368442267,-1.771015946,4.746351719,3.016064405,,0.012706474,-0.013409549,-0.190609902,0.005632586,0.021595575,-0.194623813,,-1.042441964,-1.331635475,-1.020023823,-0.11285305,-0.150979072,-0.157079235
1.015909888,,1.998908997,-1.780832593,0.36692214,-1.771015946,4.746112347,3.014604807,,0.007529289,-0.010763432,-0.19138968,0.004074637,-0.025909895,-0.18266356,,-1.298008323,-1.347328186,-1.064859986,-0.064051732,0.22723113,-0.301958144
1.02388992,,1.998920918,-1.780916516,0.365354091,-1.770848099,4.746387482,3.013061523,,0.005087703,-0.010725083,-0.189242095,0.018192055,0.016825853,-0.187505186,,-1.037958264,-1.340602756,-0.865338862,-0.172329649,-0.242481545,-0.082352221
1.031899904,,1.99899292,-1.780988518,0.363833964,-1.770872418,4.746076584,3.011542082,,0.006327671,-0.009318934,-0.190545991,0.006471482,-0.025166873,-0.177702099,,-1.150048852,-1.338360906,-0.764457405,-0.195205271,0.260782033,-0.22723113
1.039820032,,1.999040604,-1.781036202,0.362278253,-1.77086002,4.746303558,3.010058641,,0.004422978,-0.008232363,-0.190686598,0.003595268,0.012751216,-0.192514598,,-1.25989747,-1.300250173,-1.055892825,-0.122003295,-0.329408884,-0.067101814
1.047909888,,1.999028683,-1.781048123,0.360722184,-1.770800416,4.746064186,3.008574963,,0.002275405,-0.004180098,-0.186774954,0.00309193,-0.01330249,-0.189206958,,-1.174708724,-1.271106601,-1.026749253,-0.11285305,0.25620693,-0.2409565
1.05584,,1.998968601,-1.781108205,0.359166116,-1.770752255,4.746208191,3.007055521,,0.001533981,-0.004180098,-0.18713288,0.009251822,-0.038709048,-0.192706347,,-1.170225143,-1.239721179,-0.910175085,-0.218080893,-0.291282862,-0.134203628
1.063899904,,1.999052525,-1.781108205,0.357598037,-1.770716492,4.746076584,3.005536318,,0.001150486,-0.002211489,-0.183706984,0.004314321,0.003355583,-0.190740928,,-1.159016013,-1.170225143,-0.885515153,-0.192155182,0.193680227,-0.236381382
1.072349952,,1.999028683,-1.781156365,0.356077909,-1.770716492,4.746076584,3.004004955,,0.000920388,-0.001495631,-0.182556495,0.002804309,-0.045635931,-0.18218419,,-1.268864751,-1.138839722,-1.138839722,-0.154029161,-0.150979072,-0.272982359
1.079899904,,1.999040604,-1.781048123,0.354665667,-1.77069265,4.746112347,3.002485037,,0.00076699,-0.001137702,-0.182275265,0.002085255,0.037894122,-0.179595605,,-1.387680769,-1.046925545,-1.12314713,-0.137253702,0.089977428,-0.044226196
1.087849984,,1.999040604,-1.781048123,0.353181124,-1.77069265,4.745968342,3.001013756,,0.00052411,0.000230097,-0.181994036,0.001869539,-0.045372277,-0.177534312,,-1.448209643,-0.999847531,-0.963978529,-0.122003295,0.009150247,-0.244006589
1.095929856,,1.999004841,-1.781072442,0.35174489,-1.770668809,4.746064186,2.999470711,,0.00052411,0.000230097,-0.180664584,0.00524909,0.025909895,-0.181728795,,-1.589443684,-0.928109586,-1.040200114,-0.132678583,-0.068626851,0.003050082
1.103820032,,1.999004841,-1.781036202,0.350356579,-1.770584885,4.745896816,2.997998953,,0.00052411,0.002249839,-0.181725591,0.00524909,-0.032381378,-0.189206958,,-1.654456139,-0.683752239,-1.219544888,-0.178429812,0.161654368,-0.294332951
1.111919872,,1.998968601,-1.781000439,0.348884016,-1.770596806,4.746064186,2.996562958,,-0.005803561,0.006097574,-0.184525102,0.0040267,0.031686291,-0.18772091,,-1.703776002,-0.728588402,-1.203852296,-0.19978039,-0.166229486,-0.228756174
1.119899904,,1.998932838,-1.781000439,0.347435802,-1.770633046,4.745800972,2.995055914,,-0.004704208,0.004052266,-0.183949873,0.002684467,-0.025909895,-0.186618358,,-1.551332951,-0.665817738,-0.993122101,-0.172329649,0.314158469,-0.260782033
1.127849984,,1.99895668,-1.780904595,0.34602353,-1.770633046,4.746052265,2.993620157,,-0.002352104,0.006263755,-0.183617502,0.00201335,0.021595575,-0.179955125,,-1.800173879,-0.515616417,-1.165741444,-0.164704442,-0.337034106,-0.285182714
1.135919872,,1.998884678,-1.780856435,0.344586909,-1.770572964,4.745741367,2.992196321,,-0.007810519,0.010162623,-0.182722688,0.001605886,-0.017377127,-0.177893847,,-1.907780766,-0.629948735,-1.076069117,-0.163179412,0.320258647,-0.068626851
1.143899904,,1.998800755,-1.780736748,0.343150675,-1.770561043,4.745956421,2.990724564,,-0.006263755,0.012604209,-0.184934169,0.001342233,-0.003978763,-0.170919016,,-1.910022616,-0.41473496,-1.152290583,-0.150979072,-0.321783692,-0.259256989
1.151929856,,1.998753071,-1.780664746,0.341654539,-1.770596806,4.745705128,2.989312887,,-0.012885439,0.013256151,-0.183374628,0.001150486,-0.016058862,-0.188703611,,-1.984002352,-0.506649196,-1.091761708,-0.150979072,0.266882211,-0.11285305
1.159810048,,1.998645306,-1.780580346,0.340230286,-1.770561043,4.745789051,2.987877369,,-0.012169581,0.012859873,-0.184269443,0.001006675,-0.046426889,-0.184197545,,-1.795690298,-0.367656916,-0.98191303,-0.150979072,-0.31110841,-0.230281219
1.167899904,,1.998597145,-1.780448739,0.338793665,-1.770584885,4.745681286,2.986465454,,-0.008104532,0.01445777,-0.183770895,0.000886833,0.026173549,-0.185539782,,-2.082642078,-0.443878502,-0.83619535,-0.154029161,0.167754531,-0.19825536
1.175810048,,1.998477459,-1.780329053,0.337333858,-1.770561043,4.745717049,2.985042095,,-0.014598384,0.017794177,-0.182952777,0.000790959,-0.044341635,-0.179236069,,-1.921231627,-0.387833238,-0.914658725,-0.18452999,-0.231806263,-0.134203628
1.183919872,,1.998321056,-1.78017265,0.335885614,-1.770596806,4.745633602,2.983582258,,-0.010482202,0.016042883,-0.184269443,0.000719053,0.025118936,-0.172740623,,-2.069191217,-0.457329363,-1.071585417,-0.166229486,0.089977428,-0.248581707
1.191879936,,1.998285294,-1.780052964,0.334353149,-1.770596806,4.74560976,2.982170343,,-0.014649517,0.019468773,-0.181418791,0.000671117,-0.034850128,-0.180050999,,-1.990727782,-0.387833238,-0.84067893,-0.167754531,-0.062526688,0.01372537
1.199919872,,1.998117447,-1.779908959,0.332833022,-1.770572964,4.745669365,2.980735302,,-0.016017316,0.021347899,-0.18070294,0.000599211,0.031326763,-0.179691479,,-2.064707518,-0.376624167,-0.83619535,-0.183004946,-0.05337644,-0.222656012
1.207859968,,1.997997761,-1.779728715,0.331420392,-1.770572964,4.745490074,2.979263306,,-0.017052753,0.020644825,-0.178197443,0.000575243,-0.032381378,-0.182951182,,-2.042289495,-0.334029764,-0.946044028,-0.193680227,0.083877265,-0.048801318
1.21584,,1.997853756,-1.779585187,0.329924226,-1.770561043,4.745669365,2.97786355,,-0.018650651,0.023674438,-0.176522836,0.000527306,0.021595575,-0.186977878,,-2.031080246,-0.28470993,-1.11866343,-0.210455686,-0.2409565,-0.288232774
1.223929856,,1.997710228,-1.779393021,0.328487992,-1.770584885,4.745453835,2.976428032,,-0.018701782,0.02554078,-0.174132392,0.000503337,-0.025909895,-0.17290841,,-2.073674679,-0.286951751,-0.925867736,-0.219605923,0.172329649,-0.298908085
1.231789824,,1.997578144,-1.779189412,0.327051371,-1.770549122,4.745645523,2.974956274,,-0.019085279,0.02610324,-0.175103918,0.000455401,0.021595575,-0.178780675,,-2.093851089,-0.239873722,-0.748764753,-0.228756174,-0.312633455,-0.080827184
1.23988992,,1.997410297,-1.778937642,0.325627118,-1.770572964,4.745334625,2.973484755,,-0.022869097,0.029043371,-0.173250347,0.000431432,-0.021595575,-0.166964233,,-2.066949368,-0.251082778,-1.035716534,-0.259256989,0.250106752,-0.253156841
1.247799808,,1.997206688,-1.778685395,0.324226856,-1.770572964,4.745549679,2.972144842,,-0.02344434,0.029311817,-0.172240481,0.000407464,0.021595575,-0.178924486,,-2.057981968,-0.313853472,-1.107454419,-0.276032448,-0.343134254,-0.056426525
1.255859968,,1.99702692,-1.778409783,0.322802216,-1.770561043,4.745274544,2.970697403,,-0.023815053,0.031088678,-0.171026081,0.000383495,-0.014141386,-0.17949973,,-2.080400229,-0.345238835,-1.002089262,-0.312633455,0.234856337,-0.315683514
1.26377984,,1.996823311,-1.778229539,0.321437895,-1.770549122,4.745501995,2.969297409,,-0.024965538,0.033709228,-0.170476407,0.000383495,-0.004146542,-0.170679331,,-2.11178565,-0.369898736,-0.901207864,-0.32788384,-0.390410542,-0.329408884
1.271769856,,1.996619701,-1.777942006,0.320121139,-1.770596806,4.74522686,2.967933416,,-0.025003888,0.033709228,-0.168290481,0.000359527,-0.019534288,-0.169768542,,-2.129719973,-0.334029764,-1.179192305,-0.364484847,0.201305434,-0.059476607
1.279849984,,1.996391296,-1.777678315,0.318816334,-1.770561043,4.745453835,2.96654582,,-0.027956801,0.035984632,-0.169671059,0.000335558,-0.027755465,-0.164926916,,-2.172314405,-0.374382377,-1.190401435,-0.407186002,-0.335509062,-0.250106752
1.287869952,,1.996187687,-1.77731878,0.317487955,-1.770596806,4.745262623,2.965169668,,-0.027969584,0.03762088,-0.170310214,0.000239685,-0.01021056,-0.173699364,,-2.201457977,-0.396800458,-1.188159585,-0.437686831,0.114378087,-0.061001647
1.295830016,,1.995935917,-1.77699453,0.316146851,-1.770633046,4.745381832,2.963818073,,-0.029580263,0.037582532,-0.171665236,0.000239685,-0.039140482,-0.175664783,,-2.199216127,-0.347480625,-0.970703959,-0.475812852,-0.333984017,-0.242481545
1.303769856,,1.99571991,-1.7766946,0.314710617,-1.770704571,4.745250702,2.962513924,,-0.029350167,0.039103728,-0.170310214,-0.004002731,0.022698123,-0.165933579,,-2.279921293,-0.246599168,-1.152290583,-0.445312023,0.118953213,-0.274507403
1.31184,,1.995444775,-1.776394669,0.31341821,-1.77069265,4.745298386,2.961174011,,-0.032494828,0.041545313,-0.170092911,-0.004002731,-0.041393515,-0.166796446,,-2.324757576,-0.28022632,-0.970703959,-0.457512349,-0.242481545,0.004575124
1.319789824,,1.995216846,-1.776022736,0.312053502,-1.770716492,4.745274544,2.959774494,,-0.034425087,0.042031076,-0.170795977,-0.003451457,0.025718147,-0.168234557,,-2.270954132,-0.237631917,-1.132114291,-0.489538223,0.057951566,-0.208930641
1.327869952,,1.994904995,-1.775687043,0.310700774,-1.770788495,4.745250702,2.958457947,,-0.033785928,0.043296609,-0.172457799,-0.005608617,-0.035856802,-0.17182982,,-2.416671753,-0.116574146,-0.948285878,-0.510888815,-0.272982359,-0.070151895
1.335869952,,1.994641304,-1.775363747,0.309300125,-1.770920102,4.74522686,2.957106352,,-0.036470395,0.045814894,-0.171371222,-0.015172029,0.035353463,-0.17559287,,-2.351659298,-0.136750445,-1.033474684,-0.39651072,0.048801318,-0.254681885
1.343810048,,1.994317532,-1.774967972,0.307959765,-1.770920102,4.745154858,2.955838442,,-0.03827282,0.046875898,-0.169325918,-0.008628642,-0.039260324,-0.159318298,,-2.389770031,-0.13899225,-0.706170321,-0.376685172,-0.154029161,-0.28365767
1.351849984,,1.994017601,-1.774572198,0.30665499,-1.770920102,4.745250702,2.954450369,,-0.037454698,0.048882857,-0.16794534,-0.00417051,0.025478464,-0.169768542,,-2.394253731,-0.127783194,-0.950527668,-0.503263593,-0.082352221,-0.024400659
1.359830016,,1.993778706,-1.774187867,0.305290282,-1.771087948,4.745083332,2.953110456,,-0.040369261,0.050378487,-0.165439829,-0.02102033,-0.031111049,-0.162554041,,-2.412188053,-0.078463368,-1.055892825,-0.459037393,-0.041176111,-0.253156841
1.367789824,,1.993394852,-1.773756329,0.303937942,-1.771123711,4.745262623,2.951842308,,-0.04108512,0.051132694,-0.166449696,-0.008628642,0.032381378,-0.168354392,,-2.430122614,-0.062770694,-1.020023823,-0.335509062,-0.19825536,-0.173854694
1.375799808,,1.993094921,-1.773348633,0.302573234,-1.77114803,4.745047092,2.95053792,,-0.044702757,0.053753246,-0.164251,-0.004242416,-0.032381378,-0.167108044,,-2.324757576,-0.186070278,-0.764457405,-0.472762764,0.054901481,-0.202830479
1.383759872,,1.992711544,-1.772940461,0.301232487,-1.7713154,4.745238781,2.949234247,,-0.043424439,0.054520234,-0.163599059,-0.026533075,0.026101643,-0.152463317,,-2.331482887,-0.291435361,-0.775666475,-0.326358825,-0.28365767,-0.254681885
1.391899904,,1.992352009,-1.772532765,0.299892128,-1.7713154,4.744987488,2.947930336,,-0.046645802,0.055248875,-0.162180126,-0.009946907,-0.025909895,-0.166556761,,-2.311306715,-0.291435361,-0.9751876,-0.303483188,0.135728672,-0.086927347
1.399810048,,1.992004395,-1.772053067,0.2985394,-1.771351163,4.745238781,2.946589947,,-0.048013601,0.056987386,-0.160531089,-0.004434163,0.021595575,-0.164687231,,-2.170072556,-0.351964265,-1.011056542,-0.45446226,-0.326358825,-0.207405597
1.407879936,,1.991597176,-1.771585766,0.297258586,-1.771591012,4.744963646,2.945358276,,-0.047885768,0.05921166,-0.159418955,-0.018120149,-0.021595575,-0.158814952,,-2.194732428,-0.383349597,-0.851888001,-0.155554205,0.146403953,-0.253156841
1.415799808,,1.991249084,-1.771106068,0.295929462,-1.771579091,4.745178699,2.944029808,,-0.051145475,0.061090786,-0.15849857,-0.008077368,0.028091025,-0.152031884,,-2.140928984,-0.383349597,-0.802568197,-0.274507403,-0.35533461,0.059476607
1.423799808,,1.990841389,-1.770601575,0.294672996,-1.7716983,4.744891644,2.942762136,,-0.051541757,0.060413279,-0.155085459,-0.025766084,-0.018216023,-0.159438133,,-2.037805796,-0.403525889,-0.957253098,-0.401085824,0.141828835,-0.236381382
1.431919872,,1.990398407,-1.770121876,0.293391824,-1.771794144,4.745130539,2.941517591,,-0.051426709,0.063583508,-0.153244689,-0.01176851,0.021595575,-0.159773692,,-2.084883928,-0.376624167,-1.156774282,-0.114378087,-0.404135913,-0.234856337
1.439929856,,1.989990711,-1.769582574,0.292135328,-1.771842305,4.744832039,2.940237522,,-0.053996123,0.063570723,-0.153743222,-0.00479369,-0.017017599,-0.151552513,,-2.127478123,-0.266775459,-1.031232834,-0.294332951,0.187580064,-0.03965107
1.447899904,,1.989558697,-1.769090478,0.290950388,-1.771961991,4.744987488,2.938969374,,-0.053778812,0.067507938,-0.152247593,-0.020397151,-0.003331615,-0.149323449,,-2.174556255,-0.143475875,-0.97294575,-0.248581707,-0.488013178,-0.224181056
1.455849984,,1.989127636,-1.768539254,0.289741129,-1.771938149,4.744820118,2.937736988,,-0.054916512,0.067009397,-0.150406823,-0.008077368,0.025142904,-0.159054637,,-2.311306715,-0.082946993,-0.959494889,-0.178429812,0.164704442,-0.08540231
1.463859968,,1.988731384,-1.768011872,0.288580149,-1.772033993,4.744904041,2.936528444,,-0.056233179,0.068134315,-0.152899534,-0.004242416,-0.028858015,-0.154740319,,-2.212666988,-0.096397854,-1.12314713,-0.326358825,-0.384310365,-0.195205271
1.471869952,,1.988288403,-1.767435853,0.287382841,-1.772189442,4.744904041,2.935308695,,-0.055223309,0.070639819,-0.154037237,-0.02413623,0.028810078,-0.144146264,,-2.293372154,-0.154684931,-1.064859986,-0.147928998,-0.003050082,-0.266882211
1.479859968,,1.987844944,-1.766872231,0.286209881,-1.772177521,4.74484396,2.934100151,,-0.056923471,0.070716515,-0.153398082,-0.008628642,-0.031494543,-0.156729698,,-2.315790415,-0.208488375,-1.076069117,-0.254681885,-0.298908085,-0.115903132
1.487820032,,1.987353325,-1.76627237,0.28501296,-1.772237126,4.744855881,2.932868004,,-0.057600979,0.073209234,-0.152401,-0.017017599,0.032740902,-0.155770957,,-2.214908838,-0.192795709,-0.98191303,-0.38278535,-0.056426525,-0.230281219
1.495899904,,1.986921787,-1.765696828,0.283804059,-1.772393052,4.744700432,2.931707382,,-0.059377842,0.074321374,-0.152106985,-0.017880464,-0.041537326,-0.141365916,,-2.259745121,-0.295919001,-1.046925545,-0.218080893,-0.204355523,-0.303483188
1.503859968,,1.986454487,-1.765096966,0.28265506,-1.772428815,4.744855881,2.930487156,,-0.060093697,0.074934959,-0.151621222,-0.006159892,0.04024303,-0.149011865,,-2.176798105,-0.307128042,-1.080552697,-0.358384669,-0.248581707,0.007625206
1.511879936,,1.985974789,-1.764533345,0.281505704,-1.772608582,4.744664669,2.929303169,,-0.060553893,0.075765871,-0.150330126,-0.034370758,-0.025909895,-0.158910826,,-2.122994661,-0.347480625,-1.089519978,-0.35533461,0.062526688,-0.272982359
1.519789824,,1.985507488,-1.7638858,0.280296415,-1.772716347,4.744855881,2.928154469,,-0.061487064,0.077593863,-0.151928023,-0.009251822,0.025742115,-0.142636254,,-2.154379845,-0.239873722,-0.98415482,-0.379735261,-0.404135913,-0.34160924
1.527929856,,1.985003948,-1.76329786,0.279087514,-1.772836034,4.744592667,2.926934242,,-0.062714249,0.079127841,-0.149857149,-0.032213598,-0.026077675,-0.147334069,,-2.064707518,-0.14571768,-1.006572962,-0.494113356,0.09302751,-0.042701155
1.535799808,,1.984477043,-1.762638871,0.277902573,-1.77300388,4.74480772,2.925737858,,-0.063059397,0.080048233,-0.150253415,-0.014381071,0.014357102,-0.14994663,,-2.140928984,-0.109848715,-0.919142306,-0.402610868,-0.475812852,-0.202830479
1.543899904,,1.983949184,-1.761978928,0.276717633,-1.773111169,4.74464035,2.924672604,,-0.062969916,0.080265544,-0.147466689,-0.019534288,0.003020025,-0.144314036,,-2.183523417,-0.181586653,-0.690477669,-0.584090769,0.086927347,-0.260782033
1.55188992,,1.983457565,-1.761318986,0.275580257,-1.773290936,4.744783878,2.923500776,,-0.063430108,0.083026715,-0.148297593,-0.016178705,-0.029097699,-0.139975756,,-2.309064865,-0.224181056,-0.822744489,-0.419386327,-0.483438045,0.077777103
1.559799808,,1.982966423,-1.76062328,0.274335384,-1.773303334,4.744664669,2.922339916,,-0.06504079,0.082617648,-0.146405682,-0.007334346,0.029313415,-0.152535215,,-2.320273876,-0.217455626,-0.941560447,-0.613066554,0.015250412,-0.230281219
1.567810048,,1.982414722,-1.759975735,0.273174047,-1.773506467,4.74464035,2.921227217,,-0.065513767,0.084522344,-0.144820571,-0.021427795,-0.03310043,-0.138609543,,-2.37631917,-0.354206055,-0.916900516,-0.469712675,-0.338559151,-0.272982359
1.575899904,,1.981874943,-1.75928003,0.27204904,-1.773554627,4.74464035,2.920042992,,-0.067814738,0.08640147,-0.143708438,-0.007190535,0.037630469,-0.140646875,,-2.405462742,-0.41473496,-0.804809988,-0.591715991,-0.042701155,0.050326359
1.58388992,,1.981360435,-1.758596722,0.270875692,-1.773662392,4.744616508,2.918918371,,-0.067597419,0.088523477,-0.139234319,-0.026964508,-0.041177798,-0.148436621,,-2.286646843,-0.459571153,-0.757731974,-0.606966376,-0.28365767,-0.193680227
1.59184,,1.980820656,-1.757888619,0.269750685,-1.773746316,4.744628429,2.917817593,,-0.070499204,0.088101633,-0.137802616,-0.012871058,0.027707528,-0.134942383,,-2.275437593,-0.42146039,-0.795842767,-0.561215162,-0.131153539,-0.25620693
1.599929856,,1.98019743,-1.75714523,0.268589318,-1.77384216,4.744520664,2.91670537,,-0.073068619,0.089955188,-0.136434808,-0.006255765,-0.039452069,-0.136883825,,-2.24181056,-0.331787974,-1.015540123,-0.695418775,-0.161654368,0.03965107
1.607859968,,1.979658127,-1.75643808,0.26747629,-1.774045293,4.744664669,2.915652275,,-0.073541597,0.090990625,-0.136281416,-0.02706038,0.037750311,-0.145991832,,-2.22163415,-0.307128042,-1.033474684,-0.439211845,-0.239431471,-0.285182714
1.615849984,,1.979046345,-1.755682294,0.266327322,-1.774081532,4.74450922,2.914540052,,-0.076673478,0.09295924,-0.135118142,-0.006471482,-0.03154248,-0.125786424,,-2.219392538,-0.212972,-0.813777208,-0.651192605,-0.042701155,-0.317208558
1.623799808,,1.978447437,-1.754915063,0.265261471,-1.774308983,4.744700432,2.913474798,,-0.077044189,0.09267801,-0.13318789,-0.033795517,0.021595575,-0.141773388,,-2.163347244,-0.242115542,-0.798084557,-0.434636742,-0.41023609,-0.067101814
1.631799808,,1.977787972,-1.75421888,0.264172405,-1.774392907,4.744449139,2.912326336,,-0.078884967,0.094902277,-0.130043224,-0.010785803,-0.015267903,-0.138178125,,-2.232843399,-0.313853472,-0.654608667,-0.532239377,0.09912768,-0.179954857
1.63988992,,1.977176666,-1.75346357,0.263106912,-1.774560277,4.74467659,2.911262035,,-0.078539819,0.09551587,-0.131117016,-0.033388052,0.018503644,-0.122598626,,-2.248535872,-0.309369862,-0.995363891,-0.430061609,-0.536814511,-0.254681885
1.647789824,,1.976541042,-1.752672021,0.262041837,-1.774715726,4.744401455,2.910196781,,-0.081505515,0.096870892,-0.128202453,-0.015195997,-0.015651399,-0.136596203,,-2.302339554,-0.349722445,-0.997605681,-0.439211845,0.129628494,-0.111328006
1.655879936,,1.975882053,-1.751880471,0.260987967,-1.774931256,4.744544506,2.909156084,,-0.079984315,0.099044025,-0.129058912,-0.032884713,-0.003930826,-0.127272472,,-2.255261421,-0.42146039,-0.930351377,-0.373635083,-0.491063267,-0.163179412
1.663830016,,1.975234985,-1.751065079,0.259982795,-1.775111024,4.744401455,2.908103228,,-0.082515381,0.097420566,-0.12678352,-0.018503644,0.003379551,-0.120681152,,-2.226117849,-0.320578903,-0.925867736,-0.303483188,0.016775453,-0.234856337
1.671869952,,1.974563122,-1.750261609,0.258953273,-1.775242631,4.74446106,2.907134056,,-0.080048233,0.098916195,-0.126284972,-0.027539751,-0.036120456,-0.126936913,,-2.228359699,-0.197279334,-0.813777208,-0.332458973,-0.329408884,-0.268407255
1.679799808,,1.973940372,-1.749470059,0.257971674,-1.775362317,4.744472981,2.906081676,,-0.080700174,0.099593706,-0.123370409,-0.011624699,0.03743872,-0.125642613,,-2.24629426,-0.188312083,-1.049167395,-0.215030804,-0.09912768,-0.006100165
1.687869952,,1.973292828,-1.74860603,0.256990105,-1.775470082,4.744437218,2.905064583,,-0.081377685,0.102060854,-0.124559246,-0.009563412,-0.044964813,-0.128998205,,-2.24405241,-0.27350089,-1.1164217,-0.343134254,-0.271457344,-0.228756174
1.695789824,,1.97264576,-1.747814957,0.256008148,-1.775626008,4.744472981,2.904095411,,-0.081991278,0.102303736,-0.124035135,-0.01670601,0.030895334,-0.118955418,,-2.205941677,-0.291435361,-1.051409125,-0.158604279,-0.224181056,-0.285182714
1.703859968,,1.971950531,-1.747023408,0.255086482,-1.775661771,4.744329453,2.903102875,,-0.084969752,0.103415877,-0.122552283,-0.007190535,-0.035665054,-0.125019446,,-2.179039955,-0.374382377,-1.055892825,-0.323308736,-0.09912768,-0.019825535
1.711849984,,1.971230984,-1.746184174,0.254080921,-1.775841538,4.744497299,2.902145624,,-0.085148722,0.106547751,-0.123920083,-0.034083135,0.025909895,-0.121424168,,-2.138687372,-0.446120292,-0.928109586,-0.237906426,-0.36905998,-0.150979072
1.719879936,,1.970560074,-1.745332066,0.253123313,-1.775924985,4.744233608,2.901128531,,-0.086542085,0.106061988,-0.120724291,-0.009251822,-0.021595575,-0.116750322,,-2.163347244,-0.399042279,-0.988638461,-0.285182714,0.051851399,-0.2257061
1.727769856,,1.969876766,-1.744468514,0.252178073,-1.776044671,4.744472981,2.9002316,,-0.085225418,0.106330439,-0.123332061,-0.035545211,0.027276097,-0.123413555,,-2.266470432,-0.262291849,-1.002089262,-0.419386327,-0.474287808,-0.245531633
1.73577984,,1.969205379,-1.743557278,0.251232058,-1.776284043,4.744185448,2.899250269,,-0.087500826,0.11062558,-0.120903254,-0.021595575,-0.021595575,-0.117900811,,-2.329241276,-0.239873722,-0.881031573,-0.300433099,0.102177761,0.028975783
1.743830016,,1.96846199,-1.742669884,0.250262469,-1.776367966,4.744497299,2.89832902,,-0.08929047,0.110306002,-0.122117653,-0.021523669,0.010689929,-0.126505479,,-2.405462742,-0.118815959,-0.950527668,-0.504788637,-0.565790296,-0.18452999
1.75188992,,1.96774292,-1.741806332,0.249340415,-1.776631657,4.744185448,2.897324324,,-0.090671048,0.112006165,-0.119458757,-0.025622275,-0.01392567,-0.111189641,,-2.333724737,-0.192795709,-0.889998794,-0.373635083,0.067101814,-0.257731974
1.75984,,1.966988087,-1.740930859,0.248359218,-1.776799027,4.744341373,2.896438837,,-0.092920892,0.112862639,-0.121478498,-0.024256073,-0.004266384,-0.120465435,,-2.23732686,-0.342997015,-0.847404361,-0.515463948,-0.538339555,-0.061001647
1.767810048,,1.966208935,-1.739971463,0.247449532,-1.777026955,4.744233608,2.895529747,,-0.092716359,0.115214743,-0.118627854,-0.022218755,0.003235741,-0.113802202,,-2.167830706,-0.336271584,-0.937076807,-0.472762764,0.019825535,-0.065576769
1.775849984,,1.965453625,-1.739072148,0.246503532,-1.777158562,4.744305134,2.894572735,,-0.094288684,0.116646461,-0.118180439,-0.017401095,-0.033172335,-0.11840415,,-2.136445522,-0.360931486,-0.802568197,-0.585615814,-0.405660957,-0.237906426
1.78368,,1.964698315,-1.738148038,0.245605841,-1.777374093,4.744197369,2.893698931,,-0.09389241,0.115598239,-0.11718335,-0.021979069,0.026101643,-0.109751537,,-2.23732686,-0.219697431,-0.719621181,-0.521564066,-0.114378087,-0.340084195
1.791899904,,1.963895321,-1.737201039,0.244695783,-1.777469937,4.744173527,2.892813683,,-0.096231729,0.116441928,-0.115598239,-0.014548849,-0.03899667,-0.116870165,,-2.342692137,-0.085188799,-0.816019058,-0.608491421,-0.288232774,-0.07930214
1.799899904,,1.963140011,-1.736301247,0.243774503,-1.777649705,4.744281292,2.891844749,,-0.096960373,0.117451802,-0.115214743,-0.029001825,0.040434778,-0.116007298,,-2.360626459,-0.195037514,-0.804809988,-0.538339555,-0.233331308,-0.117428169
1.80777984,,1.962337017,-1.735341851,0.242864445,-1.777745072,4.744102001,2.89094758,,-0.097919106,0.117643543,-0.111226395,-0.012823122,-0.04319115,-0.104262762,,-2.324757576,-0.291435361,-0.912416875,-0.576465547,-0.033550907,-0.221130967
1.815849984,,1.961570263,-1.734382455,0.241954774,-1.777900998,4.744317532,2.890146017,,-0.098673314,0.119842254,-0.112747587,-0.029265478,0.032381378,-0.107834063,,-2.24629426,-0.381107807,-0.768941045,-0.547489762,-0.477337897,-0.250106752
1.823849984,,1.960814953,-1.733435456,0.241093025,-1.778080765,4.744006157,2.889225245,,-0.09949144,0.121478498,-0.108554706,-0.017712684,-0.025909895,-0.108001836,,-2.248535872,-0.517858267,-0.755490184,-0.497163415,0.09912768,-0.018300494
1.831799808,,1.960035801,-1.732487981,0.240147024,-1.778271977,4.744269371,2.888399363,,-0.099721536,0.121184483,-0.108746454,-0.028091025,0.011169298,-0.111261547,,-2.138687372,-0.318337113,-0.638916016,-0.491063267,-0.576465547,-0.18452999
1.839789824,,1.959256649,-1.731504265,0.239285275,-1.778463666,4.743982315,2.887514353,,-0.101856329,0.125083357,-0.105128817,-0.02027731,-0.01145692,-0.097263977,,-2.140928984,-0.204004765,-0.663575947,-0.379735261,0.065576769,-0.245531633
1.84784,,1.958453655,-1.730484788,0.23844713,-1.778655354,4.744197369,2.886760473,,-0.102303736,0.124866039,-0.106394351,-0.024016388,-0.004961469,-0.102081634,,-2.165589094,-0.27350089,-0.677026808,-0.376685172,-0.527664244,-0.318733603
1.855759872,,1.957662106,-1.729489628,0.237633333,-1.778823201,4.743970394,2.885898829,,-0.102712803,0.127256498,-0.10331361,-0.020229373,0.003667173,-0.106707543,,-2.322515726,-0.253324598,-0.874306142,-0.298908085,0.067101814,-0.056426525
1.863830016,,1.956882954,-1.728446309,0.236771584,-1.778894726,4.744149685,2.885061502,,-0.104233995,0.127729475,-0.103019595,-0.014093449,-0.03235741,-0.102608941,,-2.362868309,-0.365415126,-0.901207864,-0.356859624,-0.500213504,-0.094552554
1.871749888,,1.956031799,-1.72741491,0.235909477,-1.779110734,4.743994236,2.884224415,,-0.10589581,0.128854394,-0.100756973,-0.020564931,0.02475941,-0.100355901,,-2.340450287,-0.42370218,-0.789117336,-0.288232774,-0.032025866,-0.195205271
1.879849984,,1.955204964,-1.726383511,0.235083312,-1.779182259,4.744029999,2.883458614,,-0.106995165,0.12893109,-0.099811018,-0.012032162,-0.034298852,-0.096353173,,-2.24629426,-0.399042279,-0.712895751,-0.367534935,-0.388885498,-0.280607581
1.887789824,,1.954353809,-1.725352589,0.234281123,-1.779349629,4.744029999,2.882704735,,-0.109104387,0.128458112,-0.097548395,-0.024519725,0.033963297,-0.103591643,,-2.23956871,-0.307128042,-0.771182835,-0.362959802,-0.105227843,-0.044226196
1.895899904,,1.953466892,-1.724332635,0.233431354,-1.779505078,4.743982315,2.881891489,,-0.111341439,0.130861342,-0.095183507,-0.018383801,-0.038565237,-0.090576775,,-2.172314405,-0.27574271,-0.504407346,-0.443786979,-0.288232774,0.022875618
1.903830016,,1.952555656,-1.723301713,0.232665494,-1.779684846,4.744018078,2.881101847,,-0.111520402,0.130081579,-0.094467655,-0.027611656,0.025885927,-0.10493388,,-2.324757576,-0.405767709,-0.766699195,-0.486488134,-0.210455686,-0.190630153
1.91188992,,1.951681137,-1.722221677,0.231898874,-1.779924218,4.743874073,2.880335808,,-0.112811506,0.131820083,-0.09221781,-0.02631736,-0.029936595,-0.085974835,,-2.365110159,-0.439394861,-0.97294575,-0.529189289,-0.204355523,-0.262307078
1.919909888,,1.95070982,-1.721202676,0.231180951,-1.780151669,4.744006157,2.879558802,,-0.112249047,0.132420897,-0.090210855,-0.025454495,0.034538537,-0.095825866,,-2.297855854,-0.502165556,-1.080552697,-0.536814511,-0.250106752,-0.231806263
1.927820032,,1.949882984,-1.720099751,0.230402723,-1.780331437,4.743850231,2.878780842,,-0.11488238,0.132420897,-0.091412477,-0.017401095,-0.039092544,-0.091008209,,-2.208183289,-0.490956515,-0.98639667,-0.590190947,-0.109802961,0.010675289
1.935849984,,1.948947906,-1.718983952,0.229696408,-1.780439202,4.743994236,2.878098965,,-0.113143869,0.13561669,-0.090274774,-0.017425064,0.023345271,-0.088659301,,-2.199216127,-0.28470993,-0.876547933,-0.626791954,-0.347709388,-0.082352221
1.943769856,,1.948060989,-1.717904393,0.228990078,-1.780606572,4.743766785,2.877333403,,-0.112862639,0.134581253,-0.088523477,-0.018000307,-0.031662323,-0.094124109,,-2.188007116,-0.320578903,-0.867580712,-0.623741865,0.001525041,-0.167754531
1.951859968,,1.947174072,-1.71682531,0.228284135,-1.780702416,4.744006157,2.876651526,,-0.113744676,0.136191934,-0.087372988,-0.010474213,0.018503644,-0.081900194,,-2.255261421,-0.266775459,-0.724104822,-0.675593257,-0.443786979,-0.265357167
1.959799808,,1.946227074,-1.715686146,0.227613389,-1.780858342,4.743742943,2.875933647,,-0.114818461,0.13683109,-0.086107455,-0.023992419,-0.016753947,-0.092182659,,-2.282163143,-0.448362112,-0.70392853,-0.672543168,0.054901481,-0.140303791
1.967749888,,1.945291996,-1.714583222,0.226931036,-1.780978028,4.743982315,2.87522769,,-0.114792898,0.137380764,-0.0854683,-0.012918995,0.018503644,-0.08180432,,-2.365110159,-0.475263834,-0.872064292,-0.642042339,-0.492588311,0.03965107
1.975879936,,1.944356918,-1.713503186,0.226284638,-1.781109635,4.743706703,2.874569893,,-0.116390795,0.136370897,-0.084241115,-0.022338595,-0.018503644,-0.085471496,,-2.259745121,-0.322820723,-0.988638461,-0.69694382,0.100652717,-0.118953213
1.98377984,,1.943434238,-1.712375943,0.225566342,-1.781313245,4.743934155,2.873840094,,-0.115994513,0.138198882,-0.087296292,-0.020325245,0.010857708,-0.090289153,,-2.342692137,-0.253324598,-0.892240584,-0.576465547,-0.497163415,-0.215030804
1.99188992,,1.942475319,-1.711273019,0.22490795,-1.781481091,4.743706703,2.873193741,,-0.118257135,0.137431905,-0.084765226,-0.025766084,-0.014980282,-0.07456585,,-2.362868309,-0.244357347,-0.894482434,-0.61154151,0.091502473,-0.300433099
1.999830016,,1.941504478,-1.710169617,0.224237964,-1.781684701,4.743850231,2.872560024,,-0.122053742,0.141049534,-0.083627522,-0.023057649,-0.004194479,-0.085327685,,-2.275437593,-0.390075028,-0.874306142,-0.472762764,-0.486488134,-0.248581707
2.007810048,,1.940533161,-1.709006135,0.223591194,-1.781864468,4.74367094,2.871877909,,-0.122922994,0.139707297,-0.082681566,-0.024975127,0.003547331,-0.083122589,,-2.212666988,-0.490956515,-0.83619535,-0.480387986,0.115903132,-0.057951566
2.01577984,,1.939478874,-1.707878892,0.222968757,-1.782043759,4.743838787,2.871220112,,-0.124226883,0.141241282,-0.081837878,-0.021931132,-0.00479369,-0.08132495,,-2.217150688,-0.522341847,-0.759973764,-0.364484847,-0.481913,-0.117428169
2.02384,,1.938484192,-1.70677549,0.22232236,-1.782283608,4.743682861,2.870609522,,-0.122782379,0.14260909,-0.080176063,-0.02274606,0.025454495,-0.082595281,,-2.24629426,-0.293677181,-0.943802238,-0.381260306,0.057951566,-0.230281219
2.031830016,,1.937512875,-1.705672566,0.221663594,-1.782426659,4.743754864,2.869975805,,-0.122922994,0.144564912,-0.08093027,-0.018455707,-0.029720878,-0.069604382,,-2.333724737,-0.170377597,-0.898966014,-0.323308736,-0.298908085,-0.285182714
2.039879936,,1.936458111,-1.704509083,0.22108911,-1.782570664,4.743719101,2.869413853,,-0.124866039,0.144462645,-0.078220241,-0.017688716,0.002828277,-0.076579198,,-2.257503271,-0.269017279,-0.937076807,-0.347709388,-0.012200329,-0.321783692
2.047879936,,1.93548727,-1.703346078,0.220490649,-1.782714669,4.743790627,2.868827343,,-0.122846298,0.147095978,-0.078360856,-0.019054918,-0.031830102,-0.077609845,,-2.161105394,-0.307128042,-0.878789723,-0.321783692,-0.352284521,-0.096077591
2.055810048,,1.934456348,-1.702182595,0.21985586,-1.78285772,4.743731022,2.868228912,,-0.123114742,0.150100023,-0.077632211,-0.015555524,0.023441145,-0.072864093,,-2.129719973,-0.522341847,-0.798084557,-0.373635083,-0.073201977,-0.012200329
2.063759872,,1.933473587,-1.700959508,0.21926938,-1.782989804,4.743694782,2.867643118,,-0.121823646,0.148476556,-0.074615382,-0.025861958,-0.039500006,-0.078880168,,-2.255261421,-0.293677181,-0.869822502,-0.45446226,-0.222656012,-0.141828835
2.071789824,,1.93250227,-1.699819867,0.218694881,-1.783193413,4.743731022,2.867009163,,-0.122922994,0.149882704,-0.075216196,-0.021331921,0.036695696,-0.076075859,,-2.430122614,-0.28470993,-0.923625946,-0.36905998,-0.173854694,-0.18452999
2.07984,,1.931495667,-1.698669259,0.218108773,-1.783277337,4.743610859,2.866518497,,-0.123881735,0.148054719,-0.073106967,-0.024999093,-0.036120456,-0.061790667,,-2.418913603,-0.304886222,-0.735313833,-0.503263593,-0.062526688,-0.346184343
2.087869952,,1.930500507,-1.697470013,0.21749796,-1.78352863,4.743790627,2.866027832,,-0.126157135,0.150496304,-0.072953574,-0.019965719,0.032381378,-0.068885326,,-2.38304472,-0.475263834,-0.802568197,-0.422436416,-0.282132626,-0.286707729
2.095799808,,1.92944622,-1.696282212,0.216935456,-1.783684556,4.743610859,2.865406275,,-0.130324453,0.151097104,-0.0705759,-0.02274606,-0.034442663,-0.074661724,,-2.264228582,-0.582870722,-0.802568197,-0.550539851,-0.004575124,-0.08540231
2.103849984,,1.928451538,-1.695035283,0.216372937,-1.783851449,4.743766785,2.864903688,,-0.131487727,0.151659563,-0.06933593,-0.020588899,0.025909895,-0.067710876,,-2.138687372,-0.455087543,-0.84292078,-0.489538223,-0.317208558,-0.021350577
2.111769856,,1.927408218,-1.693847958,0.215833649,-1.784031216,4.743539333,2.8643291,,-0.133878171,0.153807148,-0.069093056,-0.017377127,-0.032381378,-0.069220886,,-2.255261421,-0.338513404,-0.780150056,-0.63899225,0.033550907,-0.080827184
2.119869952,,1.926353931,-1.692577187,0.215307087,-1.784175221,4.743790627,2.863754511,,-0.133801475,0.155315563,-0.06870956,-0.014956313,0.022602249,-0.068741515,,-2.338208437,-0.369898736,-0.591838002,-0.521564066,-0.379735261,-0.157079235
2.127759872,,1.925262928,-1.691365544,0.21479252,-1.784270589,4.743551254,2.863251925,,-0.135386586,0.154676393,-0.065782212,-0.008532768,-0.023800671,-0.057716031,,-2.295614004,-0.457329363,-0.468538404,-0.65271765,0.088452391,-0.237906426
2.135859968,,1.924255848,-1.690058533,0.214265957,-1.784438435,4.743682861,2.862821579,,-0.136102453,0.157105207,-0.065309234,-0.025909895,0.015411714,-0.060400497,,-2.264228582,-0.508890986,-0.598563433,-0.568840384,-0.428536564,-0.260782033
2.143769856,,1.9231534,-1.688835446,0.213774607,-1.784486119,4.743503571,2.862343073,,-0.134555683,0.155558437,-0.062317971,-0.008628642,-0.017904432,-0.065290064,,-2.201457977,-0.506649196,-0.679268599,-0.599341214,0.129628494,-0.147928998
2.15184,,1.92209816,-1.687564198,0.213236064,-1.784581963,4.743719101,2.861840487,,-0.135297105,0.153986111,-0.064670078,-0.021739384,0.015651399,-0.061766699,,-2.199216127,-0.320578903,-0.569419861,-0.780821085,-0.484963089,0.021350577
2.159849984,,1.921007633,-1.68624479,0.212733477,-1.784797494,4.743515491,2.861338377,,-0.134108275,0.155903578,-0.061090786,-0.013446301,-0.012511531,-0.053785205,,-2.37631917,-0.475263834,-0.605288863,-0.532239377,0.128103465,0.044226196
2.16777984,,1.919929028,-1.6850341,0.21220693,-1.784821335,4.743635178,2.860967159,,-0.135386586,0.155788541,-0.06143593,-0.008628642,-0.042256378,-0.059969064,,-2.436848164,-0.508890986,-0.620981514,-0.675593257,-0.419386327,-0.076252058
2.17572992,,1.918849945,-1.68373901,0.211751521,-1.785085026,4.743503571,2.860429287,,-0.134939179,0.156389341,-0.058291271,-0.030152312,0.003259709,-0.066704199,,-2.439089775,-0.690477669,-0.742039263,-0.474287808,0.080827184,-0.157079235
2.183820032,,1.9177351,-1.682503525,0.211284891,-1.785204713,4.743610859,2.859962225,,-0.139605045,0.154446304,-0.058955997,-0.014333134,-0.042016692,-0.052610751,,-2.326999426,-0.495440125,-0.724104822,-0.585615814,-0.349234432,-0.233331308
2.191849984,,1.916668415,-1.681244198,0.21085383,-1.785396401,4.743563175,2.859555721,,-0.142072186,0.157769933,-0.054801464,-0.02706038,0.038469363,-0.051100738,,-2.23956871,-0.360931486,-0.742039263,-0.42701152,-0.001525041,-0.295857996
2.199859968,,1.915505886,-1.679997269,0.2103872,-1.785552327,4.743539333,2.8591609,,-0.143912971,0.158063933,-0.055121046,-0.018647455,-0.038397457,-0.055127438,,-2.286646843,-0.304886222,-0.670301378,-0.44073689,-0.19825536,-0.228756174
2.207820032,,1.914343357,-1.678714101,0.209943771,-1.785779301,4.743587017,2.858717918,,-0.144462645,0.159725755,-0.053497583,-0.025933864,0.03108708,-0.05757222,,-2.338208437,-0.486472875,-0.56493628,-0.350759476,-0.122003295,-0.094552554
2.215849984,,1.913192272,-1.677454774,0.209537059,-1.785935227,4.743443489,2.858275652,,-0.142110541,0.159163296,-0.051925249,-0.015028219,-0.037702374,-0.053233929,,-2.259745121,-0.490956515,-0.499923766,-0.340084195,-0.080827184,0.007625206
2.223849984,,1.912054062,-1.676135842,0.209117994,-1.786042992,4.743575096,2.857880831,,-0.14416863,0.159355044,-0.052321531,-0.019821908,0.032381378,-0.049542788,,-2.259745121,-0.42146039,-0.531309128,-0.352284521,-0.201305434,0.004575124
2.23184,,1.910951138,-1.674924676,0.208711281,-1.786162678,4.743443489,2.85748601,,-0.144270897,0.160160378,-0.048205346,-0.015915051,-0.038469363,-0.050837085,,-2.24629426,-0.212972,-0.506649196,-0.350759476,-0.059476607,-0.070151895
2.239759872,,1.909776688,-1.673593823,0.208255872,-1.786258523,4.743563175,2.857031345,,-0.143299371,0.159904718,-0.048767805,-0.015819177,0.028114993,-0.053329803,,-2.185765266,-0.351964265,-0.573903501,-0.434636742,-0.236381382,-0.123528339
2.24784,,1.908577919,-1.672310654,0.207872748,-1.786485974,4.743347645,2.856600761,,-0.143056497,0.162307948,-0.045367483,-0.020948427,-0.037750311,-0.045875616,,-2.163347244,-0.499923766,-0.484231085,-0.346184343,0.083877265,-0.190630153
2.255759872,,1.907450676,-1.671039406,0.207525954,-1.7865575,4.743575096,2.856277943,,-0.14260909,0.16307494,-0.046160039,-0.013709954,0.035856802,-0.040147156,,-2.24181056,-0.659092307,-0.56493628,-0.497163415,-0.305008233,-0.248581707
2.263749888,,1.906288624,-1.669744317,0.207166806,-1.786725346,4.743311882,2.855954647,,-0.144462645,0.163471222,-0.043769587,-0.026053706,-0.032381378,-0.043670516,,-2.318032026,-0.390075028,-0.629948735,-0.504788637,0.157079235,-0.233331308
2.271830016,,1.905138016,-1.668437306,0.206807658,-1.786869351,4.743610859,2.855655432,,-0.145127371,0.164647281,-0.043501139,-0.014644723,0.032381378,-0.044964813,,-2.396495581,-0.410251319,-0.733072042,-0.562740207,-0.364484847,-0.158604279
2.27984,,1.903939247,-1.667154137,0.206484079,-1.787000958,4.743311882,2.855224848,,-0.148054719,0.166718155,-0.041890461,-0.023249397,-0.025909895,-0.045899585,,-2.165589094,-0.439394861,-0.737555683,-0.565790296,0.263832122,-0.022875618
2.287830016,,1.902692318,-1.665787045,0.206137285,-1.787132565,4.743575096,2.854925632,,-0.149448082,0.165708274,-0.040522661,-0.012175973,0.021595575,-0.041345578,,-2.208183289,-0.511132777,-0.809293628,-0.56731534,-0.46818763,0.024400659
2.29584,,1.901529789,-1.664491955,0.205826074,-1.787288491,4.743299961,2.854578733,,-0.148642749,0.166718155,-0.038924765,-0.020157468,-0.018503644,-0.037918091,,-2.306823015,-0.488714695,-0.795842767,-0.658817768,0.276032448,0.05337644
2.303869952,,1.900271416,-1.663149182,0.205478534,-1.787384335,4.743598938,2.854315519,,-0.147735134,0.165312007,-0.038796932,-0.01176851,-0.00433829,-0.033795517,,-2.365110159,-0.405767709,-0.744281113,-0.577990592,-0.463612527,-0.018300494
2.311799808,,1.899132729,-1.661829774,0.2051557,-1.787408177,4.743359566,2.854016542,,-0.149563134,0.166104555,-0.037531398,-0.00541687,0.003523362,-0.041992724,,-2.270954132,-0.354206055,-0.744281113,-0.715244293,0.207405597,-0.08540231
2.31972992,,1.897945881,-1.660486523,0.204832509,-1.787587468,4.743515491,2.853633881,,-0.150381252,0.16822657,-0.037173469,-0.021595575,-0.042472094,-0.044629257,,-2.179039955,-0.55372721,-0.600805223,-0.565790296,-0.390410542,-0.155554205
2.327820032,,1.896771431,-1.65914375,0.204532906,-1.78761131,4.743419647,2.853358746,,-0.149997756,0.168354392,-0.035716187,-0.008628642,0.042424157,-0.035497274,,-2.170072556,-0.607530653,-0.55372721,-0.623741865,0.137253702,-0.208930641
2.335769856,,1.89558506,-1.657764737,0.204269618,-1.787671391,4.743503571,2.853059769,,-0.14994663,0.167050511,-0.034425087,-0.004673848,-0.044077981,-0.028474519,,-2.273195982,-0.609772444,-0.526825488,-0.806746781,-0.298908085,-0.2699323
2.343810048,,1.894398212,-1.656421963,0.203994364,-1.78786308,4.743419647,2.852856159,,-0.149448082,0.168354392,-0.032942239,-0.024495756,0.037750311,-0.027276097,,-2.389770031,-0.430427611,-0.576145291,-0.466662616,-0.006100165,-0.29738304
2.351810048,,1.893199444,-1.655090634,0.203683138,-1.787875001,4.743383884,2.852628708,,-0.153116852,0.17037414,-0.032072984,-0.006159892,-0.037942059,-0.028690236,,-2.309064865,-0.493198335,-0.526825488,-0.704569042,-0.100652717,-0.308058321
2.359749888,,1.891988754,-1.65366346,0.203455821,-1.78804237,4.743479729,2.852413416,,-0.153014585,0.170028985,-0.030091591,-0.032860745,0.035017908,-0.027947214,,-2.183523417,-0.535792708,-0.591838002,-0.584090769,-0.111328006,-0.253156841
2.367859968,,1.890790462,-1.652320687,0.203240097,-1.788114373,4.743299961,2.852126122,,-0.156261519,0.170169607,-0.029823143,-0.009946907,-0.035065845,-0.036120456,,-2.300097704,-0.690477669,-0.490956515,-0.620691776,-0.022875618,-0.183004946
2.375799808,,1.889460087,-1.650893513,0.20296447,-1.78824598,4.74349165,2.851850986,,-0.158063933,0.169121385,-0.029209552,-0.026437201,0.038469363,-0.031182954,,-2.300097704,-0.470780224,-0.540276349,-0.703043997,-0.244006589,-0.117428169
2.383759872,,1.888177395,-1.649538819,0.202749118,-1.788425271,4.743264198,2.851635933,,-0.155507311,0.168980777,-0.026716832,-0.014788534,-0.042927496,-0.028594362,,-2.331482887,-0.405767709,-0.408009529,-0.466662616,0.143353865,-0.047276277
2.391849984,,1.886930466,-1.64820749,0.202509806,-1.788557355,4.743503571,2.85138464,,-0.156389341,0.16794534,-0.027522173,-0.022530343,0.018503644,-0.031518511,,-2.165589094,-0.470780224,-0.354206055,-0.562740207,-0.366009891,-0.012200329
2.399759872,,1.885684013,-1.646840398,0.202294096,-1.788760964,4.743204117,2.851157188,,-0.157463133,0.169325918,-0.022408903,-0.015555524,-0.021595575,-0.026413232,,-2.219392538,-0.607530653,-0.369898736,-0.388885498,0.221130967,-0.010675289
2.407849984,,1.884413719,-1.645497147,0.202126697,-1.788808648,4.74345541,2.850929976,,-0.156811193,0.170233518,-0.02481214,-0.019558256,0.018503644,-0.024208136,,-2.192490816,-0.609772444,-0.408009529,-0.488013178,-0.38278535,0.003050082
2.415769856,,1.883179665,-1.644154374,0.201935321,-1.789059941,4.743180275,2.850738525,,-0.155558437,0.172662318,-0.021066669,-0.021595575,-0.021595575,-0.025334653,,-2.300097704,-0.313853472,-0.450603932,-0.294332951,0.286707729,-0.061001647
2.42388992,,1.881872177,-1.642787282,0.201743573,-1.789120022,4.743431568,2.850535154,,-0.157041281,0.171447918,-0.025464082,-0.009251822,-0.004386227,-0.022410501,,-2.282163143,-0.403525889,-0.502165556,-0.362959802,-0.399560779,-0.062526688
2.431820032,,1.880626202,-1.641360585,0.201516241,-1.789252106,4.743216515,2.850331783,,-0.15819177,0.171652451,-0.020274114,-0.023776703,0.003739078,-0.027395939,,-2.24181056,-0.432669431,-0.549243569,-0.340084195,0.2699323,-0.11285305
2.439869952,,1.879367828,-1.640017811,0.201396406,-1.789335553,4.743371487,2.850152493,,-0.159482867,0.173621058,-0.019634955,-0.012942963,-0.040530652,-0.019606194,,-2.291130304,-0.56493628,-0.585112572,-0.262307078,-0.34160924,-0.12657842
2.447759872,,1.878048897,-1.638590638,0.201217011,-1.789359872,4.743323803,2.849972725,,-0.163023815,0.173978984,-0.020095149,-0.00510528,0.041705105,-0.018743329,,-2.154379845,-0.425944,-0.679268599,-0.402610868,0.140303791,-0.18452999
2.45584,,1.876766682,-1.637175385,0.2010732,-1.789551083,4.743323803,2.849853277,,-0.161668792,0.173327044,-0.017410683,-0.024375914,-0.042759717,-0.017017599,,-2.23732686,-0.473022014,-0.612014294,-0.215030804,-0.167754531,-0.207405597
2.463769856,,1.875460148,-1.635820691,0.200917408,-1.78951532,4.743383884,2.849745512,,-0.162640318,0.173915073,-0.019711653,-0.006159892,0.040626526,-0.013182648,,-2.309064865,-0.55821085,-0.710653961,-0.329408884,-0.048801318,-0.22723113
2.471749888,,1.874141216,-1.634454075,0.200773969,-1.789599244,4.743252277,2.849662304,,-0.161361992,0.173978984,-0.016145147,-0.016490294,-0.037966028,-0.012799153,,-2.261986732,-0.717379391,-0.650125086,-0.402610868,0.016775453,-0.280607581
2.479830016,,1.872835159,-1.633063142,0.200630158,-1.789754693,4.743431568,2.84956646,,-0.161924452,0.17339097,-0.01647751,-0.01176851,0.035689022,-0.012942963,,-2.188007116,-0.656850517,-0.757731974,-0.245531633,-0.260782033,-0.176904783
2.48784,,1.871456623,-1.631672208,0.200498343,-1.789790932,4.743156433,2.849542379,,-0.160786763,0.174132392,-0.015314242,-0.005656554,-0.032381378,-0.004961469,,-2.131961823,-0.499923766,-0.668059528,-0.41328615,0.230281219,-0.315683514
2.49584,,1.870210171,-1.630245034,0.200402841,-1.789946381,4.74349165,2.849411011,,-0.159534007,0.17495051,-0.01228463,-0.024040356,0.025909895,-0.022506375,,-2.311306715,-0.490956515,-0.746522903,-0.335509062,-0.419386327,-0.230281219
2.503759872,,1.868916035,-1.628841702,0.200306967,-1.789958302,4.743192196,2.84939909,,-0.160352126,0.17644614,-0.013179452,-0.008628642,-0.029577069,-0.010689929,,-2.418913603,-0.591838002,-0.69271946,-0.346184343,0.022875618,-0.222656012
2.511799808,,1.867632866,-1.627450768,0.200199485,-1.790030305,4.743192196,2.849363089,,-0.162563622,0.178197443,-0.008871523,-0.004362258,-0.007286409,-0.005392902,,-2.302339554,-0.652366877,-0.771182835,-0.481913,-0.004575124,-0.286707729
2.519769856,,1.86633873,-1.626024071,0.200115591,-1.790149991,4.743323803,2.849183559,,-0.165043548,0.175512969,-0.011875568,-0.020301279,0.008125305,-0.027132286,,-2.131961823,-0.506649196,-0.737555683,-0.350759476,0.003050082,-0.244006589
2.527749888,,1.865044117,-1.624621216,0.200055674,-1.790221993,4.74328804,2.849183559,,-0.166181251,0.174873814,-0.008603076,-0.008077368,-0.003499394,-0.007837683,,-2.293372154,-0.517858267,-0.710653961,-0.420911372,-0.141828835,-0.192155182
2.535830016,,1.863737583,-1.62315828,0.200007737,-1.790305916,4.743264198,2.849159718,,-0.168418318,0.17644614,-0.007401458,-0.024423851,0.032261536,-0.006159892,,-2.313548565,-0.594079793,-0.742039263,-0.547489762,0.12657842,-0.233331308
2.54377984,,1.862383366,-1.621731583,0.199888259,-1.790437047,4.743323803,2.849087715,,-0.168111518,0.17675294,-0.009242235,-0.009946907,-0.028306741,-0.00107858,,-2.329241276,-0.766699195,-0.656850517,-0.399560779,-0.208930641,-0.321783692
2.55184,,1.861065388,-1.620316807,0.199876279,-1.790497128,4.743323803,2.848992348,,-0.16823934,0.175551325,-0.005381716,-0.007574031,0.038301583,-0.016178705,,-2.22163415,-0.742039263,-0.524583697,-0.550539851,0.067101814,-0.074727021
2.559859968,,1.859758377,-1.618901555,0.199816361,-1.790616814,4.743275642,2.84904027,,-0.167267829,0.176062644,-0.002671683,-0.021260016,-0.03679157,0.011121362,,-2.181281567,-0.499923766,-0.793600917,-0.434636742,-0.05337644,-0.201305434
2.567769856,,1.858379841,-1.617546384,0.199804381,-1.790653054,4.743419647,2.848896503,,-0.1669866,0.177826732,-0.007938351,-0.007190535,0.029577069,-0.031566449,,-2.342692137,-0.481989264,-0.517858267,-0.474287808,-0.173854694,-0.09302751
2.57577984,,1.857061863,-1.616095368,0.199768424,-1.790712659,4.743192196,2.849004269,,-0.16823934,0.177430451,-0.003131877,-0.004050668,-0.033939328,0.032285504,,-2.326999426,-0.636674225,-0.538034558,-0.602391243,0.152504116,-0.21350576
2.58377984,,1.85571909,-1.614680592,0.199768424,-1.790856187,4.74345541,2.848848343,,-0.167830288,0.17859371,-0.001879127,-0.017017599,0.032381378,-0.025909895,,-2.300097704,-0.721862972,-0.508890986,-0.463612527,-0.303483188,0.086927347
2.591810048,,1.854352951,-1.613278214,0.199768424,-1.790832345,4.743192196,2.849004269,,-0.17249614,0.178350836,-0.001342233,-0.00680704,-0.031111049,0.032980587,,-2.24629426,-0.490956515,-0.538034558,-0.503263593,0.279082537,-0.303483188
2.599759872,,1.852998734,-1.611863438,0.199756444,-1.790820424,4.74345541,2.848776579,,-0.172675103,0.17675294,-0.001035437,-0.003691141,0.018503644,-0.025909895,,-2.335966587,-0.490956515,-0.455087543,-0.587140858,-0.385835409,0.190630153
2.607709952,,1.851583958,-1.610460583,0.199756444,-1.790868107,4.743156433,2.848968267,,-0.172291607,0.177430451,-0.000856473,-0.002684467,-0.018503644,0.025909895,,-2.288888454,-0.663575947,-0.365415126,-0.642042339,0.32788384,-0.512413859
2.615820032,,1.850217819,-1.609093014,0.199756444,-1.791059796,4.743431568,2.848764658,,-0.173493236,0.178517014,-0.000715858,-0.019054918,-0.003451457,-0.017760621,,-2.253019571,-0.771182835,-0.399042279,-0.489538223,-0.42701152,0.274507403
2.623759872,,1.84880352,-1.607641999,0.199816361,-1.791059796,4.743228436,2.848944426,,-0.173301488,0.177980125,-0.000485761,-0.006471482,0.004122573,0.011337077,,-2.190248966,-0.511132777,-0.242115542,-0.512413859,0.338559151,-0.39651072
2.631739904,,1.847448826,-1.606263463,0.199792385,-1.791059796,4.743371487,2.848860502,,-0.173493236,0.180166051,-0.000485761,-0.003595268,-0.044485446,0.003930826,,-2.073674679,-0.493198335,-0.183828458,-0.599341214,-0.346184343,0.210455686
2.639769856,,1.846094608,-1.604788605,0.199816361,-1.791059796,4.743359566,2.848992348,,-0.170732066,0.18166168,0.002147573,-0.00246875,0.04903945,-0.029672941,,-2.214908838,-0.549243569,-0.150201306,-0.646617472,0.132678583,-0.35533461
2.647739904,,1.844655991,-1.603349511,0.199840322,-1.791168038,4.74328804,2.848944426,,-0.169913948,0.181342095,0.002147573,-0.013014869,-0.036096487,0.046906259,,-2.309064865,-0.748764753,-0.096397854,-0.62526691,-0.044226196,0.059476607
2.655789824,,1.843338013,-1.601887051,0.199876279,-1.791191403,4.743479729,2.848980188,,-0.172713459,0.182070747,0.003157444,-0.01176851,0.041321609,-0.028810078,,-2.286646843,-0.710653961,-0.024659917,-0.486488134,-0.122003295,-0.22723113
2.663799808,,1.841947556,-1.600436513,0.199900255,-1.791191403,4.74328804,2.849051714,,-0.173684984,0.180229962,0.00483204,-0.00479369,-0.030080406,0.053233929,,-2.226117849,-0.603047013,-0.07397975,-0.571890414,0.100652717,-0.195205271
2.671869952,,1.840497017,-1.598949734,0.199900255,-1.791215245,4.743527412,2.849075794,,-0.174669281,0.180166051,0.008206798,-0.002996056,0.035689022,-0.02492719,,-2.257503271,-0.663575947,0.100881472,-0.632892072,-0.309583366,-0.09302751
2.679769856,,1.839059353,-1.597522084,0.199983761,-1.791263405,4.743228436,2.849219561,,-0.17523174,0.179935947,0.008372978,-0.002229066,-0.025909895,0.04319115,,-2.353901148,-0.83619535,-0.002241811,-0.669493079,0.306533277,-0.343134254
2.687859968,,1.837644577,-1.59613115,0.200031698,-1.791431252,4.743551254,2.849135637,,-0.175027207,0.180958599,0.007363108,-0.014429008,0.021595575,-0.018503644,,-2.311306715,-0.847404361,0.179344848,-0.486488134,-0.44073689,0.083877265
2.695739904,,1.836242676,-1.594692532,0.200163528,-1.791419331,4.743299961,2.84937501,,-0.175372362,0.178440318,0.013499031,-0.007621967,0.004002731,0.021595575,,-2.140928984,-0.571661711,0.015692674,-0.489538223,0.330933928,-0.443786979
2.703820032,,1.834900379,-1.593229596,0.200199485,-1.791383092,4.743515491,2.849231482,,-0.174081251,0.179130614,0.008973788,-0.003906858,-0.00340352,-0.015435683,,-2.075916529,-0.549243569,0.121057771,-0.574940503,-0.423961461,0.11285305
2.711830016,,1.833509922,-1.591730897,0.200306967,-1.791431252,4.743323803,2.849446535,,-0.17399177,0.180229962,0.01571052,-0.00263653,0.004434163,0.019558256,,-2.309064865,-0.55372721,0.230906487,-0.629841983,0.282132626,-0.419386327
2.71972992,,1.832167625,-1.590232674,0.200366884,-1.791455094,4.743419647,2.849422932,,-0.173403755,0.181431577,0.010520551,-0.001989381,-0.043358926,0.035832833,,-2.344933748,-0.822744489,0.161410362,-0.640517294,-0.298908085,0.215030804
2.727869952,,1.830824375,-1.588781659,0.20048672,-1.791503255,4.743431568,2.849542379,,-0.175461844,0.180166051,0.011121361,-0.01176851,0.031158986,0.013278522,,-2.333724737,-0.726346612,0.405767709,-0.649667561,0.125053376,-0.343134254
2.735759872,,1.829410553,-1.587306801,0.200594202,-1.791599099,4.743431568,2.849674225,,-0.179399058,0.17859371,0.015275893,-0.007621967,-0.025478464,0.054216634,,-2.22163415,-0.598563433,0.199521139,-0.524614155,-0.172329649,-0.044226196
2.74372992,,1.827960014,-1.585868184,0.200702071,-1.791550938,4.743515491,2.849650383,,-0.17951411,0.179194525,0.013153885,-0.003906858,0.038133804,-0.002852246,,-2.335966587,-0.719621181,0.383349597,-0.568840384,0.045751236,-0.089977428
2.751759872,,1.826497555,-1.58444101,0.200809553,-1.791587178,4.743407726,2.849793434,,-0.179974303,0.178197443,0.017934792,-0.00263653,-0.038972702,0.043430831,,-2.394253731,-0.856371641,0.363173306,-0.614591599,-0.089977428,-0.016775453
2.759830016,,1.825047493,-1.583001916,0.200941384,-1.79161102,4.743563175,2.849865198,,-0.180562332,0.177673325,0.016745957,-0.002277003,0.03154248,0.009683254,,-2.250777721,-0.84067893,0.405767709,-0.617641687,-0.140303791,-0.05337644
2.767879936,,1.823645115,-1.581623379,0.201097175,-1.791694466,4.743359566,2.849912882,,-0.180166051,0.178747118,0.01945599,-0.007406252,-0.034131072,0.03154248,,-2.214908838,-0.455087543,0.511132777,-0.579515636,0.07930214,0.149454042
2.775739904,,1.822206974,-1.580208604,0.201240987,-1.791718308,4.743598938,2.850116491,,-0.178977206,0.179220095,0.019225894,-0.010785803,0.030104375,0.014381071,,-2.199216127,-0.549243569,0.466296583,-0.457512349,-0.28365767,-0.071676932
2.783810048,,1.820768833,-1.57881767,0.201420367,-1.791718308,4.743311882,2.850224018,,-0.178823814,0.180166051,0.020734308,-0.004625911,-0.032381378,0.023632893,,-2.297855854,-0.625465155,0.589596152,-0.481913,0.253156841,0.222656012
2.791739904,,1.819354534,-1.577354733,0.201576173,-1.79177839,4.74362278,2.85046339,,-0.17859371,0.182403103,0.021258418,-0.002924151,0.021595575,0.017520938,,-2.257503271,-0.726346612,0.609772444,-0.532239377,-0.381260306,0.03965107
2.79977984,,1.817856312,-1.575976197,0.201755553,-1.79174215,4.743359566,2.850630999,,-0.181201488,0.181827858,0.024236897,-0.002157161,-0.018503644,0.042184472,,-2.223875999,-0.538034558,0.641157806,-0.5398646,0.280607581,0.251631796
2.807799808,,1.816405773,-1.574513261,0.201983258,-1.791730229,4.743575096,2.850905895,,-0.181201488,0.18166168,0.023751136,-0.00170176,-0.003882889,0.021068268,,-2.208183289,-0.641157806,0.726346612,-0.542914689,-0.407186002,0.176904783
2.815820032,,1.814991951,-1.573050324,0.202150658,-1.791694466,4.743371487,2.851145744,,-0.181290969,0.182633206,0.024032366,-0.00139017,0.004074637,0.037175067,,-2.273195982,-0.847404361,0.762215614,-0.555114985,0.285182714,0.219605923
2.823820032,,1.813481808,-1.57165939,0.202354014,-1.791718308,4.743527412,2.851360559,,-0.182863295,0.181827858,0.024824923,-0.001198423,-0.0040267,0.02382464,,-2.24629426,-0.914658725,0.735313833,-0.558165073,-0.372110039,0.236381382
2.831769856,,1.81204319,-1.570196454,0.202545762,-1.791790311,4.74345541,2.851564407,,-0.180933043,0.181112006,0.025745312,-0.001030643,0.041177798,0.034370758,,-2.176798105,-0.775666475,0.672543168,-0.558165073,0.193680227,0.154029161
2.83984,,1.810581207,-1.568781678,0.202773094,-1.791754548,4.743443489,2.851850986,,-0.180357799,0.183860391,0.028212463,-0.000910801,-0.034059167,0.034370758,,-2.176798105,-0.603047013,0.614256084,-0.558165073,-0.141828835,0.144878909
2.847769856,,1.809058666,-1.567331139,0.202988803,-1.791718308,4.743503571,2.852090597,,-0.178095177,0.183374628,0.026499519,-0.000814927,0.040266998,0.031949945,,-2.190248966,-0.739797473,0.598563433,-0.556640029,-0.038126029,0.056426525
2.855799808,,1.807608604,-1.56586868,0.203216136,-1.79174215,4.743419647,2.852401495,,-0.17918174,0.183770895,0.029005021,-0.000743022,-0.032381378,0.03743872,,-2.306823015,-0.800326347,0.616497874,-0.555114985,-0.009150247,-0.007625206
2.863859968,,1.806206703,-1.564405743,0.203515366,-1.791754548,4.743610859,2.85270071,,-0.178261355,0.182556495,0.028174113,-0.000671117,0.030559774,0.036168393,,-2.360626459,-0.865338862,0.569419861,-0.55358994,-0.19825536,-0.030500824
2.871749888,,1.804791927,-1.562870804,0.203719094,-1.79177839,4.743431568,2.852952003,,-0.180242747,0.180792421,0.030960847,-0.00062318,-0.027875308,0.030727554,,-2.24405241,-0.672543168,0.576145291,-0.562740207,0.115903132,-0.051851399
2.87972992,,1.803390026,-1.561432187,0.203982368,-1.79174215,4.743659019,2.853179216,,-0.183885947,0.180076569,0.030129939,-0.000575243,0.032381378,0.026892602,,-2.226117849,-0.753248334,0.555969,-0.555114985,-0.378210217,0
2.88777984,,1.801939964,-1.559933488,0.204221681,-1.791730229,4.743347645,2.853382587,,-0.184167176,0.18166168,0.031804536,-0.000527306,-0.032381378,0.026676886,,-2.396495581,-0.878789723,0.614256084,-0.556640029,0.193680227,0.051851399
2.895799808,,1.800477505,-1.558482949,0.204472974,-1.791754548,4.743659019,2.853633881,,-0.184614599,0.180229962,0.032724924,-0.000503337,0.021595575,0.031254862,,-2.273195982,-0.914658725,0.587354362,-0.530714333,-0.430061609,0.128103465
2.903769856,,1.799027443,-1.557044331,0.204784572,-1.791730229,4.743383884,2.853909254,,-0.183732554,0.17890051,0.03379871,-0.000479369,0.0044821,0.040770333,,-2.24405241,-0.672543168,0.515616417,-0.523089111,0.31110841,0.202830479
2.911789824,,1.797541142,-1.555569474,0.205083802,-1.791718308,4.743659019,2.854291439,,-0.183003917,0.179450184,0.035319909,-0.000455401,-0.025885927,0.043478768,,-2.165589094,-0.598563433,0.390075028,-0.515463948,-0.430061609,0.25620693
2.919830016,,1.796103001,-1.554154698,0.205347076,-1.791754548,4.743479729,2.854554892,,-0.181725591,0.180639029,0.034616835,-0.000431432,0.0335798,0.036264267,,-2.37183547,-0.84067893,0.342997015,-0.484963089,0.183004946,0.315683514
2.927820032,,1.794640541,-1.552703683,0.205634326,-1.791718308,4.743610859,2.854854107,,-0.182313621,0.181112006,0.035754535,-0.000407464,-0.030655649,0.038061898,,-2.400979042,-0.894482434,0.356447876,-0.475812852,-0.298908085,0.274507403
2.935820032,,1.793178082,-1.551241223,0.205933556,-1.791730229,4.743563175,2.855117321,,-0.185650036,0.179284006,0.03640648,-0.000383495,0.043982107,0.03621633,,-2.250777721,-0.735313833,0.300402611,-0.443786979,0.125053376,0.247056678
2.943799808,,1.791716099,-1.549790684,0.206232786,-1.791718308,4.743659019,2.855452061,,-0.185151488,0.178286925,0.036163598,-0.000359527,-0.02878611,0.042184472,,-2.253019571,-0.715137541,0.387833238,-0.407186002,-0.202830479,0.137253702
2.951830016,,1.790181637,-1.548399274,0.206556365,-1.79174215,4.743659019,2.855787277,,-0.185381576,0.178350836,0.036355346,-0.000335558,0.042016692,0.044940844,,-2.360626459,-0.84292078,0.347480625,-0.390410542,-0.071676932,0.068626851
2.95984,,1.78867197,-1.546972577,0.206867576,-1.791754548,4.743587017,2.856122494,,-0.187861517,0.178670421,0.038886413,-0.000335558,-0.032405347,0.042831622,,-2.297855854,-0.955011308,0.497681946,-0.346184343,-0.068626851,-0.012200329
2.967739904,,1.787126064,-1.545605961,0.207154825,-1.79174215,4.743754864,2.856456995,,-0.185189828,0.177123651,0.037582532,-0.00031159,0.042040661,0.039092544,,-2.205941677,-0.768941045,0.56045264,-0.301958144,-0.234856337,0.016775453
2.97584,,1.785675526,-1.544143025,0.207525954,-1.791730229,4.743551254,2.85675621,,-0.185113132,0.178350836,0.041097902,-0.00031159,-0.025909895,0.036983319,,-2.129719973,-0.605288863,0.643399656,-0.274507403,0.147928998,0.074727021
2.983629824,,1.784201145,-1.542728726,0.207825184,-1.791682545,4.743754864,2.85709095,,-0.183617502,0.180166051,0.040445961,-0.000287621,0.025909895,0.040890176,,-2.170072556,-0.665817738,0.650125086,-0.233331308,-0.378210217,0.179954857
2.991859968,,1.782751083,-1.541253869,0.208207935,-1.791658703,4.743479729,2.857438087,,-0.182952777,0.181022525,0.041622013,7.19E-05,-0.032381378,0.046378952,,-2.264228582,-0.878789723,0.672543168,-0.186055019,0.233331308,0.244006589
2.999769856,,1.781229019,-1.539815251,0.208507538,-1.791550938,4.743814945,2.857820988,,-0.183937088,0.180472851,0.041519746,0.009203885,0.016921727,0.045707837,,-2.261986732,-0.84067893,0.643399656,-0.242481545,-0.459037393,0.268407255
3.007820032,,1.779754639,-1.538352315,0.208890662,-1.79157478,4.743551254,2.858144045,,-0.184320584,0.179284006,0.043066513,0.005632586,-0.018239992,0.043910202,,-2.210425138,-0.800326347,0.656850517,-0.271457344,0.236381382,0.259256989
3.015820032,,1.778232574,-1.536913697,0.209273785,-1.791539017,4.743766785,2.858515263,,-0.185049221,0.179526895,0.042695798,0.003307646,0.010306434,0.045420215,,-2.266470432,-0.889998794,0.683752239,-0.19978039,-0.352284521,0.19825536
3.023759872,,1.776686668,-1.535462681,0.20962058,-1.791503255,4.743647099,2.858885527,,-0.186455369,0.179603592,0.043334957,0.002972088,0.004865596,0.048080713,,-2.385286331,-0.98191303,0.70168668,-0.157079235,0.143353865,0.149454042
3.031739904,,1.775176048,-1.534048382,0.209895834,-1.791383092,4.743742943,2.859280348,,-0.185240969,0.177980125,0.044447094,0.010402308,-0.040482715,0.049734537,,-2.318032026,-1.085036278,0.735313833,-0.228756174,-0.373635083,0.047276277
3.03984,,1.773714066,-1.532633607,0.210314915,-1.791395013,4.74367094,2.859699011,,-0.184448406,0.176292747,0.046939813,0.007190535,0.04532434,0.049255166,,-2.181281567,-0.854129791,0.598563433,-0.236381382,0.105227843,-0.0259257
3.047749888,,1.772252083,-1.531183068,0.21068643,-1.791347329,4.743742943,2.860046148,,-0.184013784,0.17644614,0.044779457,0.003810984,-0.038948733,0.042352252,,-2.154379845,-0.69271946,0.56493628,-0.150979072,-0.233331308,0.038126029
3.055739904,,1.770813465,-1.529768292,0.211009622,-1.791239564,4.743754864,2.860369444,,-0.183170095,0.177430451,0.047348876,0.017185379,0.037894122,0.042951465,,-2.275437593,-0.715137541,0.533550918,-0.157079235,-0.082352221,0.091502473
3.063810048,,1.769375324,-1.528329674,0.21144031,-1.791168038,4.743694782,2.860752106,,-0.183834821,0.17736654,0.048243698,0.010785803,-0.036000613,0.051747885,,-2.320273876,-0.876547933,0.551485419,-0.298908085,-0.082352221,0.218080893
3.071769856,,1.767973423,-1.526902978,0.211859375,-1.791131798,4.743814945,2.86117053,,-0.183834821,0.179373488,0.049713761,0.004625911,0.036312204,0.057739999,,-2.302339554,-0.925867736,0.531309128,-0.164704442,-0.179954857,0.292807907
3.079739904,,1.766474724,-1.525476281,0.21220693,-1.791047875,4.743682861,2.861601114,,-0.188193887,0.175615236,0.049790461,0.017904432,-0.033172335,0.048775796,,-2.268712282,-0.780150056,0.690477669,-0.193680227,0.022875618,0.309583366
3.087849984,,1.764988899,-1.524001424,0.212589666,-1.791012112,4.743922234,2.861984253,,-0.187017828,0.176906332,0.05014839,0.008628642,0.032381378,0.051628042,,-2.414429903,-0.863097072,0.737555683,-0.259256989,-0.394985676,0.251631796
3.095830016,,1.763454914,-1.522599045,0.213020727,-1.79098827,4.743659019,2.862390995,,-0.186723813,0.177673325,0.052781723,0.00417051,-0.021595575,0.057284597,,-2.322515726,-1.082794547,0.791359127,-0.123528339,0.17080462,0.143353865
3.103739904,,1.761944294,-1.521231953,0.21343942,-1.790904347,4.743970394,2.86286974,,-0.187426895,0.175461844,0.052628327,0.022194786,0.021595575,0.056038238,,-2.190248966,-1.067101836,0.759973764,-0.150979072,-0.488013178,0.033550907
3.111820032,,1.76047039,-1.51985294,0.213870481,-1.790832345,4.743682861,2.863287926,,-0.186992258,0.17584534,0.053433664,0.008077368,-0.025909895,0.052658685,,-2.145412683,-0.683752239,0.789117336,-0.207405597,0.228756174,-0.009150247
3.119749888,,1.758960247,-1.518438641,0.214277953,-1.790784661,4.743957996,2.863706589,,-0.185828999,0.175551325,0.053970557,0.00433829,0.014381071,0.051699948,,-2.255261421,-0.728588402,0.881031573,-0.067101814,-0.466662616,0.091502473
3.127810048,,1.757474422,-1.517060105,0.214744583,-1.790641133,4.743731022,2.864101648,,-0.182735458,0.177980125,0.056079783,0.022050975,-0.009371664,0.055918396,,-2.304581165,-0.849646211,0.925867736,-0.158604279,0.146403953,0.21198073
3.135830016,,1.756011963,-1.515669171,0.215127707,-1.790688817,4.743957996,2.864616394,,-0.185215399,0.177277043,0.055069912,0.006471482,0.015124093,0.059010327,,-2.275437593,-0.97294575,0.889998794,-0.076252058,-0.436161786,0.228756174
3.143830016,,1.754538059,-1.514254872,0.215618312,-1.790569131,4.743766785,2.865035057,,-0.186992258,0.177737251,0.058189005,0.018431738,0.003379551,0.056301892,,-2.24629426,-0.780150056,0.730830252,0.036600988,0.175379738,0.251631796
3.151830016,,1.753039837,-1.512852017,0.216061354,-1.790437047,4.744006157,2.865465641,,-0.18832171,0.175551325,0.057779945,0.014165354,-0.025430527,0.057716031,,-2.223875999,-0.802568197,0.643399656,-0.122003295,-0.434636742,0.175379738
3.159719936,,1.751565456,-1.511437241,0.216492414,-1.790389363,4.743874073,2.865943909,,-0.187299058,0.175909251,0.059250008,0.006471482,0.027563719,0.064187512,,-2.291130304,-0.928109586,0.607530653,-0.010675289,0.042701155,0.057951566
3.167759872,,1.75001955,-1.510010544,0.216983005,-1.790293996,4.743910313,2.866470575,,-0.187695339,0.175768629,0.058150657,0.027875308,-0.026245454,0.062989086,,-2.24405241,-1.096245408,0.748764753,0.109802961,-0.250106752,-0.054901481
3.175719936,,1.748509407,-1.50865585,0.217462003,-1.790161912,4.743957996,2.86691308,,-0.186340317,0.174272999,0.060541108,0.01176851,0.043526705,0.052778527,,-2.105060101,-1.024507403,0.739797473,-0.088452391,-0.048801318,-0.019825535
3.183789824,,1.746975422,-1.507288758,0.21796459,-1.79010183,4.743910313,2.867319822,,-0.184767991,0.175551325,0.060183182,0.00572846,-0.037654437,0.054240603,,-2.190248966,-0.83843714,0.782391906,0.176904783,-0.111328006,0.137253702
3.191769856,,1.745465279,-1.505873982,0.218419626,-1.789922063,4.744078159,2.86782217,,-0.183131739,0.175615236,0.062113442,0.021595575,0.032381378,0.067063726,,-2.309064865,-0.885515153,0.654608667,-0.038126029,-0.303483188,0.250106752
3.199709952,,1.744026661,-1.504459683,0.218898609,-1.789898221,4.743874073,2.868312597,,-0.183834821,0.175998732,0.061678812,0.00649545,-0.032381378,0.062581629,,-2.338208437,-0.941560447,0.623223305,0.193680227,0.077777103,0.276032448
3.207810048,,1.742528915,-1.50311691,0.219377235,-1.789683167,4.744173527,2.868851185,,-0.187465236,0.176369444,0.060617808,0.030535806,0.032381378,0.063324645,,-2.230601549,-1.071585417,0.69496125,-0.012200329,-0.401085824,0.218080893
3.21572992,,1.741054535,-1.501642529,0.21985586,-1.789635007,4.743886471,2.869365931,,-0.185880125,0.175103918,0.063251145,0.00958738,-0.029289447,0.070419312,,-2.219392538,-0.957253098,0.786875486,0.163179412,0.161654368,0.097602636
3.223830016,,1.739556313,-1.500191991,0.220371172,-1.789491002,4.744185448,2.86989212,,-0.188743562,0.172956333,0.063864738,0.022362564,0.018503644,0.067567065,,-2.320273876,-0.921384156,0.753248334,0.144878909,-0.516988933,-0.035075948
3.231739904,,1.738106251,-1.498777215,0.220861778,-1.789395157,4.743838787,2.87039423,,-0.187529162,0.174055696,0.06597396,0.008628642,0.00510528,0.057452377,,-2.205941677,-1.011056542,0.652366877,0.100652717,0.216555849,0.022875618
3.239759872,,1.736644268,-1.497411076,0.221376359,-1.789335553,4.744125843,2.870884895,,-0.185598895,0.172457799,0.065143049,0.017928401,-0.003667173,0.062581629,,-2.232843399,-1.111938,0.688235819,0.21198073,-0.465137571,0.173854694
3.247769856,,1.735182285,-1.495971982,0.221926883,-1.789215867,4.743957996,2.871375322,,-0.186621547,0.170092911,0.0676869,0.017592844,0.033819485,0.068453893,,-2.219392538,-1.067101836,0.641157806,0.009150247,0.105227843,0.228756174
3.255749888,,1.733683586,-1.494569127,0.222418234,-1.789192025,4.744053841,2.87193799,,-0.185330451,0.173684984,0.0676869,0.005872271,-0.003451457,0.066536419,,-2.37856102,-1.020023823,0.733072042,0.176904783,-0.372110039,0.239431471
3.263799808,,1.732185841,-1.493154351,0.222944796,-1.788964097,4.743982315,2.872476578,,-0.186007962,0.171511844,0.067201145,0.028570393,0.043598611,0.071282171,,-2.340450287,-0.869822502,0.789117336,-0.041176111,0.059476607,0.138778746
3.271739904,,1.730735779,-1.491823975,0.223471344,-1.788928334,4.74404192,2.873050213,,-0.186455369,0.170872673,0.070179619,0.008077368,-0.032812808,0.075093158,,-2.266470432,-1.004331112,0.744281113,0.030500824,-0.21350576,-0.001525041
3.279759872,,1.729261875,-1.490396802,0.223986298,-1.788784806,4.744102001,2.873648405,,-0.188845828,0.172598407,0.070320241,0.035976645,0.038109835,0.062605597,,-2.223875999,-1.143323421,0.654608667,0.089977428,-0.143353865,-0.047276277
3.287699968,,1.727751732,-1.489030186,0.224560782,-1.788593117,4.744006157,2.874103308,,-0.188615724,0.168840155,0.070831567,0.018959045,-0.031830102,0.064930536,,-2.302339554,-1.020023823,0.688235819,-0.114378087,-0.070151895,0.163179412
3.295789824,,1.726217747,-1.487663571,0.225099698,-1.788569276,4.744197369,2.874725342,,-0.186007962,0.169249222,0.069591597,0.006759103,0.036072519,0.079479381,,-2.333724737,-0.932593167,0.730830252,0.062526688,-0.399560779,0.268407255
3.303699968,,1.724707603,-1.486333195,0.225685805,-1.788353745,4.743946075,2.875323057,,-0.187362969,0.166449696,0.072787389,0.019510319,-0.030104375,0.070179626,,-2.257503271,-1.049167395,0.641157806,-0.230281219,0.134203628,0.291282862
3.311739904,,1.723233223,-1.485050503,0.226201132,-1.788210217,4.744233608,2.875897646,,-0.186723813,0.168558925,0.072276063,0.009155949,0.021595575,0.070251532,,-2.185765266,-1.136597991,0.607530653,-0.065576769,-0.50936377,0.19825536
3.319820032,,1.721735001,-1.483719651,0.226823553,-1.78804237,4.743934155,2.876471758,,-0.186723813,0.165375918,0.074129626,0.031854071,0.006663229,0.077993341,,-2.181281567,-1.107454419,0.659092307,-0.263832122,0.178429812,0.047276277
3.327699968,,1.720212936,-1.482364957,0.227362096,-1.787982766,4.744161606,2.877082109,,-0.183732554,0.168776244,0.073950656,0.009299759,-0.005297028,0.069172949,,-2.232843399,-0.822744489,0.795842767,-0.166229486,-0.390410542,0.01372537
